04-EFFECTS-AND-FILTERS/3d-luts-cube-files/bleach_bypass_action.cube
# Generated by Video Auto-Editor Pipeline
TITLE "Bleach Bypass Action"
LUT_3D_SIZE 5
DOMAIN_MIN 0.0 0.0 0.0
DOMAIN_MAX 1.0 1.0 1.0
0.000000 0.000000 0.000000
0.052325 0.029900 0.029900
0.149500 0.059800 0.059800
0.456975 0.089700 0.089700
0.719600 0.119600 0.119600
0.058700 0.102725 0.058700
0.155050 0.155050 0.088600
0.296250 0.207375 0.118500
0.559700 0.259700 0.148400
0.778300 0.312025 0.178300
0.117400 0.293500 0.117400
0.257775 0.368250 0.147300
0.443000 0.443000 0.177200
0.662425 0.517750 0.207100
0.837000 0.592500 0.237000
0.176100 0.608175 0.176100
0.360500 0.660500 0.206000
0.589750 0.712825 0.235900
0.765150 0.765150 0.265800
0.895700 0.817475 0.295700
0.234800 0.834800 0.234800
0.463225 0.864700 0.264700
0.736500 0.894600 0.294600
0.867875 0.924500 0.324500
0.954400 0.954400 0.354400
0.011400 0.011400 0.019950
0.072275 0.041300 0.072275
0.178000 0.071200 0.124600
0.476925 0.101100 0.176925
0.731000 0.131000 0.229250
0.070100 0.122675 0.122675
0.175000 0.175000 0.175000
0.324750 0.227325 0.227325
0.579650 0.279650 0.279650
0.789700 0.331975 0.331975
0.128800 0.322000 0.225400
0.277725 0.396750 0.277725
0.471500 0.471500 0.330050
0.682375 0.546250 0.382375
0.848400 0.621000 0.434700
0.187500 0.628125 0.328125
0.380450 0.680450 0.380450
0.618250 0.732775 0.432775
0.785100 0.785100 0.485100
0.907100 0.837425 0.537425
0.246200 0.846200 0.430850
0.483175 0.876100 0.483175
0.765000 0.906000 0.535500
0.887825 0.935900 0.587825
0.965800 0.965800 0.640150
0.022800 0.022800 0.057000
0.092225 0.052700 0.131750
0.206500 0.082600 0.206500
0.496875 0.112500 0.281250
0.742400 0.142400 0.356000
0.081500 0.142625 0.203750
0.194950 0.194950 0.278500
0.353250 0.247275 0.353250
0.599600 0.299600 0.428000
0.801100 0.351925 0.502750
0.140200 0.350500 0.350500
0.297675 0.425250 0.425250
0.500000 0.500000 0.500000
0.702325 0.574750 0.574750
0.859800 0.649500 0.649500
0.198900 0.648075 0.497250
0.400400 0.700400 0.572000
0.646750 0.752725 0.646750
0.805050 0.805050 0.721500
0.918500 0.857375 0.796250
0.257600 0.857600 0.644000
0.503125 0.887500 0.718750
0.793500 0.917400 0.793500
0.907775 0.947300 0.868250
0.977200 0.977200 0.943000
0.034200 0.034200 0.359850
0.112175 0.064100 0.412175
0.235000 0.094000 0.464500
0.516825 0.123900 0.516825
0.753800 0.153800 0.569150
0.092900 0.162575 0.462575
0.214900 0.214900 0.514900
0.381750 0.267225 0.567225
0.619550 0.319550 0.619550
0.812500 0.371875 0.671875
0.151600 0.379000 0.565300
0.317625 0.453750 0.617625
0.528500 0.528500 0.669950
0.722275 0.603250 0.722275
0.871200 0.678000 0.774600
0.210300 0.668025 0.668025
0.420350 0.720350 0.720350
0.675250 0.772675 0.772675
0.825000 0.825000 0.825000
0.929900 0.877325 0.877325
0.269000 0.869000 0.770750
0.523075 0.898900 0.823075
0.822000 0.928800 0.875400
0.927725 0.958700 0.927725
0.988600 0.988600 0.980050
0.045600 0.045600 0.645600
0.132125 0.075500 0.675500
0.263500 0.105400 0.705400
0.536775 0.135300 0.735300
0.765200 0.165200 0.765200
0.104300 0.182525 0.704300
0.234850 0.234850 0.734200
0.410250 0.287175 0.764100
0.639500 0.339500 0.794000
0.823900 0.391825 0.823900
0.163000 0.407500 0.763000
0.337575 0.482250 0.792900
0.557000 0.557000 0.822800
0.742225 0.631750 0.852700
0.882600 0.706500 0.882600
0.221700 0.687975 0.821700
0.440300 0.740300 0.851600
0.703750 0.792625 0.881500
0.844950 0.844950 0.911400
0.941300 0.897275 0.941300
0.280400 0.880400 0.880400
0.543025 0.910300 0.910300
0.850500 0.940200 0.940200
0.947675 0.970100 0.970100
1.000000 1.000000 1.000000
