04-EFFECTS-AND-FILTERS/3d-luts-cube-files/bleach_bypass_action.cube
# Generated by Video Auto-Editor Pipeline
TITLE "Bleach Bypass Action"
LUT_3D_SIZE 9
DOMAIN_MIN 0.0 0.0 0.0
DOMAIN_MAX 1.0 1.0 1.0
0.000000 0.000000 0.000000
0.020556 0.014950 0.014950
0.052325 0.029900 0.029900
0.095306 0.044850 0.044850
0.149500 0.059800 0.059800
0.308844 0.074750 0.074750
0.456975 0.089700 0.089700
0.593894 0.104650 0.104650
0.719600 0.119600 0.119600
0.029350 0.040356 0.029350
0.060912 0.060912 0.044300
0.103688 0.081469 0.059250
0.157675 0.102025 0.074200
0.222875 0.122581 0.089150
0.371212 0.143138 0.104100
0.508337 0.163694 0.119050
0.634250 0.184250 0.134000
0.748950 0.204806 0.148950
0.058700 0.102725 0.058700
0.101269 0.128887 0.073650
0.155050 0.155050 0.088600
0.220044 0.181212 0.103550
0.296250 0.207375 0.118500
0.433581 0.233537 0.133450
0.559700 0.259700 0.148400
0.674606 0.285863 0.163350
0.778300 0.312025 0.178300
0.088050 0.187106 0.088050
0.141625 0.218875 0.103000
0.206412 0.250644 0.117950
0.282412 0.282412 0.132900
0.369625 0.314181 0.147850
0.495950 0.345950 0.162800
0.611062 0.377719 0.177750
0.714962 0.409488 0.192700
0.807650 0.441256 0.207650
0.117400 0.293500 0.117400
0.181981 0.330875 0.132350
0.257775 0.368250 0.147300
0.344781 0.405625 0.162250
0.443000 0.443000 0.177200
0.558319 0.480375 0.192150
0.662425 0.517750 0.207100
0.755319 0.555125 0.222050
0.837000 0.592500 0.237000
0.146750 0.461844 0.146750
0.222337 0.493612 0.161700
0.309137 0.525381 0.176650
0.407150 0.557150 0.191600
0.516375 0.588919 0.206550
0.620687 0.620687 0.221500
0.713787 0.652456 0.236450
0.795675 0.684225 0.251400
0.866350 0.715994 0.266350
0.176100 0.608175 0.176100
0.262694 0.634337 0.191050
0.360500 0.660500 0.206000
0.469519 0.686662 0.220950
0.589750 0.712825 0.235900
0.683056 0.738987 0.250850
0.765150 0.765150 0.265800
0.836031 0.791313 0.280750
0.895700 0.817475 0.295700
0.205450 0.732494 0.205450
0.303050 0.753050 0.220400
0.411863 0.773606 0.235350
0.531888 0.794163 0.250300
0.663125 0.814719 0.265250
0.745425 0.835275 0.280200
0.816512 0.855831 0.295150
0.876387 0.876387 0.310100
0.925050 0.896944 0.325050
0.234800 0.834800 0.234800
0.343406 0.849750 0.249750
0.463225 0.864700 0.264700
0.594256 0.879650 0.279650
0.736500 0.894600 0.294600
0.807794 0.909550 0.309550
0.867875 0.924500 0.324500
0.916744 0.939450 0.339450
0.954400 0.954400 0.354400
0.005700 0.005700 0.007838
0.028394 0.020650 0.028394
0.062300 0.035600 0.048950
0.107419 0.050550 0.069506
0.163750 0.065500 0.090063
0.320956 0.080450 0.110619
0.466950 0.095400 0.131175
0.601731 0.110350 0.151731
0.725300 0.125300 0.172287
0.035050 0.048194 0.048194
0.068750 0.068750 0.068750
0.113663 0.089306 0.089306
0.169788 0.109863 0.109863
0.237125 0.130419 0.130419
0.383325 0.150975 0.150975
0.518313 0.171531 0.171531
0.642087 0.192087 0.192087
0.754650 0.212644 0.212644
0.064400 0.112700 0.088550
0.109106 0.138862 0.109106
0.165025 0.165025 0.129662
0.232156 0.191187 0.150219
0.310500 0.217350 0.170775
0.445694 0.243512 0.191331
0.569675 0.269675 0.211888
0.682444 0.295837 0.232444
0.784000 0.322000 0.253000
0.093750 0.199219 0.128906
0.149462 0.230988 0.149462
0.216387 0.262756 0.170019
0.294525 0.294525 0.190575
0.383875 0.326294 0.211131
0.508062 0.358062 0.231687
0.621038 0.389831 0.252244
0.722800 0.421600 0.272800
0.813350 0.453369 0.293356
0.123100 0.307750 0.169262
0.189819 0.345125 0.189819
0.267750 0.382500 0.210375
0.356894 0.419875 0.230931
0.457250 0.457250 0.251487
0.570431 0.494625 0.272044
0.672400 0.532000 0.292600
0.763156 0.569375 0.313156
0.842700 0.606750 0.333713
0.152450 0.473956 0.209619
0.230175 0.505725 0.230175
0.319112 0.537494 0.250731
0.419262 0.569263 0.271288
0.530625 0.601031 0.291844
0.632800 0.632800 0.312400
0.723762 0.664569 0.332956
0.803512 0.696337 0.353513
0.872050 0.728106 0.374069
0.181800 0.618150 0.249975
0.270531 0.644312 0.270531
0.370475 0.670475 0.291087
0.481631 0.696637 0.311644
0.604000 0.722800 0.332200
0.695169 0.748962 0.352756
0.775125 0.775125 0.373312
0.843869 0.801287 0.393869
0.901400 0.827450 0.414425
0.211150 0.740331 0.290331
0.310888 0.760887 0.310888
0.421837 0.781444 0.331444
0.544000 0.802000 0.352000
0.677375 0.822556 0.372556
0.757537 0.843112 0.393112
0.826488 0.863669 0.413669
0.884225 0.884225 0.434225
0.930750 0.904781 0.454781
0.240500 0.840500 0.330687
0.351244 0.855450 0.351244
0.473200 0.870400 0.371800
0.606369 0.885350 0.392356
0.750750 0.900300 0.412913
0.819906 0.915250 0.433469
0.877850 0.930200 0.454025
0.924581 0.945150 0.474581
0.960100 0.960100 0.495137
0.011400 0.011400 0.019950
0.036231 0.026350 0.046113
0.072275 0.041300 0.072275
0.119531 0.056250 0.098437
0.178000 0.071200 0.124600
0.333069 0.086150 0.150762
0.476925 0.101100 0.176925
0.609569 0.116050 0.203088
0.731000 0.131000 0.229250
0.040750 0.056031 0.071313
0.076588 0.076588 0.097475
0.123638 0.097144 0.123638
0.181900 0.117700 0.149800
0.251375 0.138256 0.175963
0.395437 0.158812 0.202125
0.528288 0.179369 0.228288
0.649925 0.199925 0.254450
0.760350 0.220481 0.280613
0.070100 0.122675 0.122675
0.116944 0.148838 0.148838
0.175000 0.175000 0.175000
0.244269 0.201162 0.201162
0.324750 0.227325 0.227325
0.457806 0.253487 0.253487
0.579650 0.279650 0.279650
0.690281 0.305813 0.305813
0.789700 0.331975 0.331975
0.099450 0.211331 0.174037
0.157300 0.243100 0.200200
0.226363 0.274869 0.226363
0.306638 0.306638 0.252525
0.398125 0.338406 0.278687
0.520175 0.370175 0.304850
0.631012 0.401944 0.331013
0.730638 0.433712 0.357175
0.819050 0.465481 0.383337
0.128800 0.322000 0.225400
0.197656 0.359375 0.251563
0.277725 0.396750 0.277725
0.369006 0.434125 0.303888
0.471500 0.471500 0.330050
0.582544 0.508875 0.356212
0.682375 0.546250 0.382375
0.770994 0.583625 0.408537
0.848400 0.621000 0.434700
0.158150 0.486069 0.276763
0.238013 0.517837 0.302925
0.329087 0.549606 0.329087
0.431375 0.581375 0.355250
0.544875 0.613144 0.381412
0.644912 0.644912 0.407575
0.733737 0.676681 0.433737
0.811350 0.708450 0.459900
0.877750 0.740219 0.486062
0.187500 0.628125 0.328125
0.278369 0.654287 0.354287
0.380450 0.680450 0.380450
0.493744 0.706612 0.406612
0.618250 0.732775 0.432775
0.707281 0.758937 0.458937
0.785100 0.785100 0.485100
0.851706 0.811262 0.511262
0.907100 0.837425 0.537425
0.216850 0.748169 0.379487
0.318725 0.768725 0.405650
0.431812 0.789281 0.431812
0.556113 0.809837 0.457975
0.691625 0.830394 0.484137
0.769650 0.850950 0.510300
0.836463 0.871506 0.536463
0.892062 0.892062 0.562625
0.936450 0.912619 0.588787
0.246200 0.846200 0.430850
0.359081 0.861150 0.457012
0.483175 0.876100 0.483175
0.618481 0.891050 0.509337
0.765000 0.906000 0.535500
0.832019 0.920950 0.561662
0.887825 0.935900 0.587825
0.932419 0.950850 0.613987
0.965800 0.965800 0.640150
0.017100 0.017100 0.036338
0.044069 0.032050 0.068106
0.082250 0.047000 0.099875
0.131644 0.061950 0.131644
0.192250 0.076900 0.163413
0.345181 0.091850 0.195181
0.486900 0.106800 0.226950
0.617406 0.121750 0.258719
0.736700 0.136700 0.290488
0.046450 0.063869 0.098706
0.084425 0.084425 0.130475
0.133613 0.104981 0.162244
0.194013 0.125537 0.194013
0.265625 0.146094 0.225781
0.407550 0.166650 0.257550
0.538263 0.187206 0.289319
0.657762 0.207763 0.321087
0.766050 0.228319 0.352856
0.075800 0.132650 0.161075
0.124781 0.158812 0.192844
0.184975 0.184975 0.224612
0.256381 0.211137 0.256381
0.339000 0.237300 0.288150
0.469919 0.263462 0.319919
0.589625 0.289625 0.351687
0.698119 0.315787 0.383456
0.795400 0.341950 0.415225
0.105150 0.223444 0.223444
0.165138 0.255213 0.255213
0.236338 0.286981 0.286981
0.318750 0.318750 0.318750
0.412375 0.350519 0.350519
0.532288 0.382288 0.382288
0.640988 0.414056 0.414056
0.738475 0.445825 0.445825
0.824750 0.477594 0.477594
0.134500 0.336250 0.285813
0.205494 0.373625 0.317581
0.287700 0.411000 0.349350
0.381119 0.448375 0.381119
0.485750 0.485750 0.412887
0.594656 0.523125 0.444656
0.692350 0.560500 0.476425
0.778831 0.597875 0.508194
0.854100 0.635250 0.539962
0.163850 0.498181 0.348181
0.245850 0.529950 0.379950
0.339062 0.561719 0.411719
0.443487 0.593487 0.443487
0.559125 0.625256 0.475256
0.657025 0.657025 0.507025
0.743712 0.688794 0.538794
0.819187 0.720562 0.570562
0.883450 0.752331 0.602331
0.193200 0.638100 0.410550
0.286206 0.664262 0.442319
0.390425 0.690425 0.474087
0.505856 0.716587 0.505856
0.632500 0.742750 0.537625
0.719394 0.768912 0.569394
0.795075 0.795075 0.601162
0.859544 0.821238 0.632931
0.912800 0.847400 0.664700
0.222550 0.756006 0.472919
0.326563 0.776563 0.504687
0.441787 0.797119 0.536456
0.568225 0.817675 0.568225
0.705875 0.838231 0.599994
0.781763 0.858787 0.631763
0.846438 0.879344 0.663531
0.899900 0.899900 0.695300
0.942150 0.920456 0.727069
0.251900 0.851900 0.535287
0.366919 0.866850 0.567056
0.493150 0.881800 0.598825
0.630594 0.896750 0.630594
0.779250 0.911700 0.662362
0.844131 0.926650 0.694131
0.897800 0.941600 0.725900
0.940256 0.956550 0.757669
0.971500 0.971500 0.789437
0.022800 0.022800 0.057000
0.051906 0.037750 0.094375
0.092225 0.052700 0.131750
0.143756 0.067650 0.169125
0.206500 0.082600 0.206500
0.357294 0.097550 0.243875
0.496875 0.112500 0.281250
0.625244 0.127450 0.318625
0.742400 0.142400 0.356000
0.052150 0.071706 0.130375
0.092262 0.092262 0.167750
0.143588 0.112819 0.205125
0.206125 0.133375 0.242500
0.279875 0.153931 0.279875
0.419662 0.174487 0.317250
0.548237 0.195044 0.354625
0.665600 0.215600 0.392000
0.771750 0.236156 0.429375
0.081500 0.142625 0.203750
0.132619 0.168787 0.241125
0.194950 0.194950 0.278500
0.268494 0.221112 0.315875
0.353250 0.247275 0.353250
0.482031 0.273438 0.390625
0.599600 0.299600 0.428000
0.705956 0.325763 0.465375
0.801100 0.351925 0.502750
0.110850 0.235556 0.277125
0.172975 0.267325 0.314500
0.246312 0.299094 0.351875
0.330862 0.330862 0.389250
0.426625 0.362631 0.426625
0.544400 0.394400 0.464000
0.650962 0.426169 0.501375
0.746313 0.457938 0.538750
0.830450 0.489706 0.576125
0.140200 0.350500 0.350500
0.213331 0.387875 0.387875
0.297675 0.425250 0.425250
0.393231 0.462625 0.462625
0.500000 0.500000 0.500000
0.606769 0.537375 0.537375
0.702325 0.574750 0.574750
0.786669 0.612125 0.612125
0.859800 0.649500 0.649500
0.169550 0.510294 0.423875
0.253687 0.542063 0.461250
0.349038 0.573831 0.498625
0.455600 0.605600 0.536000
0.573375 0.637369 0.573375
0.669138 0.669138 0.610750
0.753687 0.700906 0.648125
0.827025 0.732675 0.685500
0.889150 0.764444 0.722875
0.198900 0.648075 0.497250
0.294044 0.674238 0.534625
0.400400 0.700400 0.572000
0.517969 0.726562 0.609375
0.646750 0.752725 0.646750
0.731506 0.778887 0.684125
0.805050 0.805050 0.721500
0.867381 0.831213 0.758875
0.918500 0.857375 0.796250
0.228250 0.763844 0.570625
0.334400 0.784400 0.608000
0.451763 0.804956 0.645375
0.580338 0.825513 0.682750
0.720125 0.846069 0.720125
0.793875 0.866625 0.757500
0.856413 0.887181 0.794875
0.907738 0.907738 0.832250
0.947850 0.928294 0.869625
0.257600 0.857600 0.644000
0.374756 0.872550 0.681375
0.503125 0.887500 0.718750
0.642706 0.902450 0.756125
0.793500 0.917400 0.793500
0.856244 0.932350 0.830875
0.907775 0.947300 0.868250
0.948094 0.962250 0.905625
0.977200 0.977200 0.943000
0.028500 0.028500 0.210563
0.059744 0.043450 0.242331
0.102200 0.058400 0.274100
0.155869 0.073350 0.305869
0.220750 0.088300 0.337638
0.369406 0.103250 0.369406
0.506850 0.118200 0.401175
0.633081 0.133150 0.432944
0.748100 0.148100 0.464712
0.057850 0.079544 0.272931
0.100100 0.100100 0.304700
0.153562 0.120656 0.336469
0.218238 0.141213 0.368237
0.294125 0.161769 0.400006
0.431775 0.182325 0.431775
0.558213 0.202881 0.463544
0.673437 0.223438 0.495313
0.777450 0.243994 0.527081
0.087200 0.152600 0.335300
0.140456 0.178763 0.367069
0.204925 0.204925 0.398837
0.280606 0.231088 0.430606
0.367500 0.257250 0.462375
0.494144 0.283413 0.494144
0.609575 0.309575 0.525913
0.713794 0.335737 0.557681
0.806800 0.361900 0.589450
0.116550 0.247669 0.397669
0.180812 0.279438 0.429438
0.256288 0.311206 0.461206
0.342975 0.342975 0.492975
0.440875 0.374744 0.524744
0.556512 0.406512 0.556512
0.660937 0.438281 0.588281
0.754150 0.470050 0.620050
0.836150 0.501819 0.651819
0.145900 0.364750 0.460037
0.221169 0.402125 0.491806
0.307650 0.439500 0.523575
0.405344 0.476875 0.555344
0.514250 0.514250 0.587112
0.618881 0.551625 0.618881
0.712300 0.589000 0.650650
0.794506 0.626375 0.682419
0.865500 0.663750 0.714187
0.175250 0.522406 0.522406
0.261525 0.554175 0.554175
0.359012 0.585944 0.585944
0.467712 0.617712 0.617712
0.587625 0.649481 0.649481
0.681250 0.681250 0.681250
0.763662 0.713019 0.713019
0.834862 0.744787 0.744787
0.894850 0.776556 0.776556
0.204600 0.658050 0.584775
0.301881 0.684213 0.616544
0.410375 0.710375 0.648313
0.530081 0.736538 0.680081
0.661000 0.762700 0.711850
0.743619 0.788862 0.743619
0.815025 0.815025 0.775388
0.875219 0.841187 0.807156
0.924200 0.867350 0.838925
0.233950 0.771681 0.647144
0.342238 0.792238 0.678913
0.461738 0.812794 0.710681
0.592450 0.833350 0.742450
0.734375 0.853906 0.774219
0.805988 0.874462 0.805988
0.866388 0.895019 0.837756
0.915575 0.915575 0.869525
0.953550 0.936131 0.901294
0.263300 0.863300 0.709512
0.382594 0.878250 0.741281
0.513100 0.893200 0.773050
0.654819 0.908150 0.804819
0.807750 0.923100 0.836588
0.868356 0.938050 0.868356
0.917750 0.953000 0.900125
0.955931 0.967950 0.931894
0.982900 0.982900 0.963662
0.034200 0.034200 0.359850
0.067581 0.049150 0.386013
0.112175 0.064100 0.412175
0.167981 0.079050 0.438337
0.235000 0.094000 0.464500
0.381519 0.108950 0.490663
0.516825 0.123900 0.516825
0.640919 0.138850 0.542988
0.753800 0.153800 0.569150
0.063550 0.087381 0.411213
0.107937 0.107937 0.437375
0.163538 0.128494 0.463537
0.230350 0.149050 0.489700
0.308375 0.169606 0.515863
0.443887 0.190163 0.542025
0.568188 0.210719 0.568188
0.681275 0.231275 0.594350
0.783150 0.251831 0.620513
0.092900 0.162575 0.462575
0.148294 0.188738 0.488737
0.214900 0.214900 0.514900
0.292719 0.241063 0.541063
0.381750 0.267225 0.567225
0.506256 0.293387 0.593387
0.619550 0.319550 0.619550
0.721631 0.345712 0.645713
0.812500 0.371875 0.671875
0.122250 0.259781 0.513938
0.188650 0.291550 0.540100
0.266263 0.323319 0.566262
0.355088 0.355088 0.592425
0.455125 0.386856 0.618587
0.568625 0.418625 0.644750
0.670913 0.450394 0.670913
0.761987 0.482163 0.697075
0.841850 0.513931 0.723237
0.151600 0.379000 0.565300
0.229006 0.416375 0.591463
0.317625 0.453750 0.617625
0.417456 0.491125 0.643787
0.528500 0.528500 0.669950
0.630994 0.565875 0.696113
0.722275 0.603250 0.722275
0.802344 0.640625 0.748438
0.871200 0.678000 0.774600
0.180950 0.534519 0.616663
0.269362 0.566287 0.642825
0.368987 0.598056 0.668987
0.479825 0.629825 0.695150
0.601875 0.661594 0.721312
0.693362 0.693362 0.747475
0.773637 0.725131 0.773637
0.842700 0.756900 0.799800
0.900550 0.788669 0.825962
0.210300 0.668025 0.668025
0.309719 0.694187 0.694187
0.420350 0.720350 0.720350
0.542194 0.746512 0.746512
0.675250 0.772675 0.772675
0.755731 0.798837 0.798837
0.825000 0.825000 0.825000
0.883056 0.851163 0.851163
0.929900 0.877325 0.877325
0.239650 0.779519 0.719387
0.350075 0.800075 0.745550
0.471712 0.820631 0.771713
0.604563 0.841187 0.797875
0.748625 0.861744 0.824037
0.818100 0.882300 0.850200
0.876363 0.902856 0.876363
0.923412 0.923412 0.902525
0.959250 0.943969 0.928687
0.269000 0.869000 0.770750
0.390431 0.883950 0.796913
0.523075 0.898900 0.823075
0.666931 0.913850 0.849238
0.822000 0.928800 0.875400
0.880469 0.943750 0.901562
0.927725 0.958700 0.927725
0.963769 0.973650 0.953887
0.988600 0.988600 0.980050
0.039900 0.039900 0.504862
0.075419 0.054850 0.525419
0.122150 0.069800 0.545975
0.180094 0.084750 0.566531
0.249250 0.099700 0.587087
0.393631 0.114650 0.607644
0.526800 0.129600 0.628200
0.648756 0.144550 0.648756
0.759500 0.159500 0.669312
0.069250 0.095219 0.545219
0.115775 0.115775 0.565775
0.173513 0.136331 0.586331
0.242462 0.156888 0.606888
0.322625 0.177444 0.627444
0.456000 0.198000 0.648000
0.578163 0.218556 0.668556
0.689113 0.239113 0.689113
0.788850 0.259669 0.709669
0.098600 0.172550 0.585575
0.156131 0.198712 0.606131
0.224875 0.224875 0.626688
0.304831 0.251037 0.647244
0.396000 0.277200 0.667800
0.518369 0.303362 0.688356
0.629525 0.329525 0.708912
0.729469 0.355687 0.729469
0.818200 0.381850 0.750025
0.127950 0.271894 0.625931
0.196488 0.303663 0.646487
0.276238 0.335431 0.667044
0.367200 0.367200 0.687600
0.469375 0.398969 0.708156
0.580738 0.430737 0.728712
0.680887 0.462506 0.749269
0.769825 0.494275 0.769825
0.847550 0.526044 0.790381
0.157300 0.393250 0.666288
0.236844 0.430625 0.686844
0.327600 0.468000 0.707400
0.429569 0.505375 0.727956
0.542750 0.542750 0.748512
0.643106 0.580125 0.769069
0.732250 0.617500 0.789625
0.810181 0.654875 0.810181
0.876900 0.692250 0.830738
0.186650 0.546631 0.706644
0.277200 0.578400 0.727200
0.378962 0.610169 0.747756
0.491938 0.641938 0.768312
0.616125 0.673706 0.788869
0.705475 0.705475 0.809425
0.783612 0.737244 0.829981
0.850537 0.769012 0.850537
0.906250 0.800781 0.871094
0.216000 0.678000 0.747000
0.317556 0.704163 0.767556
0.430325 0.730325 0.788112
0.554306 0.756487 0.808669
0.689500 0.782650 0.829225
0.767844 0.808812 0.849781
0.834975 0.834975 0.870337
0.890894 0.861138 0.890894
0.935600 0.887300 0.911450
0.245350 0.787356 0.787356
0.357913 0.807913 0.807913
0.481687 0.828469 0.828469
0.616675 0.849025 0.849025
0.762875 0.869581 0.869581
0.830213 0.890138 0.890138
0.886338 0.910694 0.910694
0.931250 0.931250 0.931250
0.964950 0.951806 0.951806
0.274700 0.874700 0.827713
0.398269 0.889650 0.848269
0.533050 0.904600 0.868825
0.679044 0.919550 0.889381
0.836250 0.934500 0.909937
0.892581 0.949450 0.930494
0.937700 0.964400 0.951050
0.971606 0.979350 0.971606
0.994300 0.994300 0.992162
0.045600 0.045600 0.645600
0.083256 0.060550 0.660550
0.132125 0.075500 0.675500
0.192206 0.090450 0.690450
0.263500 0.105400 0.705400
0.405744 0.120350 0.720350
0.536775 0.135300 0.735300
0.656594 0.150250 0.750250
0.765200 0.165200 0.765200
0.074950 0.103056 0.674950
0.123613 0.123613 0.689900
0.183487 0.144169 0.704850
0.254575 0.164725 0.719800
0.336875 0.185281 0.734750
0.468112 0.205838 0.749700
0.588137 0.226394 0.764650
0.696950 0.246950 0.779600
0.794550 0.267506 0.794550
0.104300 0.182525 0.704300
0.163969 0.208687 0.719250
0.234850 0.234850 0.734200
0.316944 0.261012 0.749150
0.410250 0.287175 0.764100
0.530481 0.313337 0.779050
0.639500 0.339500 0.794000
0.737306 0.365663 0.808950
0.823900 0.391825 0.823900
0.133650 0.284006 0.733650
0.204325 0.315775 0.748600
0.286212 0.347544 0.763550
0.379312 0.379312 0.778500
0.483625 0.411081 0.793450
0.592850 0.442850 0.808400
0.690862 0.474619 0.823350
0.777662 0.506387 0.838300
0.853250 0.538156 0.853250
0.163000 0.407500 0.763000
0.244681 0.444875 0.777950
0.337575 0.482250 0.792900
0.441681 0.519625 0.807850
0.557000 0.557000 0.822800
0.655219 0.594375 0.837750
0.742225 0.631750 0.852700
0.818019 0.669125 0.867650
0.882600 0.706500 0.882600
0.192350 0.558744 0.792350
0.285037 0.590512 0.807300
0.388937 0.622281 0.822250
0.504050 0.654050 0.837200
0.630375 0.685819 0.852150
0.717588 0.717588 0.867100
0.793587 0.749356 0.882050
0.858375 0.781125 0.897000
0.911950 0.812894 0.911950
0.221700 0.687975 0.821700
0.325394 0.714137 0.836650
0.440300 0.740300 0.851600
0.566419 0.766463 0.866550
0.703750 0.792625 0.881500
0.779956 0.818787 0.896450
0.844950 0.844950 0.911400
0.898731 0.871113 0.926350
0.941300 0.897275 0.941300
0.251050 0.795194 0.851050
0.365750 0.815750 0.866000
0.491663 0.836306 0.880950
0.628788 0.856862 0.895900
0.777125 0.877419 0.910850
0.842325 0.897975 0.925800
0.896313 0.918531 0.940750
0.939087 0.939087 0.955700
0.970650 0.959644 0.970650
0.280400 0.880400 0.880400
0.406106 0.895350 0.895350
0.543025 0.910300 0.910300
0.691156 0.925250 0.925250
0.850500 0.940200 0.940200
0.904694 0.955150 0.955150
0.947675 0.970100 0.970100
0.979444 0.985050 0.985050
1.000000 1.000000 1.000000
