04-EFFECTS-AND-FILTERS/3d-luts-cube-files/bleach_bypass_action.cube
# Generated by Video Auto-Editor Pipeline
TITLE "Bleach Bypass Action"
LUT_3D_SIZE 17
DOMAIN_MIN 0.0 0.0 0.0
DOMAIN_MAX 1.0 1.0 1.0
0.000000 0.000000 0.000000
0.008877 0.007475 0.007475
0.020556 0.014950 0.014950
0.035039 0.022425 0.022425
0.052325 0.029900 0.029900
0.072414 0.037375 0.037375
0.095306 0.044850 0.044850
0.121002 0.052325 0.052325
0.149500 0.059800 0.059800
0.230573 0.067275 0.067275
0.308844 0.074750 0.074750
0.384311 0.082225 0.082225
0.456975 0.089700 0.089700
0.526836 0.097175 0.097175
0.593894 0.104650 0.104650
0.658148 0.112125 0.112125
0.719600 0.119600 0.119600
0.014675 0.017427 0.014675
0.026303 0.026303 0.022150
0.040734 0.035180 0.029625
0.057969 0.044056 0.037100
0.078006 0.052933 0.044575
0.100847 0.061809 0.052050
0.126491 0.070686 0.059525
0.154937 0.079562 0.067000
0.186187 0.088439 0.074475
0.264509 0.097316 0.081950
0.340028 0.106192 0.089425
0.412744 0.115069 0.096900
0.482656 0.123945 0.104375
0.549766 0.132822 0.111850
0.614072 0.141698 0.119325
0.675575 0.150575 0.126800
0.734275 0.159452 0.134275
0.029350 0.040356 0.029350
0.043730 0.050634 0.036825
0.060912 0.060912 0.044300
0.080898 0.071191 0.051775
0.103688 0.081469 0.059250
0.129280 0.091747 0.066725
0.157675 0.102025 0.074200
0.188873 0.112303 0.081675
0.222875 0.122581 0.089150
0.298445 0.132859 0.096625
0.371212 0.143138 0.104100
0.441177 0.153416 0.111575
0.508337 0.163694 0.119050
0.572695 0.173972 0.126525
0.634250 0.184250 0.134000
0.693002 0.194528 0.141475
0.748950 0.204806 0.148950
0.044025 0.068789 0.044025
0.061156 0.080469 0.051500
0.081091 0.092148 0.058975
0.103828 0.103828 0.066450
0.129369 0.115508 0.073925
0.157712 0.127188 0.081400
0.188859 0.138867 0.088875
0.222809 0.150547 0.096350
0.259562 0.162227 0.103825
0.332381 0.173906 0.111300
0.402397 0.185586 0.118775
0.469609 0.197266 0.126250
0.534019 0.208945 0.133725
0.595625 0.220625 0.141200
0.654428 0.232305 0.148675
0.710428 0.243984 0.156150
0.763625 0.255664 0.163625
0.058700 0.102725 0.058700
0.078583 0.115806 0.066175
0.101269 0.128887 0.073650
0.126758 0.141969 0.081125
0.155050 0.155050 0.088600
0.186145 0.168131 0.096075
0.220044 0.181212 0.103550
0.256745 0.194294 0.111025
0.296250 0.207375 0.118500
0.366317 0.220456 0.125975
0.433581 0.233537 0.133450
0.498042 0.246619 0.140925
0.559700 0.259700 0.148400
0.618555 0.272781 0.155875
0.674606 0.285863 0.163350
0.727855 0.298944 0.170825
0.778300 0.312025 0.178300
0.073375 0.142164 0.073375
0.096009 0.156647 0.080850
0.121447 0.171130 0.088325
0.149687 0.185613 0.095800
0.180731 0.200095 0.103275
0.214578 0.214578 0.110750
0.251228 0.229061 0.118225
0.290681 0.243544 0.125700
0.332937 0.258027 0.133175
0.400253 0.272509 0.140650
0.464766 0.286992 0.148125
0.526475 0.301475 0.155600
0.585381 0.315958 0.163075
0.641484 0.330441 0.170550
0.694784 0.344923 0.178025
0.745281 0.359406 0.185500
0.792975 0.373889 0.192975
0.088050 0.187106 0.088050
0.113436 0.202991 0.095525
0.141625 0.218875 0.103000
0.172617 0.234759 0.110475
0.206412 0.250644 0.117950
0.243011 0.266528 0.125425
0.282412 0.282412 0.132900
0.324617 0.298297 0.140375
0.369625 0.314181 0.147850
0.434189 0.330066 0.155325
0.495950 0.345950 0.162800
0.554908 0.361834 0.170275
0.611062 0.377719 0.177750
0.664414 0.393603 0.185225
0.714962 0.409488 0.192700
0.762708 0.425372 0.200175
0.807650 0.441256 0.207650
0.102725 0.237552 0.102725
0.130863 0.254838 0.110200
0.161803 0.272123 0.117675
0.195547 0.289409 0.125150
0.232094 0.306695 0.132625
0.271444 0.323981 0.140100
0.313597 0.341267 0.147575
0.358553 0.358553 0.155050
0.406312 0.375839 0.162525
0.468125 0.393125 0.170000
0.527134 0.410411 0.177475
0.583341 0.427697 0.184950
0.636744 0.444983 0.192425
0.687344 0.462269 0.199900
0.735141 0.479555 0.207375
0.780134 0.496841 0.214850
0.822325 0.514127 0.222325
0.117400 0.293500 0.117400
0.148289 0.312188 0.124875
0.181981 0.330875 0.132350
0.218477 0.349562 0.139825
0.257775 0.368250 0.147300
0.299877 0.386937 0.154775
0.344781 0.405625 0.162250
0.392489 0.424312 0.169725
0.443000 0.443000 0.177200
0.502061 0.461688 0.184675
0.558319 0.480375 0.192150
0.611773 0.499062 0.199625
0.662425 0.517750 0.207100
0.710273 0.536438 0.214575
0.755319 0.555125 0.222050
0.797561 0.573812 0.229525
0.837000 0.592500 0.237000
0.132075 0.380423 0.132075
0.165716 0.397709 0.139550
0.202159 0.414995 0.147025
0.241406 0.432281 0.154500
0.283456 0.449567 0.161975
0.328309 0.466853 0.169450
0.375966 0.484139 0.176925
0.426425 0.501425 0.184400
0.479687 0.518711 0.191875
0.535997 0.535997 0.199350
0.589503 0.553283 0.206825
0.640206 0.570569 0.214300
0.688106 0.587855 0.221775
0.733203 0.605141 0.229250
0.775497 0.622427 0.236725
0.814987 0.639712 0.244200
0.851675 0.656998 0.251675
0.146750 0.461844 0.146750
0.183142 0.477728 0.154225
0.222337 0.493612 0.161700
0.264336 0.509497 0.169175
0.309137 0.525381 0.176650
0.356742 0.541266 0.184125
0.407150 0.557150 0.191600
0.460361 0.573034 0.199075
0.516375 0.588919 0.206550
0.569933 0.604803 0.214025
0.620687 0.620687 0.221500
0.668639 0.636572 0.228975
0.713787 0.652456 0.236450
0.756133 0.668341 0.243925
0.795675 0.684225 0.251400
0.832414 0.700109 0.258875
0.866350 0.715994 0.266350
0.161425 0.537761 0.161425
0.200569 0.552244 0.168900
0.242516 0.566727 0.176375
0.287266 0.581209 0.183850
0.334819 0.595692 0.191325
0.385175 0.610175 0.198800
0.438334 0.624658 0.206275
0.494297 0.639141 0.213750
0.553063 0.653623 0.221225
0.603869 0.668106 0.228700
0.651872 0.682589 0.236175
0.697072 0.697072 0.243650
0.739469 0.711555 0.251125
0.779062 0.726037 0.258600
0.815853 0.740520 0.266075
0.849841 0.755003 0.273550
0.881025 0.769486 0.281025
0.176100 0.608175 0.176100
0.217995 0.621256 0.183575
0.262694 0.634337 0.191050
0.310195 0.647419 0.198525
0.360500 0.660500 0.206000
0.413608 0.673581 0.213475
0.469519 0.686662 0.220950
0.528233 0.699744 0.228425
0.589750 0.712825 0.235900
0.637805 0.725906 0.243375
0.683056 0.738987 0.250850
0.725505 0.752069 0.258325
0.765150 0.765150 0.265800
0.801992 0.778231 0.273275
0.836031 0.791313 0.280750
0.867267 0.804394 0.288225
0.895700 0.817475 0.295700
0.190775 0.673086 0.190775
0.235422 0.684766 0.198250
0.282872 0.696445 0.205725
0.333125 0.708125 0.213200
0.386181 0.719805 0.220675
0.442041 0.731484 0.228150
0.500703 0.743164 0.235625
0.562169 0.754844 0.243100
0.626437 0.766523 0.250575
0.671741 0.778203 0.258050
0.714241 0.789883 0.265525
0.753937 0.801562 0.273000
0.790831 0.813242 0.280475
0.824922 0.824922 0.287950
0.856209 0.836602 0.295425
0.884694 0.848281 0.302900
0.910375 0.859961 0.310375
0.205450 0.732494 0.205450
0.252848 0.742772 0.212925
0.303050 0.753050 0.220400
0.356055 0.763328 0.227875
0.411863 0.773606 0.235350
0.470473 0.783884 0.242825
0.531888 0.794163 0.250300
0.596105 0.804441 0.257775
0.663125 0.814719 0.265250
0.705677 0.824997 0.272725
0.745425 0.835275 0.280200
0.782370 0.845553 0.287675
0.816512 0.855831 0.295150
0.847852 0.866109 0.302625
0.876387 0.876387 0.310100
0.902120 0.886666 0.317575
0.925050 0.896944 0.325050
0.220125 0.786398 0.220125
0.270275 0.795275 0.227600
0.323228 0.804152 0.235075
0.378984 0.813028 0.242550
0.437544 0.821905 0.250025
0.498906 0.830781 0.257500
0.563072 0.839658 0.264975
0.630041 0.848534 0.272450
0.699812 0.857411 0.279925
0.739613 0.866287 0.287400
0.776609 0.875164 0.294875
0.810803 0.884041 0.302350
0.842194 0.892917 0.309825
0.870781 0.901794 0.317300
0.896566 0.910670 0.324775
0.919547 0.919547 0.332250
0.939725 0.928423 0.339725
0.234800 0.834800 0.234800
0.287702 0.842275 0.242275
0.343406 0.849750 0.249750
0.401914 0.857225 0.257225
0.463225 0.864700 0.264700
0.527339 0.872175 0.272175
0.594256 0.879650 0.279650
0.663977 0.887125 0.287125
0.736500 0.894600 0.294600
0.773548 0.902075 0.302075
0.807794 0.909550 0.309550
0.839236 0.917025 0.317025
0.867875 0.924500 0.324500
0.893711 0.931975 0.331975
0.916744 0.939450 0.339450
0.936973 0.946925 0.346925
0.954400 0.954400 0.354400
0.002850 0.002850 0.003384
0.012261 0.010325 0.012261
0.024475 0.017800 0.021138
0.039492 0.025275 0.030014
0.057313 0.032750 0.038891
0.077936 0.040225 0.047767
0.101363 0.047700 0.056644
0.127592 0.055175 0.065520
0.156625 0.062650 0.074397
0.237164 0.070125 0.083273
0.314900 0.077600 0.092150
0.389833 0.085075 0.101027
0.461962 0.092550 0.109903
0.531289 0.100025 0.118780
0.597812 0.107500 0.127656
0.661533 0.114975 0.136533
0.722450 0.122450 0.145409
0.017525 0.020811 0.020811
0.029687 0.029687 0.029687
0.044653 0.038564 0.038564
0.062422 0.047441 0.047441
0.082994 0.056317 0.056317
0.106369 0.065194 0.065194
0.132547 0.074070 0.074070
0.161528 0.082947 0.082947
0.193312 0.091823 0.091823
0.271100 0.100700 0.100700
0.346084 0.109577 0.109577
0.418266 0.118453 0.118453
0.487644 0.127330 0.127330
0.554219 0.136206 0.136206
0.617991 0.145083 0.145083
0.678959 0.153959 0.153959
0.737125 0.162836 0.162836
0.032200 0.044275 0.038238
0.047114 0.054553 0.047114
0.064831 0.064831 0.055991
0.085352 0.075109 0.064867
0.108675 0.085388 0.073744
0.134802 0.095666 0.082620
0.163731 0.105944 0.091497
0.195464 0.116222 0.100373
0.230000 0.126500 0.109250
0.305036 0.136778 0.118127
0.377269 0.147056 0.127003
0.446698 0.157334 0.135880
0.513325 0.167612 0.144756
0.577148 0.177891 0.153633
0.638169 0.188169 0.162509
0.696386 0.198447 0.171386
0.751800 0.208725 0.180263
0.046875 0.073242 0.055664
0.064541 0.084922 0.064541
0.085009 0.096602 0.073417
0.108281 0.108281 0.082294
0.134356 0.119961 0.091170
0.163234 0.131641 0.100047
0.194916 0.143320 0.108923
0.229400 0.155000 0.117800
0.266687 0.166680 0.126677
0.338972 0.178359 0.135553
0.408453 0.190039 0.144430
0.475131 0.201719 0.153306
0.539006 0.213398 0.162183
0.600078 0.225078 0.171059
0.658347 0.236758 0.179936
0.713812 0.248437 0.188812
0.766475 0.260117 0.197689
0.061550 0.107712 0.073091
0.081967 0.120794 0.081967
0.105187 0.133875 0.090844
0.131211 0.146956 0.099720
0.160037 0.160037 0.108597
0.191667 0.173119 0.117473
0.226100 0.186200 0.126350
0.263336 0.199281 0.135227
0.303375 0.212363 0.144103
0.372908 0.225444 0.152980
0.439637 0.238525 0.161856
0.503564 0.251606 0.170733
0.564688 0.264687 0.179609
0.623008 0.277769 0.188486
0.678525 0.290850 0.197362
0.731239 0.303931 0.206239
0.781150 0.317013 0.215116
0.076225 0.147686 0.090517
0.099394 0.162169 0.099394
0.125366 0.176652 0.108270
0.154141 0.191134 0.117147
0.185719 0.205617 0.126023
0.220100 0.220100 0.134900
0.257284 0.234583 0.143777
0.297272 0.249066 0.152653
0.340062 0.263548 0.161530
0.406844 0.278031 0.170406
0.470822 0.292514 0.179283
0.531997 0.306997 0.188159
0.590369 0.321480 0.197036
0.645937 0.335962 0.205912
0.698703 0.350445 0.214789
0.748666 0.364928 0.223666
0.795825 0.379411 0.232542
0.090900 0.193162 0.107944
0.116820 0.209047 0.116820
0.145544 0.224931 0.125697
0.177070 0.240816 0.134573
0.211400 0.256700 0.143450
0.248533 0.272584 0.152327
0.288469 0.288469 0.161203
0.331208 0.304353 0.170080
0.376750 0.320237 0.178956
0.440780 0.336122 0.187833
0.502006 0.352006 0.196709
0.560430 0.367891 0.205586
0.616050 0.383775 0.214462
0.668867 0.399659 0.223339
0.718881 0.415544 0.232216
0.766092 0.431428 0.241092
0.810500 0.447313 0.249969
0.105575 0.244142 0.125370
0.134247 0.261428 0.134247
0.165722 0.278714 0.143123
0.200000 0.296000 0.152000
0.237081 0.313286 0.160877
0.276966 0.330572 0.169753
0.319653 0.347858 0.178630
0.365144 0.365144 0.187506
0.413437 0.382430 0.196383
0.474716 0.399716 0.205259
0.533191 0.417002 0.214136
0.588862 0.434287 0.223013
0.641731 0.451573 0.231889
0.691797 0.468859 0.240766
0.739059 0.486145 0.249642
0.783519 0.503431 0.258519
0.825175 0.520717 0.267395
0.120250 0.300625 0.142797
0.151673 0.319312 0.151673
0.185900 0.338000 0.160550
0.222930 0.356688 0.169427
0.262763 0.375375 0.178303
0.305398 0.394062 0.187180
0.350838 0.412750 0.196056
0.399080 0.431437 0.204933
0.450125 0.450125 0.213809
0.508652 0.468812 0.222686
0.564375 0.487500 0.231563
0.617295 0.506188 0.240439
0.667412 0.524875 0.249316
0.714727 0.543563 0.258192
0.759238 0.562250 0.267069
0.800945 0.580937 0.275945
0.839850 0.599625 0.284822
0.134925 0.387014 0.160223
0.169100 0.404300 0.169100
0.206078 0.421586 0.177977
0.245859 0.438872 0.186853
0.288444 0.456158 0.195730
0.333831 0.473444 0.204606
0.382022 0.490730 0.213483
0.433016 0.508016 0.222359
0.486812 0.525302 0.231236
0.542587 0.542587 0.240112
0.595559 0.559873 0.248989
0.645728 0.577159 0.257866
0.693094 0.594445 0.266742
0.737656 0.611731 0.275619
0.779416 0.629017 0.284495
0.818372 0.646303 0.293372
0.854525 0.663589 0.302248
0.149600 0.467900 0.177650
0.186527 0.483784 0.186527
0.226256 0.499669 0.195403
0.268789 0.515553 0.204280
0.314125 0.531438 0.213156
0.362264 0.547322 0.222033
0.413206 0.563206 0.230909
0.466952 0.579091 0.239786
0.523500 0.594975 0.248663
0.576523 0.610859 0.257539
0.626744 0.626744 0.266416
0.674161 0.642628 0.275292
0.718775 0.658512 0.284169
0.760586 0.674397 0.293045
0.799594 0.690281 0.301922
0.835798 0.706166 0.310798
0.869200 0.722050 0.319675
0.164275 0.543283 0.195077
0.203953 0.557766 0.203953
0.246434 0.572248 0.212830
0.291719 0.586731 0.221706
0.339806 0.601214 0.230583
0.390697 0.615697 0.239459
0.444391 0.630180 0.248336
0.500888 0.644663 0.257213
0.560188 0.659145 0.266089
0.610459 0.673628 0.274966
0.657928 0.688111 0.283842
0.702594 0.702594 0.292719
0.744456 0.717077 0.301595
0.783516 0.731559 0.310472
0.819772 0.746042 0.319348
0.853225 0.760525 0.328225
0.883875 0.775008 0.337102
0.178950 0.613163 0.212503
0.221380 0.626244 0.221380
0.266612 0.639325 0.230256
0.314648 0.652406 0.239133
0.365488 0.665488 0.248009
0.419130 0.678569 0.256886
0.475575 0.691650 0.265763
0.534823 0.704731 0.274639
0.596875 0.717812 0.283516
0.644395 0.730894 0.292392
0.689113 0.743975 0.301269
0.731027 0.757056 0.310145
0.770137 0.770137 0.319022
0.806445 0.783219 0.327898
0.839950 0.796300 0.336775
0.870652 0.809381 0.345652
0.898550 0.822463 0.354528
0.193625 0.677539 0.229930
0.238806 0.689219 0.238806
0.286791 0.700898 0.247683
0.337578 0.712578 0.256559
0.391169 0.724258 0.265436
0.447563 0.735937 0.274313
0.506759 0.747617 0.283189
0.568759 0.759297 0.292066
0.633563 0.770977 0.300942
0.678331 0.782656 0.309819
0.720297 0.794336 0.318695
0.759459 0.806016 0.327572
0.795819 0.817695 0.336448
0.829375 0.829375 0.345325
0.860128 0.841055 0.354202
0.888078 0.852734 0.363078
0.913225 0.864414 0.371955
0.208300 0.736413 0.247356
0.256233 0.746691 0.256233
0.306969 0.756969 0.265109
0.360508 0.767247 0.273986
0.416850 0.777525 0.282863
0.475995 0.787803 0.291739
0.537944 0.798081 0.300616
0.602695 0.808359 0.309492
0.670250 0.818638 0.318369
0.712267 0.828916 0.327245
0.751481 0.839194 0.336122
0.787892 0.849472 0.344998
0.821500 0.859750 0.353875
0.852305 0.870028 0.362752
0.880306 0.880306 0.371628
0.905505 0.890584 0.380505
0.927900 0.900862 0.389381
0.222975 0.789783 0.264783
0.273659 0.798659 0.273659
0.327147 0.807536 0.282536
0.383438 0.816413 0.291413
0.442531 0.825289 0.300289
0.504428 0.834166 0.309166
0.569128 0.843042 0.318042
0.636631 0.851919 0.326919
0.706937 0.860795 0.335795
0.746203 0.869672 0.344672
0.782666 0.878548 0.353548
0.816325 0.887425 0.362425
0.847181 0.896302 0.371302
0.875234 0.905178 0.380178
0.900484 0.914055 0.389055
0.922931 0.922931 0.397931
0.942575 0.931808 0.406808
0.237650 0.837650 0.282209
0.291086 0.845125 0.291086
0.347325 0.852600 0.299963
0.406367 0.860075 0.308839
0.468213 0.867550 0.317716
0.532861 0.875025 0.326592
0.600313 0.882500 0.335469
0.670567 0.889975 0.344345
0.743625 0.897450 0.353222
0.780139 0.904925 0.362098
0.813850 0.912400 0.370975
0.844758 0.919875 0.379852
0.872862 0.927350 0.388728
0.898164 0.934825 0.397605
0.920663 0.942300 0.406481
0.940358 0.949775 0.415358
0.957250 0.957250 0.424234
0.005700 0.005700 0.007838
0.015645 0.013175 0.018116
0.028394 0.020650 0.028394
0.043945 0.028125 0.038672
0.062300 0.035600 0.048950
0.083458 0.043075 0.059228
0.107419 0.050550 0.069506
0.134183 0.058025 0.079784
0.163750 0.065500 0.090063
0.243755 0.072975 0.100341
0.320956 0.080450 0.110619
0.395355 0.087925 0.120897
0.466950 0.095400 0.131175
0.535742 0.102875 0.141453
0.601731 0.110350 0.151731
0.664917 0.117825 0.162009
0.725300 0.125300 0.172287
0.020375 0.024195 0.028016
0.033072 0.033072 0.038294
0.048572 0.041948 0.048572
0.066875 0.050825 0.058850
0.087981 0.059702 0.069128
0.111891 0.068578 0.079406
0.138603 0.077455 0.089684
0.168119 0.086331 0.099962
0.200438 0.095208 0.110241
0.277691 0.104084 0.120519
0.352141 0.112961 0.130797
0.423787 0.121837 0.141075
0.492631 0.130714 0.151353
0.558672 0.139591 0.161631
0.621909 0.148467 0.171909
0.682344 0.157344 0.182187
0.739975 0.166220 0.192466
0.035050 0.048194 0.048194
0.050498 0.058472 0.058472
0.068750 0.068750 0.068750
0.089805 0.079028 0.079028
0.113663 0.089306 0.089306
0.140323 0.099584 0.099584
0.169788 0.109863 0.109863
0.202055 0.120141 0.120141
0.237125 0.130419 0.130419
0.311627 0.140697 0.140697
0.383325 0.150975 0.150975
0.452220 0.161253 0.161253
0.518313 0.171531 0.171531
0.581602 0.181809 0.181809
0.642087 0.192087 0.192087
0.699770 0.202366 0.202366
0.754650 0.212644 0.212644
0.049725 0.077695 0.068372
0.067925 0.089375 0.078650
0.088928 0.101055 0.088928
0.112734 0.112734 0.099206
0.139344 0.124414 0.109484
0.168756 0.136094 0.119763
0.200972 0.147773 0.130041
0.235991 0.159453 0.140319
0.273813 0.171133 0.150597
0.345562 0.182812 0.160875
0.414509 0.194492 0.171153
0.480653 0.206172 0.181431
0.543994 0.217852 0.191709
0.604531 0.229531 0.201987
0.662266 0.241211 0.212266
0.717197 0.252891 0.222544
0.769325 0.264570 0.232822
0.064400 0.112700 0.088550
0.085352 0.125781 0.098828
0.109106 0.138862 0.109106
0.135664 0.151944 0.119384
0.165025 0.165025 0.129662
0.197189 0.178106 0.139941
0.232156 0.191187 0.150219
0.269927 0.204269 0.160497
0.310500 0.217350 0.170775
0.379498 0.230431 0.181053
0.445694 0.243512 0.191331
0.509086 0.256594 0.201609
0.569675 0.269675 0.211888
0.627461 0.282756 0.222166
0.682444 0.295837 0.232444
0.734623 0.308919 0.242722
0.784000 0.322000 0.253000
0.079075 0.153208 0.108728
0.102778 0.167691 0.119006
0.129284 0.182173 0.129284
0.158594 0.196656 0.139562
0.190706 0.211139 0.149841
0.225622 0.225622 0.160119
0.263341 0.240105 0.170397
0.303862 0.254587 0.180675
0.347187 0.269070 0.190953
0.413434 0.283553 0.201231
0.476878 0.298036 0.211509
0.537519 0.312519 0.221787
0.595356 0.327002 0.232066
0.650391 0.341484 0.242344
0.702622 0.355967 0.252622
0.752050 0.370450 0.262900
0.798675 0.384933 0.273178
0.093750 0.199219 0.128906
0.120205 0.215103 0.139184
0.149462 0.230988 0.149462
0.181523 0.246872 0.159741
0.216387 0.262756 0.170019
0.254055 0.278641 0.180297
0.294525 0.294525 0.190575
0.337798 0.310409 0.200853
0.383875 0.326294 0.211131
0.447370 0.342178 0.221409
0.508062 0.358062 0.231687
0.565952 0.373947 0.241966
0.621038 0.389831 0.252244
0.673320 0.405716 0.262522
0.722800 0.421600 0.272800
0.769477 0.437484 0.283078
0.813350 0.453369 0.293356
0.108425 0.250733 0.149084
0.137631 0.268019 0.159363
0.169641 0.285305 0.169641
0.204453 0.302591 0.179919
0.242069 0.319877 0.190197
0.282488 0.337163 0.200475
0.325709 0.354448 0.210753
0.371734 0.371734 0.221031
0.420562 0.389020 0.231309
0.481306 0.406306 0.241587
0.539247 0.423592 0.251866
0.594384 0.440878 0.262144
0.646719 0.458164 0.272422
0.696250 0.475450 0.282700
0.742978 0.492736 0.292978
0.786903 0.510022 0.303256
0.828025 0.527308 0.313534
0.123100 0.307750 0.169262
0.155058 0.326437 0.179541
0.189819 0.345125 0.189819
0.227383 0.363812 0.200097
0.267750 0.382500 0.210375
0.310920 0.401188 0.220653
0.356894 0.419875 0.230931
0.405670 0.438562 0.241209
0.457250 0.457250 0.251487
0.515242 0.475937 0.261766
0.570431 0.494625 0.272044
0.622817 0.513312 0.282322
0.672400 0.532000 0.292600
0.719180 0.550687 0.302878
0.763156 0.569375 0.313156
0.804330 0.588062 0.323434
0.842700 0.606750 0.333713
0.137775 0.393605 0.189441
0.172484 0.410891 0.199719
0.209997 0.428177 0.209997
0.250312 0.445462 0.220275
0.293431 0.462748 0.230553
0.339353 0.480034 0.240831
0.388078 0.497320 0.251109
0.439606 0.514606 0.261387
0.493937 0.531892 0.271666
0.549178 0.549178 0.281944
0.601616 0.566464 0.292222
0.651250 0.583750 0.302500
0.698081 0.601036 0.312778
0.742109 0.618322 0.323056
0.783334 0.635608 0.333334
0.821756 0.652894 0.343612
0.857375 0.670180 0.353891
0.152450 0.473956 0.209619
0.189911 0.489841 0.219897
0.230175 0.505725 0.230175
0.273242 0.521609 0.240453
0.319112 0.537494 0.250731
0.367786 0.553378 0.261009
0.419262 0.569263 0.271288
0.473542 0.585147 0.281566
0.530625 0.601031 0.291844
0.583114 0.616916 0.302122
0.632800 0.632800 0.312400
0.679683 0.648684 0.322678
0.723762 0.664569 0.332956
0.765039 0.680453 0.343234
0.803512 0.696337 0.353513
0.839183 0.712222 0.363791
0.872050 0.728106 0.374069
0.167125 0.548805 0.229797
0.207338 0.563288 0.240075
0.250353 0.577770 0.250353
0.296172 0.592253 0.260631
0.344794 0.606736 0.270909
0.396219 0.621219 0.281188
0.450447 0.635702 0.291466
0.507478 0.650184 0.301744
0.567312 0.664667 0.312022
0.617050 0.679150 0.322300
0.663984 0.693633 0.332578
0.708116 0.708116 0.342856
0.749444 0.722598 0.353134
0.787969 0.737081 0.363412
0.823691 0.751564 0.373691
0.856609 0.766047 0.383969
0.886725 0.780530 0.394247
0.181800 0.618150 0.249975
0.224764 0.631231 0.260253
0.270531 0.644312 0.270531
0.319102 0.657394 0.280809
0.370475 0.670475 0.291087
0.424652 0.683556 0.301366
0.481631 0.696637 0.311644
0.541414 0.709719 0.321922
0.604000 0.722800 0.332200
0.650986 0.735881 0.342478
0.695169 0.748962 0.352756
0.736548 0.762044 0.363034
0.775125 0.775125 0.373312
0.810898 0.788206 0.383591
0.843869 0.801287 0.393869
0.874036 0.814369 0.404147
0.901400 0.827450 0.414425
0.196475 0.681992 0.270153
0.242191 0.693672 0.280431
0.290709 0.705352 0.290709
0.342031 0.717031 0.300987
0.396156 0.728711 0.311266
0.453084 0.740391 0.321544
0.512816 0.752070 0.331822
0.575350 0.763750 0.342100
0.640687 0.775430 0.352378
0.684922 0.787109 0.362656
0.726353 0.798789 0.372934
0.764981 0.810469 0.383212
0.800806 0.822148 0.393491
0.833828 0.833828 0.403769
0.864047 0.845508 0.414047
0.891462 0.857187 0.424325
0.916075 0.868867 0.434603
0.211150 0.740331 0.290331
0.259617 0.750609 0.300609
0.310888 0.760887 0.310888
0.364961 0.771166 0.321166
0.421837 0.781444 0.331444
0.481517 0.791722 0.341722
0.544000 0.802000 0.352000
0.609286 0.812278 0.362278
0.677375 0.822556 0.372556
0.718858 0.832834 0.382834
0.757537 0.843112 0.393112
0.793414 0.853391 0.403391
0.826488 0.863669 0.413669
0.856758 0.873947 0.423947
0.884225 0.884225 0.434225
0.908889 0.894503 0.444503
0.930750 0.904781 0.454781
0.225825 0.793167 0.310509
0.277044 0.802044 0.320787
0.331066 0.810920 0.331066
0.387891 0.819797 0.341344
0.447519 0.828673 0.351622
0.509950 0.837550 0.361900
0.575184 0.846427 0.372178
0.643222 0.855303 0.382456
0.714062 0.864180 0.392734
0.752794 0.873056 0.403012
0.788722 0.881933 0.413291
0.821847 0.890809 0.423569
0.852169 0.899686 0.433847
0.879687 0.908562 0.444125
0.904403 0.917439 0.454403
0.926316 0.926316 0.464681
0.945425 0.935192 0.474959
0.240500 0.840500 0.330687
0.294470 0.847975 0.340966
0.351244 0.855450 0.351244
0.410820 0.862925 0.361522
0.473200 0.870400 0.371800
0.538383 0.877875 0.382078
0.606369 0.885350 0.392356
0.677158 0.892825 0.402634
0.750750 0.900300 0.412913
0.786730 0.907775 0.423191
0.819906 0.915250 0.433469
0.850280 0.922725 0.443747
0.877850 0.930200 0.454025
0.902617 0.937675 0.464303
0.924581 0.945150 0.474581
0.943742 0.952625 0.484859
0.960100 0.960100 0.495137
0.008550 0.008550 0.013359
0.019030 0.016025 0.025039
0.032313 0.023500 0.036719
0.048398 0.030975 0.048398
0.067288 0.038450 0.060078
0.088980 0.045925 0.071758
0.113475 0.053400 0.083437
0.140773 0.060875 0.095117
0.170875 0.068350 0.106797
0.250345 0.075825 0.118477
0.327012 0.083300 0.130156
0.400877 0.090775 0.141836
0.471938 0.098250 0.153516
0.540195 0.105725 0.165195
0.605650 0.113200 0.176875
0.668302 0.120675 0.188555
0.728150 0.128150 0.200234
