04-EFFECTS-AND-FILTERS/3d-luts-cube-files/cinematic_teal_orange.cube
# Generated by Video Auto-Editor Pipeline
TITLE "Cinematic Teal & Orange"
LUT_3D_SIZE 17
DOMAIN_MIN 0.0 0.0 0.0
DOMAIN_MAX 1.0 1.0 1.0
0.000000 0.000000 0.000000
0.009209 0.000000 0.000000
0.035234 0.000000 0.000000
0.075674 0.000000 0.000000
0.128125 0.000000 0.000000
0.190186 0.000000 0.000000
0.259453 0.000000 0.000000
0.333525 0.000000 0.000000
0.410000 0.000000 0.000000
0.486475 0.000000 0.000000
0.560547 0.000000 0.000000
0.629814 0.000000 0.000000
0.691875 0.000000 0.000000
0.744326 0.000000 0.000000
0.784766 0.000000 0.000000
0.810791 0.000000 0.000000
0.820000 0.000000 0.000000
0.000000 0.011792 0.000000
0.009209 0.011792 0.000000
0.035234 0.011792 0.000000
0.075674 0.011792 0.000000
0.128125 0.011792 0.000000
0.190186 0.011792 0.000000
0.259453 0.011792 0.000000
0.333525 0.011792 0.000000
0.410000 0.011792 0.000000
0.486475 0.011792 0.000000
0.560547 0.011792 0.000000
0.629814 0.011792 0.000000
0.691875 0.011792 0.000000
0.744326 0.011792 0.000000
0.784766 0.011792 0.000000
0.810791 0.011792 0.000000
0.820000 0.011792 0.000000
0.000000 0.045117 0.000000
0.009209 0.045117 0.000000
0.035234 0.045117 0.000000
0.075674 0.045117 0.000000
0.128125 0.045117 0.000000
0.190186 0.045117 0.000000
0.259453 0.045117 0.000000
0.333525 0.045117 0.000000
0.410000 0.045117 0.000000
0.486475 0.045117 0.000000
0.560547 0.045117 0.000000
0.629814 0.045117 0.000000
0.691875 0.045117 0.000000
0.744326 0.045117 0.000000
0.784766 0.045117 0.000000
0.810791 0.045117 0.000000
0.820000 0.045117 0.000000
0.000000 0.096899 0.000000
0.009209 0.096899 0.000000
0.035234 0.096899 0.000000
0.075674 0.096899 0.000000
0.128125 0.096899 0.000000
0.190186 0.096899 0.000000
0.259453 0.096899 0.000000
0.333525 0.096899 0.000000
0.410000 0.096899 0.000000
0.486475 0.096899 0.000000
0.560547 0.096899 0.000000
0.629814 0.096899 0.000000
0.691875 0.096899 0.000000
0.744326 0.096899 0.000000
0.784766 0.096899 0.000000
0.810791 0.096899 0.000000
1.000000 0.094131 0.000000
0.000000 0.164062 0.000000
0.009209 0.164062 0.000000
0.035234 0.164062 0.000000
0.075674 0.164062 0.000000
0.128125 0.164062 0.000000
0.190186 0.164062 0.000000
0.259453 0.164062 0.000000
0.333525 0.164062 0.000000
0.410000 0.164062 0.000000
0.486475 0.164062 0.000000
0.560547 0.164062 0.000000
0.629814 0.164062 0.000000
0.691875 0.164062 0.000000
0.744326 0.164062 0.000000
1.000000 0.159375 0.000000
1.000000 0.159375 0.000000
1.000000 0.159375 0.000000
0.000000 0.243530 0.000000
0.009209 0.243530 0.000000
0.035234 0.243530 0.000000
0.075674 0.243530 0.000000
0.128125 0.243530 0.000000
0.190186 0.243530 0.000000
0.259453 0.243530 0.000000
0.333525 0.243530 0.000000
0.410000 0.243530 0.000000
0.486475 0.243530 0.000000
0.560547 0.243530 0.000000
0.629814 0.243530 0.000000
0.970312 0.236572 0.000000
1.000000 0.236572 0.000000
1.000000 0.236572 0.000000
1.000000 0.236572 0.000000
1.000000 0.236572 0.000000
0.000000 0.332227 0.000000
0.009209 0.332227 0.000000
0.035234 0.332227 0.000000
0.075674 0.332227 0.000000
0.128125 0.332227 0.000000
0.190186 0.332227 0.000000
0.259453 0.332227 0.000000
0.333525 0.332227 0.000000
0.410000 0.332227 0.000000
0.486475 0.332227 0.000000
0.786133 0.322734 0.000000
0.883276 0.322734 0.000000
0.970312 0.322734 0.000000
1.000000 0.322734 0.000000
1.000000 0.322734 0.000000
1.000000 0.322734 0.000000
1.000000 0.322734 0.000000
0.000000 0.427075 0.000000
0.009209 0.427075 0.000000
0.035234 0.427075 0.000000
0.075674 0.427075 0.000000
0.128125 0.427075 0.000000
0.190186 0.427075 0.000000
0.259453 0.427075 0.000000
0.333525 0.427075 0.000000
0.575000 0.414873 0.000000
0.682251 0.414873 0.000000
0.786133 0.414873 0.000000
0.883276 0.414873 0.000000
0.970312 0.414873 0.000000
1.000000 0.414873 0.000000
1.000000 0.414873 0.000000
1.000000 0.414873 0.000000
1.000000 0.414873 0.000000
0.000000 0.525000 0.000000
0.009209 0.525000 0.000000
0.035234 0.525000 0.000000
0.075674 0.525000 0.000000
0.128125 0.525000 0.000000
0.190186 0.525000 0.000000
0.363867 0.510000 0.000000
0.467749 0.510000 0.000000
0.575000 0.510000 0.000000
0.682251 0.510000 0.000000
0.786133 0.510000 0.000000
0.883276 0.510000 0.000000
0.970312 0.510000 0.000000
1.000000 0.510000 0.000000
1.000000 0.510000 0.000000
1.000000 0.510000 0.000000
1.000000 0.510000 0.000000
0.000000 0.622925 0.000000
0.009209 0.622925 0.000000
0.035234 0.622925 0.000000
0.075674 0.622925 0.000000
0.179688 0.605127 0.000000
0.266724 0.605127 0.000000
0.363867 0.605127 0.000000
0.467749 0.605127 0.000000
0.575000 0.605127 0.000000
0.682251 0.605127 0.000000
0.786133 0.605127 0.000000
0.883276 0.605127 0.000000
0.970312 0.605127 0.000000
1.000000 0.605127 0.000000
1.000000 0.605127 0.000000
1.000000 0.605127 0.000000
1.000000 0.605127 0.000000
0.000000 0.717773 0.000000
0.009209 0.717773 0.000000
0.049414 0.697266 0.000000
0.106128 0.697266 0.000000
0.179688 0.697266 0.000000
0.266724 0.697266 0.000000
0.363867 0.697266 0.000000
0.467749 0.697266 0.000000
0.575000 0.697266 0.000000
0.682251 0.697266 0.000000
0.786133 0.697266 0.000000
0.883276 0.697266 0.000000
0.970312 0.697266 0.000000
1.000000 0.697266 0.000000
1.000000 0.697266 0.000000
1.000000 0.697266 0.000000
1.000000 0.697266 0.000000
0.000000 0.783428 0.000000
0.012915 0.783428 0.000000
0.049414 0.783428 0.000000
0.106128 0.783428 0.000000
0.179688 0.783428 0.000000
0.266724 0.783428 0.000000
0.363867 0.783428 0.000000
0.467749 0.783428 0.000000
0.575000 0.783428 0.000000
0.682251 0.783428 0.000000
0.786133 0.783428 0.000000
0.883276 0.783428 0.000000
0.970312 0.783428 0.000000
1.000000 0.783428 0.000000
1.000000 0.783428 0.000000
1.000000 0.783428 0.000000
1.000000 0.783428 0.000000
0.000000 0.860625 0.000000
0.012915 0.860625 0.000000
0.049414 0.860625 0.000000
0.106128 0.860625 0.000000
0.179688 0.860625 0.000000
0.266724 0.860625 0.000000
0.363867 0.860625 0.000000
0.467749 0.860625 0.000000
0.575000 0.860625 0.000000
0.682251 0.860625 0.000000
0.786133 0.860625 0.000000
0.883276 0.860625 0.000000
0.970312 0.860625 0.000000
1.000000 0.860625 0.000000
1.000000 0.860625 0.000000
1.000000 0.860625 0.000000
1.000000 0.860625 0.000000
0.000000 0.925869 0.000000
0.012915 0.925869 0.000000
0.049414 0.925869 0.000000
0.106128 0.925869 0.000000
0.179688 0.925869 0.000000
0.266724 0.925869 0.000000
0.363867 0.925869 0.000000
0.467749 0.925869 0.000000
0.575000 0.925869 0.000000
0.682251 0.925869 0.000000
0.786133 0.925869 0.000000
0.883276 0.925869 0.000000
0.970312 0.925869 0.000000
1.000000 0.925869 0.000000
1.000000 0.925869 0.000000
1.000000 0.925869 0.000000
1.000000 0.925869 0.000000
0.000000 0.976172 0.000000
0.012915 0.976172 0.000000
0.049414 0.976172 0.000000
0.106128 0.976172 0.000000
0.179688 0.976172 0.000000
0.266724 0.976172 0.000000
0.363867 0.976172 0.000000
0.467749 0.976172 0.000000
0.575000 0.976172 0.000000
0.682251 0.976172 0.000000
0.786133 0.976172 0.000000
0.883276 0.976172 0.000000
0.970312 0.976172 0.000000
1.000000 0.976172 0.000000
1.000000 0.976172 0.000000
1.000000 0.976172 0.000000
1.000000 0.976172 0.000000
0.000000 1.000000 0.000000
0.012915 1.000000 0.000000
0.049414 1.000000 0.000000
0.106128 1.000000 0.000000
0.179688 1.000000 0.000000
0.266724 1.000000 0.000000
0.363867 1.000000 0.000000
0.467749 1.000000 0.000000
0.575000 1.000000 0.000000
0.682251 1.000000 0.000000
0.786133 1.000000 0.000000
0.883276 1.000000 0.000000
0.970312 1.000000 0.000000
1.000000 1.000000 0.000000
1.000000 1.000000 0.000000
1.000000 1.000000 0.000000
1.000000 1.000000 0.000000
0.000000 1.000000 0.000000
0.012915 1.000000 0.000000
0.049414 1.000000 0.000000
0.106128 1.000000 0.000000
0.179688 1.000000 0.000000
0.266724 1.000000 0.000000
0.363867 1.000000 0.000000
0.467749 1.000000 0.000000
0.575000 1.000000 0.000000
0.682251 1.000000 0.000000
0.786133 1.000000 0.000000
0.883276 1.000000 0.000000
0.970312 1.000000 0.000000
1.000000 1.000000 0.000000
1.000000 1.000000 0.000000
1.000000 1.000000 0.000000
1.000000 1.000000 0.000000
0.000000 0.000000 0.014038
0.009209 0.000000 0.014038
0.035234 0.000000 0.014038
0.075674 0.000000 0.014038
0.128125 0.000000 0.014038
0.190186 0.000000 0.014038
0.259453 0.000000 0.014038
0.333525 0.000000 0.014038
0.410000 0.000000 0.014038
0.486475 0.000000 0.014038
0.560547 0.000000 0.014038
0.629814 0.000000 0.014038
0.691875 0.000000 0.014038
0.744326 0.000000 0.014038
0.784766 0.000000 0.014038
0.810791 0.000000 0.014038
0.820000 0.000000 0.014038
0.000000 0.011792 0.014038
0.009209 0.011792 0.014038
0.035234 0.011792 0.014038
0.075674 0.011792 0.014038
0.128125 0.011792 0.014038
0.190186 0.011792 0.014038
0.259453 0.011792 0.014038
0.333525 0.011792 0.014038
0.410000 0.011792 0.014038
0.486475 0.011792 0.014038
0.560547 0.011792 0.014038
0.629814 0.011792 0.014038
0.691875 0.011792 0.014038
0.744326 0.011792 0.014038
0.784766 0.011792 0.014038
0.810791 0.011792 0.014038
0.820000 0.011792 0.014038
0.000000 0.045117 0.014038
0.009209 0.045117 0.014038
0.035234 0.045117 0.014038
0.075674 0.045117 0.014038
0.128125 0.045117 0.014038
0.190186 0.045117 0.014038
0.259453 0.045117 0.014038
0.333525 0.045117 0.014038
0.410000 0.045117 0.014038
0.486475 0.045117 0.014038
0.560547 0.045117 0.014038
0.629814 0.045117 0.014038
0.691875 0.045117 0.014038
0.744326 0.045117 0.014038
0.784766 0.045117 0.014038
0.810791 0.045117 0.014038
0.820000 0.045117 0.014038
0.000000 0.096899 0.014038
0.009209 0.096899 0.014038
0.035234 0.096899 0.014038
0.075674 0.096899 0.014038
0.128125 0.096899 0.014038
0.190186 0.096899 0.014038
0.259453 0.096899 0.014038
0.333525 0.096899 0.014038
0.410000 0.096899 0.014038
0.486475 0.096899 0.014038
0.560547 0.096899 0.014038
0.629814 0.096899 0.014038
0.691875 0.096899 0.014038
0.744326 0.096899 0.014038
0.784766 0.096899 0.014038
0.810791 0.096899 0.014038
1.000000 0.094131 0.009546
0.000000 0.164062 0.014038
0.009209 0.164062 0.014038
0.035234 0.164062 0.014038
0.075674 0.164062 0.014038
0.128125 0.164062 0.014038
0.190186 0.164062 0.014038
0.259453 0.164062 0.014038
0.333525 0.164062 0.014038
0.410000 0.164062 0.014038
0.486475 0.164062 0.014038
0.560547 0.164062 0.014038
0.629814 0.164062 0.014038
0.691875 0.164062 0.014038
0.744326 0.164062 0.014038
1.000000 0.159375 0.009546
1.000000 0.159375 0.009546
1.000000 0.159375 0.009546
0.000000 0.243530 0.014038
0.009209 0.243530 0.014038
0.035234 0.243530 0.014038
0.075674 0.243530 0.014038
0.128125 0.243530 0.014038
0.190186 0.243530 0.014038
0.259453 0.243530 0.014038
0.333525 0.243530 0.014038
0.410000 0.243530 0.014038
0.486475 0.243530 0.014038
0.560547 0.243530 0.014038
0.629814 0.243530 0.014038
0.970312 0.236572 0.009546
1.000000 0.236572 0.009546
1.000000 0.236572 0.009546
1.000000 0.236572 0.009546
1.000000 0.236572 0.009546
0.000000 0.332227 0.014038
0.009209 0.332227 0.014038
0.035234 0.332227 0.014038
0.075674 0.332227 0.014038
0.128125 0.332227 0.014038
0.190186 0.332227 0.014038
0.259453 0.332227 0.014038
0.333525 0.332227 0.014038
0.410000 0.332227 0.014038
0.486475 0.332227 0.014038
0.786133 0.322734 0.009546
0.883276 0.322734 0.009546
0.970312 0.322734 0.009546
1.000000 0.322734 0.009546
1.000000 0.322734 0.009546
1.000000 0.322734 0.009546
1.000000 0.322734 0.009546
0.000000 0.427075 0.014038
0.009209 0.427075 0.014038
0.035234 0.427075 0.014038
0.075674 0.427075 0.014038
0.128125 0.427075 0.014038
0.190186 0.427075 0.014038
0.259453 0.427075 0.014038
0.333525 0.427075 0.014038
0.575000 0.414873 0.009546
0.682251 0.414873 0.009546
0.786133 0.414873 0.009546
0.883276 0.414873 0.009546
0.970312 0.414873 0.009546
1.000000 0.414873 0.009546
1.000000 0.414873 0.009546
1.000000 0.414873 0.009546
1.000000 0.414873 0.009546
0.000000 0.525000 0.014038
0.009209 0.525000 0.014038
0.035234 0.525000 0.014038
0.075674 0.525000 0.014038
0.128125 0.525000 0.014038
0.190186 0.525000 0.014038
0.363867 0.510000 0.009546
0.467749 0.510000 0.009546
0.575000 0.510000 0.009546
0.682251 0.510000 0.009546
0.786133 0.510000 0.009546
0.883276 0.510000 0.009546
0.970312 0.510000 0.009546
1.000000 0.510000 0.009546
1.000000 0.510000 0.009546
1.000000 0.510000 0.009546
1.000000 0.510000 0.009546
0.000000 0.622925 0.014038
0.009209 0.622925 0.014038
0.035234 0.622925 0.014038
0.075674 0.622925 0.014038
0.179688 0.605127 0.009546
0.266724 0.605127 0.009546
0.363867 0.605127 0.009546
0.467749 0.605127 0.009546
0.575000 0.605127 0.009546
0.682251 0.605127 0.009546
0.786133 0.605127 0.009546
0.883276 0.605127 0.009546
0.970312 0.605127 0.009546
1.000000 0.605127 0.009546
1.000000 0.605127 0.009546
1.000000 0.605127 0.009546
1.000000 0.605127 0.009546
0.000000 0.717773 0.014038
0.009209 0.717773 0.014038
0.049414 0.697266 0.009546
0.106128 0.697266 0.009546
0.179688 0.697266 0.009546
0.266724 0.697266 0.009546
0.363867 0.697266 0.009546
0.467749 0.697266 0.009546
0.575000 0.697266 0.009546
0.682251 0.697266 0.009546
0.786133 0.697266 0.009546
0.883276 0.697266 0.009546
0.970312 0.697266 0.009546
1.000000 0.697266 0.009546
1.000000 0.697266 0.009546
1.000000 0.697266 0.009546
1.000000 0.697266 0.009546
0.000000 0.783428 0.009546
0.012915 0.783428 0.009546
0.049414 0.783428 0.009546
0.106128 0.783428 0.009546
0.179688 0.783428 0.009546
0.266724 0.783428 0.009546
0.363867 0.783428 0.009546
0.467749 0.783428 0.009546
0.575000 0.783428 0.009546
0.682251 0.783428 0.009546
0.786133 0.783428 0.009546
0.883276 0.783428 0.009546
0.970312 0.783428 0.009546
1.000000 0.783428 0.009546
1.000000 0.783428 0.009546
1.000000 0.783428 0.009546
1.000000 0.783428 0.009546
0.000000 0.860625 0.009546
0.012915 0.860625 0.009546
0.049414 0.860625 0.009546
0.106128 0.860625 0.009546
0.179688 0.860625 0.009546
0.266724 0.860625 0.009546
0.363867 0.860625 0.009546
0.467749 0.860625 0.009546
0.575000 0.860625 0.009546
0.682251 0.860625 0.009546
0.786133 0.860625 0.009546
0.883276 0.860625 0.009546
0.970312 0.860625 0.009546
1.000000 0.860625 0.009546
1.000000 0.860625 0.009546
1.000000 0.860625 0.009546
1.000000 0.860625 0.009546
0.000000 0.925869 0.009546
0.012915 0.925869 0.009546
0.049414 0.925869 0.009546
0.106128 0.925869 0.009546
0.179688 0.925869 0.009546
0.266724 0.925869 0.009546
0.363867 0.925869 0.009546
0.467749 0.925869 0.009546
0.575000 0.925869 0.009546
0.682251 0.925869 0.009546
0.786133 0.925869 0.009546
0.883276 0.925869 0.009546
0.970312 0.925869 0.009546
1.000000 0.925869 0.009546
1.000000 0.925869 0.009546
1.000000 0.925869 0.009546
1.000000 0.925869 0.009546
0.000000 0.976172 0.009546
0.012915 0.976172 0.009546
0.049414 0.976172 0.009546
0.106128 0.976172 0.009546
0.179688 0.976172 0.009546
0.266724 0.976172 0.009546
0.363867 0.976172 0.009546
0.467749 0.976172 0.009546
0.575000 0.976172 0.009546
0.682251 0.976172 0.009546
0.786133 0.976172 0.009546
0.883276 0.976172 0.009546
0.970312 0.976172 0.009546
1.000000 0.976172 0.009546
1.000000 0.976172 0.009546
1.000000 0.976172 0.009546
1.000000 0.976172 0.009546
0.000000 1.000000 0.009546
0.012915 1.000000 0.009546
0.049414 1.000000 0.009546
0.106128 1.000000 0.009546
0.179688 1.000000 0.009546
0.266724 1.000000 0.009546
0.363867 1.000000 0.009546
0.467749 1.000000 0.009546
0.575000 1.000000 0.009546
0.682251 1.000000 0.009546
0.786133 1.000000 0.009546
0.883276 1.000000 0.009546
0.970312 1.000000 0.009546
1.000000 1.000000 0.009546
1.000000 1.000000 0.009546
1.000000 1.000000 0.009546
1.000000 1.000000 0.009546
0.000000 1.000000 0.009546
0.012915 1.000000 0.009546
0.049414 1.000000 0.009546
0.106128 1.000000 0.009546
0.179688 1.000000 0.009546
0.266724 1.000000 0.009546
0.363867 1.000000 0.009546
0.467749 1.000000 0.009546
0.575000 1.000000 0.009546
0.682251 1.000000 0.009546
0.786133 1.000000 0.009546
0.883276 1.000000 0.009546
0.970312 1.000000 0.009546
1.000000 1.000000 0.009546
1.000000 1.000000 0.009546
1.000000 1.000000 0.009546
1.000000 1.000000 0.009546
0.000000 0.000000 0.053711
0.009209 0.000000 0.053711
0.035234 0.000000 0.053711
0.075674 0.000000 0.053711
0.128125 0.000000 0.053711
0.190186 0.000000 0.053711
0.259453 0.000000 0.053711
0.333525 0.000000 0.053711
0.410000 0.000000 0.053711
0.486475 0.000000 0.053711
0.560547 0.000000 0.053711
0.629814 0.000000 0.053711
0.691875 0.000000 0.053711
0.744326 0.000000 0.053711
0.784766 0.000000 0.053711
0.810791 0.000000 0.053711
0.820000 0.000000 0.053711
0.000000 0.011792 0.053711
0.009209 0.011792 0.053711
0.035234 0.011792 0.053711
0.075674 0.011792 0.053711
0.128125 0.011792 0.053711
0.190186 0.011792 0.053711
0.259453 0.011792 0.053711
0.333525 0.011792 0.053711
0.410000 0.011792 0.053711
0.486475 0.011792 0.053711
0.560547 0.011792 0.053711
0.629814 0.011792 0.053711
0.691875 0.011792 0.053711
0.744326 0.011792 0.053711
0.784766 0.011792 0.053711
0.810791 0.011792 0.053711
0.820000 0.011792 0.053711
0.000000 0.045117 0.053711
0.009209 0.045117 0.053711
0.035234 0.045117 0.053711
0.075674 0.045117 0.053711
0.128125 0.045117 0.053711
0.190186 0.045117 0.053711
0.259453 0.045117 0.053711
0.333525 0.045117 0.053711
0.410000 0.045117 0.053711
0.486475 0.045117 0.053711
0.560547 0.045117 0.053711
0.629814 0.045117 0.053711
0.691875 0.045117 0.053711
0.744326 0.045117 0.053711
0.784766 0.045117 0.053711
0.810791 0.045117 0.053711
0.820000 0.045117 0.053711
0.000000 0.096899 0.053711
0.009209 0.096899 0.053711
0.035234 0.096899 0.053711
0.075674 0.096899 0.053711
0.128125 0.096899 0.053711
0.190186 0.096899 0.053711
0.259453 0.096899 0.053711
0.333525 0.096899 0.053711
0.410000 0.096899 0.053711
0.486475 0.096899 0.053711
0.560547 0.096899 0.053711
0.629814 0.096899 0.053711
0.691875 0.096899 0.053711
0.744326 0.096899 0.053711
0.784766 0.096899 0.053711
1.000000 0.094131 0.036523
1.000000 0.094131 0.036523
0.000000 0.164062 0.053711
0.009209 0.164062 0.053711
0.035234 0.164062 0.053711
0.075674 0.164062 0.053711
0.128125 0.164062 0.053711
0.190186 0.164062 0.053711
0.259453 0.164062 0.053711
0.333525 0.164062 0.053711
0.410000 0.164062 0.053711
0.486475 0.164062 0.053711
0.560547 0.164062 0.053711
0.629814 0.164062 0.053711
0.691875 0.164062 0.053711
1.000000 0.159375 0.036523
1.000000 0.159375 0.036523
1.000000 0.159375 0.036523
1.000000 0.159375 0.036523
0.000000 0.243530 0.053711
0.009209 0.243530 0.053711
0.035234 0.243530 0.053711
0.075674 0.243530 0.053711
0.128125 0.243530 0.053711
0.190186 0.243530 0.053711
0.259453 0.243530 0.053711
0.333525 0.243530 0.053711
0.410000 0.243530 0.053711
0.486475 0.243530 0.053711
0.560547 0.243530 0.053711
0.883276 0.236572 0.036523
0.970312 0.236572 0.036523
1.000000 0.236572 0.036523
1.000000 0.236572 0.036523
1.000000 0.236572 0.036523
1.000000 0.236572 0.036523
0.000000 0.332227 0.053711
0.009209 0.332227 0.053711
0.035234 0.332227 0.053711
0.075674 0.332227 0.053711
0.128125 0.332227 0.053711
0.190186 0.332227 0.053711
0.259453 0.332227 0.053711
0.333525 0.332227 0.053711
0.410000 0.332227 0.053711
0.682251 0.322734 0.036523
0.786133 0.322734 0.036523
0.883276 0.322734 0.036523
0.970312 0.322734 0.036523
1.000000 0.322734 0.036523
1.000000 0.322734 0.036523
1.000000 0.322734 0.036523
1.000000 0.322734 0.036523
0.000000 0.427075 0.053711
0.009209 0.427075 0.053711
0.035234 0.427075 0.053711
0.075674 0.427075 0.053711
0.128125 0.427075 0.053711
0.190186 0.427075 0.053711
0.259453 0.427075 0.053711
0.467749 0.414873 0.036523
0.575000 0.414873 0.036523
0.682251 0.414873 0.036523
0.786133 0.414873 0.036523
0.883276 0.414873 0.036523
0.970312 0.414873 0.036523
1.000000 0.414873 0.036523
1.000000 0.414873 0.036523
1.000000 0.414873 0.036523
1.000000 0.414873 0.036523
0.000000 0.525000 0.053711
0.009209 0.525000 0.053711
0.035234 0.525000 0.053711
0.075674 0.525000 0.053711
0.128125 0.525000 0.053711
0.266724 0.510000 0.036523
0.363867 0.510000 0.036523
0.467749 0.510000 0.036523
0.575000 0.510000 0.036523
0.682251 0.510000 0.036523
0.786133 0.510000 0.036523
0.883276 0.510000 0.036523
0.970312 0.510000 0.036523
1.000000 0.510000 0.036523
1.000000 0.510000 0.036523
1.000000 0.510000 0.036523
1.000000 0.510000 0.036523
0.000000 0.622925 0.053711
0.009209 0.622925 0.053711
0.035234 0.622925 0.053711
0.106128 0.605127 0.036523
0.179688 0.605127 0.036523
0.266724 0.605127 0.036523
0.363867 0.605127 0.036523
0.467749 0.605127 0.036523
0.575000 0.605127 0.036523
0.682251 0.605127 0.036523
0.786133 0.605127 0.036523
0.883276 0.605127 0.036523
0.970312 0.605127 0.036523
1.000000 0.605127 0.036523
1.000000 0.605127 0.036523
1.000000 0.605127 0.036523
1.000000 0.605127 0.036523
0.000000 0.717773 0.053711
0.009209 0.717773 0.053711
0.049414 0.697266 0.036523
0.106128 0.697266 0.036523
0.179688 0.697266 0.036523
0.266724 0.697266 0.036523
0.363867 0.697266 0.036523
0.467749 0.697266 0.036523
0.575000 0.697266 0.036523
0.682251 0.697266 0.036523
0.786133 0.697266 0.036523
0.883276 0.697266 0.036523
0.970312 0.697266 0.036523
1.000000 0.697266 0.036523
1.000000 0.697266 0.036523
1.000000 0.697266 0.036523
1.000000 0.697266 0.036523
0.000000 0.783428 0.036523
0.012915 0.783428 0.036523
0.049414 0.783428 0.036523
0.106128 0.783428 0.036523
0.179688 0.783428 0.036523
0.266724 0.783428 0.036523
0.363867 0.783428 0.036523
0.467749 0.783428 0.036523
0.575000 0.783428 0.036523
0.682251 0.783428 0.036523
0.786133 0.783428 0.036523
0.883276 0.783428 0.036523
0.970312 0.783428 0.036523
1.000000 0.783428 0.036523
1.000000 0.783428 0.036523
1.000000 0.783428 0.036523
1.000000 0.783428 0.036523
0.000000 0.860625 0.036523
0.012915 0.860625 0.036523
0.049414 0.860625 0.036523
0.106128 0.860625 0.036523
0.179688 0.860625 0.036523
0.266724 0.860625 0.036523
0.363867 0.860625 0.036523
0.467749 0.860625 0.036523
0.575000 0.860625 0.036523
0.682251 0.860625 0.036523
0.786133 0.860625 0.036523
0.883276 0.860625 0.036523
0.970312 0.860625 0.036523
1.000000 0.860625 0.036523
1.000000 0.860625 0.036523
1.000000 0.860625 0.036523
1.000000 0.860625 0.036523
0.000000 0.925869 0.036523
0.012915 0.925869 0.036523
0.049414 0.925869 0.036523
0.106128 0.925869 0.036523
0.179688 0.925869 0.036523
0.266724 0.925869 0.036523
0.363867 0.925869 0.036523
0.467749 0.925869 0.036523
0.575000 0.925869 0.036523
0.682251 0.925869 0.036523
0.786133 0.925869 0.036523
0.883276 0.925869 0.036523
0.970312 0.925869 0.036523
1.000000 0.925869 0.036523
1.000000 0.925869 0.036523
1.000000 0.925869 0.036523
1.000000 0.925869 0.036523
0.000000 0.976172 0.036523
0.012915 0.976172 0.036523
0.049414 0.976172 0.036523
0.106128 0.976172 0.036523
0.179688 0.976172 0.036523
0.266724 0.976172 0.036523
0.363867 0.976172 0.036523
0.467749 0.976172 0.036523
0.575000 0.976172 0.036523
0.682251 0.976172 0.036523
0.786133 0.976172 0.036523
0.883276 0.976172 0.036523
0.970312 0.976172 0.036523
1.000000 0.976172 0.036523
1.000000 0.976172 0.036523
1.000000 0.976172 0.036523
1.000000 0.976172 0.036523
0.000000 1.000000 0.036523
0.012915 1.000000 0.036523
0.049414 1.000000 0.036523
0.106128 1.000000 0.036523
0.179688 1.000000 0.036523
0.266724 1.000000 0.036523
0.363867 1.000000 0.036523
0.467749 1.000000 0.036523
0.575000 1.000000 0.036523
0.682251 1.000000 0.036523
0.786133 1.000000 0.036523
0.883276 1.000000 0.036523
0.970312 1.000000 0.036523
1.000000 1.000000 0.036523
1.000000 1.000000 0.036523
1.000000 1.000000 0.036523
1.000000 1.000000 0.036523
0.000000 1.000000 0.036523
0.012915 1.000000 0.036523
0.049414 1.000000 0.036523
0.106128 1.000000 0.036523
0.179688 1.000000 0.036523
0.266724 1.000000 0.036523
0.363867 1.000000 0.036523
0.467749 1.000000 0.036523
0.575000 1.000000 0.036523
0.682251 1.000000 0.036523
0.786133 1.000000 0.036523
0.883276 1.000000 0.036523
0.970312 1.000000 0.036523
1.000000 1.000000 0.036523
1.000000 1.000000 0.036523
1.000000 1.000000 0.036523
1.000000 1.000000 0.036523
0.000000 0.000000 0.115356
0.009209 0.000000 0.115356
0.035234 0.000000 0.115356
0.075674 0.000000 0.115356
0.128125 0.000000 0.115356
0.190186 0.000000 0.115356
0.259453 0.000000 0.115356
0.333525 0.000000 0.115356
0.410000 0.000000 0.115356
0.486475 0.000000 0.115356
0.560547 0.000000 0.115356
0.629814 0.000000 0.115356
0.691875 0.000000 0.115356
0.744326 0.000000 0.115356
0.784766 0.000000 0.115356
0.810791 0.000000 0.115356
