04-EFFECTS-AND-FILTERS/3d-luts-cube-files/cinematic_teal_orange.cube
# Generated by Video Auto-Editor Pipeline
TITLE "Cinematic Teal & Orange"
LUT_3D_SIZE 9
DOMAIN_MIN 0.0 0.0 0.0
DOMAIN_MAX 1.0 1.0 1.0
0.000000 0.000000 0.000000
0.035234 0.000000 0.000000
0.128125 0.000000 0.000000
0.259453 0.000000 0.000000
0.410000 0.000000 0.000000
0.560547 0.000000 0.000000
0.691875 0.000000 0.000000
0.784766 0.000000 0.000000
0.820000 0.000000 0.000000
0.000000 0.045117 0.000000
0.035234 0.045117 0.000000
0.128125 0.045117 0.000000
0.259453 0.045117 0.000000
0.410000 0.045117 0.000000
0.560547 0.045117 0.000000
0.691875 0.045117 0.000000
0.784766 0.045117 0.000000
0.820000 0.045117 0.000000
0.000000 0.164062 0.000000
0.035234 0.164062 0.000000
0.128125 0.164062 0.000000
0.259453 0.164062 0.000000
0.410000 0.164062 0.000000
0.560547 0.164062 0.000000
0.691875 0.164062 0.000000
1.000000 0.159375 0.000000
1.000000 0.159375 0.000000
0.000000 0.332227 0.000000
0.035234 0.332227 0.000000
0.128125 0.332227 0.000000
0.259453 0.332227 0.000000
0.410000 0.332227 0.000000
0.786133 0.322734 0.000000
0.970312 0.322734 0.000000
1.000000 0.322734 0.000000
1.000000 0.322734 0.000000
0.000000 0.525000 0.000000
0.035234 0.525000 0.000000
0.128125 0.525000 0.000000
0.363867 0.510000 0.000000
0.575000 0.510000 0.000000
0.786133 0.510000 0.000000
0.970312 0.510000 0.000000
1.000000 0.510000 0.000000
1.000000 0.510000 0.000000
0.000000 0.717773 0.000000
0.049414 0.697266 0.000000
0.179688 0.697266 0.000000
0.363867 0.697266 0.000000
0.575000 0.697266 0.000000
0.786133 0.697266 0.000000
0.970312 0.697266 0.000000
1.000000 0.697266 0.000000
1.000000 0.697266 0.000000
0.000000 0.860625 0.000000
0.049414 0.860625 0.000000
0.179688 0.860625 0.000000
0.363867 0.860625 0.000000
0.575000 0.860625 0.000000
0.786133 0.860625 0.000000
0.970312 0.860625 0.000000
1.000000 0.860625 0.000000
1.000000 0.860625 0.000000
0.000000 0.976172 0.000000
0.049414 0.976172 0.000000
0.179688 0.976172 0.000000
0.363867 0.976172 0.000000
0.575000 0.976172 0.000000
0.786133 0.976172 0.000000
0.970312 0.976172 0.000000
1.000000 0.976172 0.000000
1.000000 0.976172 0.000000
0.000000 1.000000 0.000000
0.049414 1.000000 0.000000
0.179688 1.000000 0.000000
0.363867 1.000000 0.000000
0.575000 1.000000 0.000000
0.786133 1.000000 0.000000
0.970312 1.000000 0.000000
1.000000 1.000000 0.000000
1.000000 1.000000 0.000000
0.000000 0.000000 0.053711
0.035234 0.000000 0.053711
0.128125 0.000000 0.053711
0.259453 0.000000 0.053711
0.410000 0.000000 0.053711
0.560547 0.000000 0.053711
0.691875 0.000000 0.053711
0.784766 0.000000 0.053711
0.820000 0.000000 0.053711
0.000000 0.045117 0.053711
0.035234 0.045117 0.053711
0.128125 0.045117 0.053711
0.259453 0.045117 0.053711
0.410000 0.045117 0.053711
0.560547 0.045117 0.053711
0.691875 0.045117 0.053711
0.784766 0.045117 0.053711
0.820000 0.045117 0.053711
0.000000 0.164062 0.053711
0.035234 0.164062 0.053711
0.128125 0.164062 0.053711
0.259453 0.164062 0.053711
0.410000 0.164062 0.053711
0.560547 0.164062 0.053711
0.691875 0.164062 0.053711
1.000000 0.159375 0.036523
1.000000 0.159375 0.036523
0.000000 0.332227 0.053711
0.035234 0.332227 0.053711
0.128125 0.332227 0.053711
0.259453 0.332227 0.053711
0.410000 0.332227 0.053711
0.786133 0.322734 0.036523
0.970312 0.322734 0.036523
1.000000 0.322734 0.036523
1.000000 0.322734 0.036523
0.000000 0.525000 0.053711
0.035234 0.525000 0.053711
0.128125 0.525000 0.053711
0.363867 0.510000 0.036523
0.575000 0.510000 0.036523
0.786133 0.510000 0.036523
0.970312 0.510000 0.036523
1.000000 0.510000 0.036523
1.000000 0.510000 0.036523
0.000000 0.717773 0.053711
0.049414 0.697266 0.036523
0.179688 0.697266 0.036523
0.363867 0.697266 0.036523
0.575000 0.697266 0.036523
0.786133 0.697266 0.036523
0.970312 0.697266 0.036523
1.000000 0.697266 0.036523
1.000000 0.697266 0.036523
0.000000 0.860625 0.036523
0.049414 0.860625 0.036523
0.179688 0.860625 0.036523
0.363867 0.860625 0.036523
0.575000 0.860625 0.036523
0.786133 0.860625 0.036523
0.970312 0.860625 0.036523
1.000000 0.860625 0.036523
1.000000 0.860625 0.036523
0.000000 0.976172 0.036523
0.049414 0.976172 0.036523
0.179688 0.976172 0.036523
0.363867 0.976172 0.036523
0.575000 0.976172 0.036523
0.786133 0.976172 0.036523
0.970312 0.976172 0.036523
1.000000 0.976172 0.036523
1.000000 0.976172 0.036523
0.000000 1.000000 0.036523
0.049414 1.000000 0.036523
0.179688 1.000000 0.036523
0.363867 1.000000 0.036523
0.575000 1.000000 0.036523
0.786133 1.000000 0.036523
0.970312 1.000000 0.036523
1.000000 1.000000 0.036523
1.000000 1.000000 0.036523
0.000000 0.000000 0.195312
0.035234 0.000000 0.195312
0.128125 0.000000 0.195312
0.259453 0.000000 0.195312
0.410000 0.000000 0.195312
0.560547 0.000000 0.195312
0.691875 0.000000 0.195312
0.784766 0.000000 0.195312
0.820000 0.000000 0.195312
0.000000 0.045117 0.195312
0.035234 0.045117 0.195312
0.128125 0.045117 0.195312
0.259453 0.045117 0.195312
0.410000 0.045117 0.195312
0.560547 0.045117 0.195312
0.691875 0.045117 0.195312
0.784766 0.045117 0.195312
1.000000 0.043828 0.132812
0.000000 0.164062 0.195312
0.035234 0.164062 0.195312
0.128125 0.164062 0.195312
0.259453 0.164062 0.195312
0.410000 0.164062 0.195312
0.560547 0.164062 0.195312
0.691875 0.164062 0.195312
1.000000 0.159375 0.132812
1.000000 0.159375 0.132812
0.000000 0.332227 0.195312
0.035234 0.332227 0.195312
0.128125 0.332227 0.195312
0.259453 0.332227 0.195312
0.410000 0.332227 0.195312
0.786133 0.322734 0.132812
0.970312 0.322734 0.132812
1.000000 0.322734 0.132812
1.000000 0.322734 0.132812
0.000000 0.525000 0.195312
0.035234 0.525000 0.195312
0.128125 0.525000 0.195312
0.363867 0.510000 0.132812
0.575000 0.510000 0.132812
0.786133 0.510000 0.132812
0.970312 0.510000 0.132812
1.000000 0.510000 0.132812
1.000000 0.510000 0.132812
0.000000 0.717773 0.195312
0.049414 0.697266 0.132812
0.179688 0.697266 0.132812
0.363867 0.697266 0.132812
0.575000 0.697266 0.132812
0.786133 0.697266 0.132812
0.970312 0.697266 0.132812
1.000000 0.697266 0.132812
1.000000 0.697266 0.132812
0.000000 0.860625 0.132812
0.049414 0.860625 0.132812
0.179688 0.860625 0.132812
0.363867 0.860625 0.132812
0.575000 0.860625 0.132812
0.786133 0.860625 0.132812
0.970312 0.860625 0.132812
1.000000 0.860625 0.132812
1.000000 0.860625 0.132812
0.000000 0.976172 0.132812
0.049414 0.976172 0.132812
0.179688 0.976172 0.132812
0.363867 0.976172 0.132812
0.575000 0.976172 0.132812
0.786133 0.976172 0.132812
0.970312 0.976172 0.132812
1.000000 0.976172 0.132812
1.000000 0.976172 0.132812
0.000000 1.000000 0.132812
0.049414 1.000000 0.132812
0.179688 1.000000 0.132812
0.363867 1.000000 0.132812
0.575000 1.000000 0.132812
0.786133 1.000000 0.132812
0.970312 1.000000 0.132812
1.000000 1.000000 0.132812
1.000000 1.000000 0.132812
0.000000 0.000000 0.395508
0.035234 0.000000 0.395508
0.128125 0.000000 0.395508
0.259453 0.000000 0.395508
0.410000 0.000000 0.395508
0.560547 0.000000 0.395508
0.691875 0.000000 0.395508
0.784766 0.000000 0.395508
0.820000 0.000000 0.395508
0.000000 0.045117 0.395508
0.035234 0.045117 0.395508
0.128125 0.045117 0.395508
0.259453 0.045117 0.395508
0.410000 0.045117 0.395508
0.560547 0.045117 0.395508
0.691875 0.045117 0.395508
0.784766 0.045117 0.395508
1.000000 0.043828 0.268945
0.000000 0.164062 0.395508
0.035234 0.164062 0.395508
0.128125 0.164062 0.395508
0.259453 0.164062 0.395508
0.410000 0.164062 0.395508
0.560547 0.164062 0.395508
0.970312 0.159375 0.268945
1.000000 0.159375 0.268945
1.000000 0.159375 0.268945
0.000000 0.332227 0.395508
0.035234 0.332227 0.395508
0.128125 0.332227 0.395508
0.259453 0.332227 0.395508
0.575000 0.322734 0.268945
0.786133 0.322734 0.268945
0.970312 0.322734 0.268945
1.000000 0.322734 0.268945
1.000000 0.322734 0.268945
0.000000 0.525000 0.395508
0.035234 0.525000 0.395508
0.179688 0.510000 0.268945
0.363867 0.510000 0.268945
0.575000 0.510000 0.268945
0.786133 0.510000 0.268945
0.970312 0.510000 0.268945
1.000000 0.510000 0.268945
1.000000 0.510000 0.268945
0.000000 0.697266 0.268945
0.049414 0.697266 0.268945
0.179688 0.697266 0.268945
0.363867 0.697266 0.268945
0.575000 0.697266 0.268945
0.786133 0.697266 0.268945
0.970312 0.697266 0.268945
1.000000 0.697266 0.268945
1.000000 0.697266 0.268945
0.000000 0.860625 0.268945
0.049414 0.860625 0.268945
0.179688 0.860625 0.268945
0.363867 0.860625 0.268945
0.575000 0.860625 0.268945
0.786133 0.860625 0.268945
0.970312 0.860625 0.268945
1.000000 0.860625 0.268945
1.000000 0.860625 0.268945
0.000000 0.976172 0.268945
0.049414 0.976172 0.268945
0.179688 0.976172 0.268945
0.363867 0.976172 0.268945
0.575000 0.976172 0.268945
0.786133 0.976172 0.268945
0.970312 0.976172 0.268945
1.000000 0.976172 0.268945
1.000000 0.976172 0.268945
0.000000 1.000000 0.268945
0.049414 1.000000 0.268945
0.179688 1.000000 0.268945
0.363867 1.000000 0.268945
0.575000 1.000000 0.268945
0.786133 1.000000 0.268945
0.970312 1.000000 0.268945
1.000000 1.000000 0.268945
1.000000 1.000000 0.268945
0.000000 0.000000 0.625000
0.035234 0.000000 0.625000
0.128125 0.000000 0.625000
0.259453 0.000000 0.625000
0.410000 0.000000 0.625000
0.560547 0.000000 0.625000
0.691875 0.000000 0.625000
0.784766 0.000000 0.625000
0.820000 0.000000 0.625000
0.000000 0.045117 0.625000
0.035234 0.045117 0.625000
0.128125 0.045117 0.625000
0.259453 0.045117 0.625000
0.410000 0.045117 0.625000
0.560547 0.045117 0.625000
0.691875 0.045117 0.625000
0.784766 0.045117 0.625000
1.000000 0.043828 0.425000
0.000000 0.164062 0.625000
0.035234 0.164062 0.625000
0.128125 0.164062 0.625000
0.259453 0.164062 0.625000
0.410000 0.164062 0.625000
0.560547 0.164062 0.625000
0.970312 0.159375 0.425000
1.000000 0.159375 0.425000
1.000000 0.159375 0.425000
0.000000 0.332227 0.625000
0.035234 0.332227 0.625000
0.128125 0.332227 0.625000
0.259453 0.332227 0.625000
0.575000 0.322734 0.425000
0.786133 0.322734 0.425000
0.970312 0.322734 0.425000
1.000000 0.322734 0.425000
1.000000 0.322734 0.425000
0.000000 0.525000 0.625000
0.035234 0.525000 0.625000
0.179688 0.510000 0.425000
0.363867 0.510000 0.425000
0.575000 0.510000 0.425000
0.786133 0.510000 0.425000
0.970312 0.510000 0.425000
1.000000 0.510000 0.425000
1.000000 0.510000 0.425000
0.000000 0.697266 0.425000
0.049414 0.697266 0.425000
0.179688 0.697266 0.425000
0.363867 0.697266 0.425000
0.575000 0.697266 0.425000
0.786133 0.697266 0.425000
0.970312 0.697266 0.425000
1.000000 0.697266 0.425000
1.000000 0.697266 0.425000
0.000000 0.860625 0.425000
0.049414 0.860625 0.425000
0.179688 0.860625 0.425000
0.363867 0.860625 0.425000
0.575000 0.860625 0.425000
0.786133 0.860625 0.425000
0.970312 0.860625 0.425000
1.000000 0.860625 0.425000
1.000000 0.860625 0.425000
0.000000 0.976172 0.425000
0.049414 0.976172 0.425000
0.179688 0.976172 0.425000
0.363867 0.976172 0.425000
0.575000 0.976172 0.425000
0.786133 0.976172 0.425000
0.970312 0.976172 0.425000
1.000000 0.976172 0.425000
1.000000 0.976172 0.425000
0.000000 1.000000 0.425000
0.049414 1.000000 0.425000
0.179688 1.000000 0.425000
0.363867 1.000000 0.425000
0.575000 1.000000 0.425000
0.786133 1.000000 0.425000
0.970312 1.000000 0.425000
1.000000 1.000000 0.425000
1.000000 1.000000 0.425000
0.000000 0.000000 0.854492
0.035234 0.000000 0.854492
0.128125 0.000000 0.854492
0.259453 0.000000 0.854492
0.410000 0.000000 0.854492
0.560547 0.000000 0.854492
0.691875 0.000000 0.854492
0.784766 0.000000 0.854492
0.820000 0.000000 0.854492
0.000000 0.045117 0.854492
0.035234 0.045117 0.854492
0.128125 0.045117 0.854492
0.259453 0.045117 0.854492
0.410000 0.045117 0.854492
0.560547 0.045117 0.854492
0.691875 0.045117 0.854492
1.000000 0.043828 0.581055
1.000000 0.043828 0.581055
0.000000 0.164062 0.854492
0.035234 0.164062 0.854492
0.128125 0.164062 0.854492
0.259453 0.164062 0.854492
0.410000 0.164062 0.854492
0.786133 0.159375 0.581055
0.970312 0.159375 0.581055
1.000000 0.159375 0.581055
1.000000 0.159375 0.581055
0.000000 0.332227 0.854492
0.035234 0.332227 0.854492
0.128125 0.332227 0.854492
0.363867 0.322734 0.581055
0.575000 0.322734 0.581055
0.786133 0.322734 0.581055
0.970312 0.322734 0.581055
1.000000 0.322734 0.581055
1.000000 0.322734 0.581055
0.000000 0.525000 0.854492
0.049414 0.510000 0.581055
0.179688 0.510000 0.581055
0.363867 0.510000 0.581055
0.575000 0.510000 0.581055
0.786133 0.510000 0.581055
0.970312 0.510000 0.581055
1.000000 0.510000 0.581055
1.000000 0.510000 0.581055
0.000000 0.697266 0.581055
0.049414 0.697266 0.581055
0.179688 0.697266 0.581055
0.363867 0.697266 0.581055
0.575000 0.697266 0.581055
0.786133 0.697266 0.581055
0.970312 0.697266 0.581055
1.000000 0.697266 0.581055
1.000000 0.697266 0.581055
0.000000 0.860625 0.581055
0.049414 0.860625 0.581055
0.179688 0.860625 0.581055
0.363867 0.860625 0.581055
0.575000 0.860625 0.581055
0.786133 0.860625 0.581055
0.970312 0.860625 0.581055
1.000000 0.860625 0.581055
1.000000 0.860625 0.581055
0.000000 0.976172 0.581055
0.049414 0.976172 0.581055
0.179688 0.976172 0.581055
0.363867 0.976172 0.581055
0.575000 0.976172 0.581055
0.786133 0.976172 0.581055
0.970312 0.976172 0.581055
1.000000 0.976172 0.581055
1.000000 0.976172 0.581055
0.000000 1.000000 0.581055
0.049414 1.000000 0.581055
0.179688 1.000000 0.581055
0.363867 1.000000 0.581055
0.575000 1.000000 0.581055
0.786133 1.000000 0.581055
0.970312 1.000000 0.581055
1.000000 1.000000 0.581055
1.000000 1.000000 0.581055
0.000000 0.000000 1.000000
0.035234 0.000000 1.000000
0.128125 0.000000 1.000000
0.259453 0.000000 1.000000
0.410000 0.000000 1.000000
0.560547 0.000000 1.000000
0.691875 0.000000 1.000000
0.784766 0.000000 1.000000
0.820000 0.000000 1.000000
0.000000 0.045117 1.000000
0.035234 0.045117 1.000000
0.128125 0.045117 1.000000
0.259453 0.045117 1.000000
0.410000 0.045117 1.000000
0.560547 0.045117 1.000000
0.691875 0.045117 1.000000
1.000000 0.043828 0.717187
1.000000 0.043828 0.717187
0.000000 0.164062 1.000000
0.035234 0.164062 1.000000
0.128125 0.164062 1.000000
0.259453 0.164062 1.000000
0.410000 0.164062 1.000000
0.786133 0.159375 0.717187
0.970312 0.159375 0.717187
1.000000 0.159375 0.717187
1.000000 0.159375 0.717187
0.000000 0.332227 1.000000
0.035234 0.332227 1.000000
0.128125 0.332227 1.000000
0.363867 0.322734 0.717187
0.575000 0.322734 0.717187
0.786133 0.322734 0.717187
0.970312 0.322734 0.717187
1.000000 0.322734 0.717187
1.000000 0.322734 0.717187
0.000000 0.525000 1.000000
0.049414 0.510000 0.717187
0.179688 0.510000 0.717187
0.363867 0.510000 0.717187
0.575000 0.510000 0.717187
0.786133 0.510000 0.717187
0.970312 0.510000 0.717187
1.000000 0.510000 0.717187
1.000000 0.510000 0.717187
0.000000 0.697266 0.717187
0.049414 0.697266 0.717187
0.179688 0.697266 0.717187
0.363867 0.697266 0.717187
0.575000 0.697266 0.717187
0.786133 0.697266 0.717187
0.970312 0.697266 0.717187
1.000000 0.697266 0.717187
1.000000 0.697266 0.717187
0.000000 0.860625 0.717187
0.049414 0.860625 0.717187
0.179688 0.860625 0.717187
0.363867 0.860625 0.717187
0.575000 0.860625 0.717187
0.786133 0.860625 0.717187
0.970312 0.860625 0.717187
1.000000 0.860625 0.717187
1.000000 0.860625 0.717187
0.000000 0.976172 0.717187
0.049414 0.976172 0.717187
0.179688 0.976172 0.717187
0.363867 0.976172 0.717187
0.575000 0.976172 0.717187
0.786133 0.976172 0.717187
0.970312 0.976172 0.717187
1.000000 0.976172 0.717187
1.000000 0.976172 0.717187
0.000000 1.000000 0.717187
0.049414 1.000000 0.717187
0.179688 1.000000 0.717187
0.363867 1.000000 0.717187
0.575000 1.000000 0.717187
0.786133 1.000000 0.717187
0.970312 1.000000 0.717187
1.000000 1.000000 0.717187
1.000000 1.000000 0.717187
0.000000 0.000000 1.000000
0.035234 0.000000 1.000000
0.128125 0.000000 1.000000
0.259453 0.000000 1.000000
0.410000 0.000000 1.000000
0.560547 0.000000 1.000000
0.691875 0.000000 1.000000
0.784766 0.000000 1.000000
0.820000 0.000000 1.000000
0.000000 0.045117 1.000000
0.035234 0.045117 1.000000
0.128125 0.045117 1.000000
0.259453 0.045117 1.000000
0.410000 0.045117 1.000000
0.560547 0.045117 1.000000
0.691875 0.045117 1.000000
1.000000 0.043828 0.813477
1.000000 0.043828 0.813477
0.000000 0.164062 1.000000
0.035234 0.164062 1.000000
0.128125 0.164062 1.000000
0.259453 0.164062 1.000000
0.410000 0.164062 1.000000
0.786133 0.159375 0.813477
0.970312 0.159375 0.813477
1.000000 0.159375 0.813477
1.000000 0.159375 0.813477
0.000000 0.332227 1.000000
0.035234 0.332227 1.000000
0.128125 0.332227 1.000000
0.363867 0.322734 0.813477
0.575000 0.322734 0.813477
0.786133 0.322734 0.813477
0.970312 0.322734 0.813477
1.000000 0.322734 0.813477
1.000000 0.322734 0.813477
0.000000 0.525000 1.000000
0.049414 0.510000 0.813477
0.179688 0.510000 0.813477
0.363867 0.510000 0.813477
0.575000 0.510000 0.813477
0.786133 0.510000 0.813477
0.970312 0.510000 0.813477
1.000000 0.510000 0.813477
1.000000 0.510000 0.813477
0.000000 0.697266 0.813477
0.049414 0.697266 0.813477
0.179688 0.697266 0.813477
0.363867 0.697266 0.813477
0.575000 0.697266 0.813477
0.786133 0.697266 0.813477
0.970312 0.697266 0.813477
1.000000 0.697266 0.813477
1.000000 0.697266 0.813477
0.000000 0.860625 0.813477
0.049414 0.860625 0.813477
0.179688 0.860625 0.813477
0.363867 0.860625 0.813477
0.575000 0.860625 0.813477
0.786133 0.860625 0.813477
0.970312 0.860625 0.813477
1.000000 0.860625 0.813477
1.000000 0.860625 0.813477
0.000000 0.976172 0.813477
0.049414 0.976172 0.813477
0.179688 0.976172 0.813477
0.363867 0.976172 0.813477
0.575000 0.976172 0.813477
0.786133 0.976172 0.813477
0.970312 0.976172 0.813477
1.000000 0.976172 0.813477
1.000000 0.976172 0.813477
0.000000 1.000000 0.813477
0.049414 1.000000 0.813477
0.179688 1.000000 0.813477
0.363867 1.000000 0.813477
0.575000 1.000000 0.813477
0.786133 1.000000 0.813477
0.970312 1.000000 0.813477
1.000000 1.000000 0.813477
1.000000 1.000000 0.813477
0.000000 0.000000 1.000000
0.035234 0.000000 1.000000
0.128125 0.000000 1.000000
0.259453 0.000000 1.000000
0.410000 0.000000 1.000000
0.560547 0.000000 1.000000
0.691875 0.000000 1.000000
0.784766 0.000000 1.000000
1.000000 0.000000 0.850000
0.000000 0.045117 1.000000
0.035234 0.045117 1.000000
0.128125 0.045117 1.000000
0.259453 0.045117 1.000000
0.410000 0.045117 1.000000
0.560547 0.045117 1.000000
0.970312 0.043828 0.850000
1.000000 0.043828 0.850000
1.000000 0.043828 0.850000
0.000000 0.164062 1.000000
0.035234 0.164062 1.000000
0.128125 0.164062 1.000000
0.259453 0.164062 1.000000
0.575000 0.159375 0.850000
0.786133 0.159375 0.850000
0.970312 0.159375 0.850000
1.000000 0.159375 0.850000
1.000000 0.159375 0.850000
0.000000 0.332227 1.000000
0.035234 0.332227 1.000000
0.179688 0.322734 0.850000
0.363867 0.322734 0.850000
0.575000 0.322734 0.850000
0.786133 0.322734 0.850000
0.970312 0.322734 0.850000
1.000000 0.322734 0.850000
1.000000 0.322734 0.850000
0.000000 0.510000 0.850000
0.049414 0.510000 0.850000
0.179688 0.510000 0.850000
0.363867 0.510000 0.850000
0.575000 0.510000 0.850000
0.786133 0.510000 0.850000
0.970312 0.510000 0.850000
1.000000 0.510000 0.850000
1.000000 0.510000 0.850000
0.000000 0.697266 0.850000
0.049414 0.697266 0.850000
0.179688 0.697266 0.850000
0.363867 0.697266 0.850000
0.575000 0.697266 0.850000
0.786133 0.697266 0.850000
0.970312 0.697266 0.850000
1.000000 0.697266 0.850000
1.000000 0.697266 0.850000
0.000000 0.860625 0.850000
0.049414 0.860625 0.850000
0.179688 0.860625 0.850000
0.363867 0.860625 0.850000
0.575000 0.860625 0.850000
0.786133 0.860625 0.850000
0.970312 0.860625 0.850000
1.000000 0.860625 0.850000
1.000000 0.860625 0.850000
0.000000 0.976172 0.850000
0.049414 0.976172 0.850000
0.179688 0.976172 0.850000
0.363867 0.976172 0.850000
0.575000 0.976172 0.850000
0.786133 0.976172 0.850000
0.970312 0.976172 0.850000
1.000000 0.976172 0.850000
1.000000 0.976172 0.850000
0.000000 1.000000 0.850000
0.049414 1.000000 0.850000
0.179688 1.000000 0.850000
0.363867 1.000000 0.850000
0.575000 1.000000 0.850000
0.786133 1.000000 0.850000
0.970312 1.000000 0.850000
1.000000 1.000000 0.850000
1.000000 1.000000 0.850000
