04-EFFECTS-AND-FILTERS/3d-luts-cube-files/cinematic_teal_orange.cube
# Generated by Video Auto-Editor Pipeline
TITLE "Cinematic Teal & Orange"
LUT_3D_SIZE 5
DOMAIN_MIN 0.0 0.0 0.0
DOMAIN_MAX 1.0 1.0 1.0
0.000000 0.000000 0.000000
0.128125 0.000000 0.000000
0.410000 0.000000 0.000000
0.691875 0.000000 0.000000
0.820000 0.000000 0.000000
0.000000 0.164062 0.000000
0.128125 0.164062 0.000000
0.410000 0.164062 0.000000
0.691875 0.164062 0.000000
1.000000 0.159375 0.000000
0.000000 0.525000 0.000000
0.128125 0.525000 0.000000
0.575000 0.510000 0.000000
0.970312 0.510000 0.000000
1.000000 0.510000 0.000000
0.000000 0.860625 0.000000
0.179688 0.860625 0.000000
0.575000 0.860625 0.000000
0.970312 0.860625 0.000000
1.000000 0.860625 0.000000
0.000000 1.000000 0.000000
0.179688 1.000000 0.000000
0.575000 1.000000 0.000000
0.970312 1.000000 0.000000
1.000000 1.000000 0.000000
0.000000 0.000000 0.195312
0.128125 0.000000 0.195312
0.410000 0.000000 0.195312
0.691875 0.000000 0.195312
0.820000 0.000000 0.195312
0.000000 0.164062 0.195312
0.128125 0.164062 0.195312
0.410000 0.164062 0.195312
0.691875 0.164062 0.195312
1.000000 0.159375 0.132812
0.000000 0.525000 0.195312
0.128125 0.525000 0.195312
0.575000 0.510000 0.132812
0.970312 0.510000 0.132812
1.000000 0.510000 0.132812
0.000000 0.860625 0.132812
0.179688 0.860625 0.132812
0.575000 0.860625 0.132812
0.970312 0.860625 0.132812
1.000000 0.860625 0.132812
0.000000 1.000000 0.132812
0.179688 1.000000 0.132812
0.575000 1.000000 0.132812
0.970312 1.000000 0.132812
1.000000 1.000000 0.132812
0.000000 0.000000 0.625000
0.128125 0.000000 0.625000
0.410000 0.000000 0.625000
0.691875 0.000000 0.625000
0.820000 0.000000 0.625000
0.000000 0.164062 0.625000
0.128125 0.164062 0.625000
0.410000 0.164062 0.625000
0.970312 0.159375 0.425000
1.000000 0.159375 0.425000
0.000000 0.525000 0.625000
0.179688 0.510000 0.425000
0.575000 0.510000 0.425000
0.970312 0.510000 0.425000
1.000000 0.510000 0.425000
0.000000 0.860625 0.425000
0.179688 0.860625 0.425000
0.575000 0.860625 0.425000
0.970312 0.860625 0.425000
1.000000 0.860625 0.425000
0.000000 1.000000 0.425000
0.179688 1.000000 0.425000
0.575000 1.000000 0.425000
0.970312 1.000000 0.425000
1.000000 1.000000 0.425000
0.000000 0.000000 1.000000
0.128125 0.000000 1.000000
0.410000 0.000000 1.000000
0.691875 0.000000 1.000000
0.820000 0.000000 1.000000
0.000000 0.164062 1.000000
0.128125 0.164062 1.000000
0.410000 0.164062 1.000000
0.970312 0.159375 0.717187
1.000000 0.159375 0.717187
0.000000 0.525000 1.000000
0.179688 0.510000 0.717187
0.575000 0.510000 0.717187
0.970312 0.510000 0.717187
1.000000 0.510000 0.717187
0.000000 0.860625 0.717187
0.179688 0.860625 0.717187
0.575000 0.860625 0.717187
0.970312 0.860625 0.717187
1.000000 0.860625 0.717187
0.000000 1.000000 0.717187
0.179688 1.000000 0.717187
0.575000 1.000000 0.717187
0.970312 1.000000 0.717187
1.000000 1.000000 0.717187
0.000000 0.000000 1.000000
0.128125 0.000000 1.000000
0.410000 0.000000 1.000000
0.691875 0.000000 1.000000
1.000000 0.000000 0.850000
0.000000 0.164062 1.000000
0.128125 0.164062 1.000000
0.575000 0.159375 0.850000
0.970312 0.159375 0.850000
1.000000 0.159375 0.850000
0.000000 0.510000 0.850000
0.179688 0.510000 0.850000
0.575000 0.510000 0.850000
0.970312 0.510000 0.850000
1.000000 0.510000 0.850000
0.000000 0.860625 0.850000
0.179688 0.860625 0.850000
0.575000 0.860625 0.850000
0.970312 0.860625 0.850000
1.000000 0.860625 0.850000
0.000000 1.000000 0.850000
0.179688 1.000000 0.850000
0.575000 1.000000 0.850000
0.970312 1.000000 0.850000
1.000000 1.000000 0.850000
