04-EFFECTS-AND-FILTERS/3d-luts-cube-files/cyberpunk_neon.cube
# Generated by Video Auto-Editor Pipeline
TITLE "Cyberpunk Neon"
LUT_3D_SIZE 17
DOMAIN_MIN 0.0 0.0 0.0
DOMAIN_MAX 1.0 1.0 1.0
0.000000 0.000000 0.000000
0.075000 0.000000 0.000000
0.150000 0.000000 0.000000
0.225000 0.000000 0.000000
0.300000 0.000000 0.000000
0.375000 0.000000 0.000000
0.450000 0.000000 0.000000
0.525000 0.000000 0.000000
0.600000 0.000000 0.000000
0.675000 0.000000 0.000000
0.750000 0.000000 0.000000
0.825000 0.000000 0.000000
0.900000 0.000000 0.000000
0.975000 0.000000 0.000000
1.000000 0.000000 0.000000
1.000000 0.000000 0.000000
1.000000 0.000000 0.000000
0.000000 0.053125 0.000000
0.043750 0.053125 0.000000
0.150000 0.053125 0.000000
0.225000 0.053125 0.000000
0.300000 0.053125 0.000000
0.375000 0.053125 0.000000
0.450000 0.053125 0.000000
0.525000 0.053125 0.000000
0.600000 0.053125 0.000000
0.675000 0.053125 0.000000
0.750000 0.053125 0.000000
0.825000 0.053125 0.000000
0.900000 0.053125 0.000000
0.975000 0.053125 0.000000
1.000000 0.053125 0.000000
1.000000 0.053125 0.000000
1.000000 0.053125 0.000000
0.000000 0.106250 0.000000
0.043750 0.106250 0.000000
0.087500 0.106250 0.000000
0.225000 0.106250 0.000000
0.300000 0.106250 0.000000
0.375000 0.106250 0.000000
0.450000 0.106250 0.000000
0.525000 0.106250 0.000000
0.600000 0.106250 0.000000
0.675000 0.106250 0.000000
0.750000 0.106250 0.000000
0.825000 0.106250 0.000000
0.900000 0.106250 0.000000
0.975000 0.106250 0.000000
1.000000 0.106250 0.000000
1.000000 0.106250 0.000000
1.000000 0.106250 0.000000
0.000000 0.159375 0.000000
0.043750 0.159375 0.000000
0.087500 0.159375 0.000000
0.131250 0.159375 0.000000
0.300000 0.159375 0.000000
0.375000 0.159375 0.000000
0.450000 0.159375 0.000000
0.525000 0.159375 0.000000
0.600000 0.159375 0.000000
0.675000 0.159375 0.000000
0.750000 0.159375 0.000000
0.825000 0.159375 0.000000
0.900000 0.159375 0.000000
0.975000 0.159375 0.000000
1.000000 0.159375 0.000000
1.000000 0.159375 0.000000
1.000000 0.159375 0.000000
0.000000 0.212500 0.000000
0.043750 0.212500 0.000000
0.087500 0.212500 0.000000
0.131250 0.212500 0.000000
0.175000 0.212500 0.000000
0.375000 0.212500 0.000000
0.450000 0.212500 0.000000
0.525000 0.212500 0.000000
0.600000 0.212500 0.000000
0.675000 0.212500 0.000000
0.750000 0.212500 0.000000
0.825000 0.212500 0.000000
0.900000 0.212500 0.000000
0.975000 0.212500 0.000000
1.000000 0.212500 0.000000
1.000000 0.212500 0.000000
1.000000 0.212500 0.000000
0.000000 0.265625 0.000000
0.043750 0.265625 0.000000
0.087500 0.265625 0.000000
0.131250 0.265625 0.000000
0.175000 0.265625 0.000000
0.218750 0.265625 0.000000
0.450000 0.265625 0.000000
0.525000 0.265625 0.000000
0.600000 0.265625 0.000000
0.675000 0.265625 0.000000
0.750000 0.265625 0.000000
0.825000 0.265625 0.000000
0.900000 0.265625 0.000000
0.975000 0.265625 0.000000
1.000000 0.265625 0.000000
1.000000 0.265625 0.000000
1.000000 0.265625 0.000000
0.000000 0.318750 0.000000
0.043750 0.318750 0.000000
0.087500 0.318750 0.000000
0.131250 0.318750 0.000000
0.175000 0.318750 0.000000
0.218750 0.318750 0.000000
0.262500 0.318750 0.000000
0.525000 0.318750 0.000000
0.600000 0.318750 0.000000
0.675000 0.318750 0.000000
0.750000 0.318750 0.000000
0.825000 0.318750 0.000000
0.900000 0.318750 0.000000
0.975000 0.318750 0.000000
1.000000 0.318750 0.000000
1.000000 0.318750 0.000000
1.000000 0.318750 0.000000
0.000000 0.371875 0.000000
0.043750 0.371875 0.000000
0.087500 0.371875 0.000000
0.131250 0.371875 0.000000
0.175000 0.371875 0.000000
0.218750 0.371875 0.000000
0.262500 0.371875 0.000000
0.306250 0.371875 0.000000
0.600000 0.371875 0.000000
0.675000 0.371875 0.000000
0.750000 0.371875 0.000000
0.825000 0.371875 0.000000
0.900000 0.371875 0.000000
0.975000 0.371875 0.000000
1.000000 0.371875 0.000000
1.000000 0.371875 0.000000
1.000000 0.371875 0.000000
0.000000 0.425000 0.000000
0.043750 0.425000 0.000000
0.087500 0.425000 0.000000
0.131250 0.425000 0.000000
0.175000 0.425000 0.000000
0.218750 0.425000 0.000000
0.262500 0.425000 0.000000
0.306250 0.425000 0.000000
0.350000 0.425000 0.000000
0.675000 0.425000 0.000000
0.750000 0.425000 0.000000
0.825000 0.425000 0.000000
0.900000 0.425000 0.000000
0.975000 0.425000 0.000000
1.000000 0.425000 0.000000
1.000000 0.425000 0.000000
1.000000 0.425000 0.000000
0.000000 0.478125 0.000000
0.043750 0.478125 0.000000
0.087500 0.478125 0.000000
0.131250 0.478125 0.000000
0.175000 0.478125 0.000000
0.218750 0.478125 0.000000
0.262500 0.478125 0.000000
0.306250 0.478125 0.000000
0.350000 0.478125 0.000000
0.393750 0.478125 0.000000
0.750000 0.478125 0.000000
0.825000 0.478125 0.000000
0.900000 0.478125 0.000000
0.975000 0.478125 0.000000
1.000000 0.478125 0.000000
1.000000 0.478125 0.000000
1.000000 0.478125 0.000000
0.000000 0.531250 0.000000
0.043750 0.531250 0.000000
0.087500 0.531250 0.000000
0.131250 0.531250 0.000000
0.175000 0.531250 0.000000
0.218750 0.531250 0.000000
0.262500 0.531250 0.000000
0.306250 0.531250 0.000000
0.350000 0.531250 0.000000
0.393750 0.531250 0.000000
0.437500 0.531250 0.000000
0.825000 0.531250 0.000000
0.900000 0.531250 0.000000
0.975000 0.531250 0.000000
1.000000 0.531250 0.000000
1.000000 0.531250 0.000000
1.000000 0.531250 0.000000
0.000000 0.584375 0.000000
0.043750 0.584375 0.000000
0.087500 0.584375 0.000000
0.131250 0.584375 0.000000
0.175000 0.584375 0.000000
0.218750 0.584375 0.000000
0.262500 0.584375 0.000000
0.306250 0.584375 0.000000
0.350000 0.584375 0.000000
0.393750 0.584375 0.000000
0.437500 0.584375 0.000000
0.481250 0.584375 0.000000
0.900000 0.584375 0.000000
0.975000 0.584375 0.000000
1.000000 0.584375 0.000000
1.000000 0.584375 0.000000
1.000000 0.584375 0.000000
0.000000 0.637500 0.000000
0.043750 0.637500 0.000000
0.087500 0.637500 0.000000
0.131250 0.637500 0.000000
0.175000 0.637500 0.000000
0.218750 0.637500 0.000000
0.262500 0.637500 0.000000
0.306250 0.637500 0.000000
0.350000 0.637500 0.000000
0.393750 0.637500 0.000000
0.437500 0.637500 0.000000
0.481250 0.637500 0.000000
0.525000 0.637500 0.000000
0.975000 0.637500 0.000000
1.000000 0.637500 0.000000
1.000000 0.637500 0.000000
1.000000 0.637500 0.000000
0.000000 0.690625 0.000000
0.043750 0.690625 0.000000
0.087500 0.690625 0.000000
0.131250 0.690625 0.000000
0.175000 0.690625 0.000000
0.218750 0.690625 0.000000
0.262500 0.690625 0.000000
0.306250 0.690625 0.000000
0.350000 0.690625 0.000000
0.393750 0.690625 0.000000
0.437500 0.690625 0.000000
0.481250 0.690625 0.000000
0.525000 0.690625 0.000000
0.568750 0.690625 0.000000
1.000000 0.690625 0.000000
1.000000 0.690625 0.000000
1.000000 0.690625 0.000000
0.000000 0.743750 0.000000
0.043750 0.743750 0.000000
0.087500 0.743750 0.000000
0.131250 0.743750 0.000000
0.175000 0.743750 0.000000
0.218750 0.743750 0.000000
0.262500 0.743750 0.000000
0.306250 0.743750 0.000000
0.350000 0.743750 0.000000
0.393750 0.743750 0.000000
0.437500 0.743750 0.000000
0.481250 0.743750 0.000000
0.525000 0.743750 0.000000
0.568750 0.743750 0.000000
0.612500 0.743750 0.000000
1.000000 0.743750 0.000000
1.000000 0.743750 0.000000
0.000000 0.796875 0.000000
0.043750 0.796875 0.000000
0.087500 0.796875 0.000000
0.131250 0.796875 0.000000
0.175000 0.796875 0.000000
0.218750 0.796875 0.000000
0.262500 0.796875 0.000000
0.306250 0.796875 0.000000
0.350000 0.796875 0.000000
0.393750 0.796875 0.000000
0.437500 0.796875 0.000000
0.481250 0.796875 0.000000
0.525000 0.796875 0.000000
0.568750 0.796875 0.000000
0.612500 0.796875 0.000000
0.656250 0.796875 0.000000
1.000000 0.796875 0.000000
0.000000 0.850000 0.000000
0.043750 0.850000 0.000000
0.087500 0.850000 0.000000
0.131250 0.850000 0.000000
0.175000 0.850000 0.000000
0.218750 0.850000 0.000000
0.262500 0.850000 0.000000
0.306250 0.850000 0.000000
0.350000 0.850000 0.000000
0.393750 0.850000 0.000000
0.437500 0.850000 0.000000
0.481250 0.850000 0.000000
0.525000 0.850000 0.000000
0.568750 0.850000 0.000000
0.612500 0.850000 0.000000
0.656250 0.850000 0.000000
0.700000 0.850000 0.000000
0.000000 0.000000 0.087500
0.075000 0.000000 0.087500
0.150000 0.000000 0.087500
0.225000 0.000000 0.087500
0.300000 0.000000 0.087500
0.375000 0.000000 0.087500
0.450000 0.000000 0.087500
0.525000 0.000000 0.087500
0.600000 0.000000 0.087500
0.675000 0.000000 0.087500
0.750000 0.000000 0.087500
0.825000 0.000000 0.087500
0.900000 0.000000 0.087500
0.975000 0.000000 0.087500
1.000000 0.000000 0.087500
1.000000 0.000000 0.087500
1.000000 0.000000 0.087500
0.000000 0.053125 0.087500
0.043750 0.053125 0.087500
0.150000 0.053125 0.087500
0.225000 0.053125 0.087500
0.300000 0.053125 0.087500
0.375000 0.053125 0.087500
0.450000 0.053125 0.087500
0.525000 0.053125 0.087500
0.600000 0.053125 0.087500
0.675000 0.053125 0.087500
0.750000 0.053125 0.087500
0.825000 0.053125 0.087500
0.900000 0.053125 0.087500
0.975000 0.053125 0.087500
1.000000 0.053125 0.087500
1.000000 0.053125 0.087500
1.000000 0.053125 0.087500
0.000000 0.106250 0.087500
0.043750 0.106250 0.087500
0.087500 0.106250 0.087500
0.225000 0.106250 0.087500
0.300000 0.106250 0.087500
0.375000 0.106250 0.087500
0.450000 0.106250 0.087500
0.525000 0.106250 0.087500
0.600000 0.106250 0.087500
0.675000 0.106250 0.087500
0.750000 0.106250 0.087500
0.825000 0.106250 0.087500
0.900000 0.106250 0.087500
0.975000 0.106250 0.087500
1.000000 0.106250 0.087500
1.000000 0.106250 0.087500
1.000000 0.106250 0.087500
0.000000 0.159375 0.087500
0.043750 0.159375 0.087500
0.087500 0.159375 0.087500
0.131250 0.159375 0.087500
0.300000 0.159375 0.087500
0.375000 0.159375 0.087500
0.450000 0.159375 0.087500
0.525000 0.159375 0.087500
0.600000 0.159375 0.087500
0.675000 0.159375 0.087500
0.750000 0.159375 0.087500
0.825000 0.159375 0.087500
0.900000 0.159375 0.087500
0.975000 0.159375 0.087500
1.000000 0.159375 0.087500
1.000000 0.159375 0.087500
1.000000 0.159375 0.087500
0.000000 0.212500 0.087500
0.043750 0.212500 0.087500
0.087500 0.212500 0.087500
0.131250 0.212500 0.087500
0.175000 0.212500 0.087500
0.375000 0.212500 0.087500
0.450000 0.212500 0.087500
0.525000 0.212500 0.087500
0.600000 0.212500 0.087500
0.675000 0.212500 0.087500
0.750000 0.212500 0.087500
0.825000 0.212500 0.087500
0.900000 0.212500 0.087500
0.975000 0.212500 0.087500
1.000000 0.212500 0.087500
1.000000 0.212500 0.087500
1.000000 0.212500 0.087500
0.000000 0.265625 0.087500
0.043750 0.265625 0.087500
0.087500 0.265625 0.087500
0.131250 0.265625 0.087500
0.175000 0.265625 0.087500
0.218750 0.265625 0.087500
0.450000 0.265625 0.087500
0.525000 0.265625 0.087500
0.600000 0.265625 0.087500
0.675000 0.265625 0.087500
0.750000 0.265625 0.087500
0.825000 0.265625 0.087500
0.900000 0.265625 0.087500
0.975000 0.265625 0.087500
1.000000 0.265625 0.087500
1.000000 0.265625 0.087500
1.000000 0.265625 0.087500
0.000000 0.318750 0.087500
0.043750 0.318750 0.087500
0.087500 0.318750 0.087500
0.131250 0.318750 0.087500
0.175000 0.318750 0.087500
0.218750 0.318750 0.087500
0.262500 0.318750 0.087500
0.525000 0.318750 0.087500
0.600000 0.318750 0.087500
0.675000 0.318750 0.087500
0.750000 0.318750 0.087500
0.825000 0.318750 0.087500
0.900000 0.318750 0.087500
0.975000 0.318750 0.087500
1.000000 0.318750 0.087500
1.000000 0.318750 0.087500
1.000000 0.318750 0.087500
0.000000 0.371875 0.087500
0.043750 0.371875 0.087500
0.087500 0.371875 0.087500
0.131250 0.371875 0.087500
0.175000 0.371875 0.087500
0.218750 0.371875 0.087500
0.262500 0.371875 0.087500
0.306250 0.371875 0.087500
0.600000 0.371875 0.087500
0.675000 0.371875 0.087500
0.750000 0.371875 0.087500
0.825000 0.371875 0.087500
0.900000 0.371875 0.087500
0.975000 0.371875 0.087500
1.000000 0.371875 0.087500
1.000000 0.371875 0.087500
1.000000 0.371875 0.087500
0.000000 0.425000 0.087500
0.043750 0.425000 0.087500
0.087500 0.425000 0.087500
0.131250 0.425000 0.087500
0.175000 0.425000 0.087500
0.218750 0.425000 0.087500
0.262500 0.425000 0.087500
0.306250 0.425000 0.087500
0.350000 0.425000 0.087500
0.675000 0.425000 0.087500
0.750000 0.425000 0.087500
0.825000 0.425000 0.087500
0.900000 0.425000 0.087500
0.975000 0.425000 0.087500
1.000000 0.425000 0.087500
1.000000 0.425000 0.087500
1.000000 0.425000 0.087500
0.000000 0.478125 0.087500
0.043750 0.478125 0.087500
0.087500 0.478125 0.087500
0.131250 0.478125 0.087500
0.175000 0.478125 0.087500
0.218750 0.478125 0.087500
0.262500 0.478125 0.087500
0.306250 0.478125 0.087500
0.350000 0.478125 0.087500
0.393750 0.478125 0.087500
0.750000 0.478125 0.087500
0.825000 0.478125 0.087500
0.900000 0.478125 0.087500
0.975000 0.478125 0.087500
1.000000 0.478125 0.087500
1.000000 0.478125 0.087500
1.000000 0.478125 0.087500
0.000000 0.531250 0.087500
0.043750 0.531250 0.087500
0.087500 0.531250 0.087500
0.131250 0.531250 0.087500
0.175000 0.531250 0.087500
0.218750 0.531250 0.087500
0.262500 0.531250 0.087500
0.306250 0.531250 0.087500
0.350000 0.531250 0.087500
0.393750 0.531250 0.087500
0.437500 0.531250 0.087500
0.825000 0.531250 0.087500
0.900000 0.531250 0.087500
0.975000 0.531250 0.087500
1.000000 0.531250 0.087500
1.000000 0.531250 0.087500
1.000000 0.531250 0.087500
0.000000 0.584375 0.087500
0.043750 0.584375 0.087500
0.087500 0.584375 0.087500
0.131250 0.584375 0.087500
0.175000 0.584375 0.087500
0.218750 0.584375 0.087500
0.262500 0.584375 0.087500
0.306250 0.584375 0.087500
0.350000 0.584375 0.087500
0.393750 0.584375 0.087500
0.437500 0.584375 0.087500
0.481250 0.584375 0.087500
0.900000 0.584375 0.087500
0.975000 0.584375 0.087500
1.000000 0.584375 0.087500
1.000000 0.584375 0.087500
1.000000 0.584375 0.087500
0.000000 0.637500 0.087500
0.043750 0.637500 0.087500
0.087500 0.637500 0.087500
0.131250 0.637500 0.087500
0.175000 0.637500 0.087500
0.218750 0.637500 0.087500
0.262500 0.637500 0.087500
0.306250 0.637500 0.087500
0.350000 0.637500 0.087500
0.393750 0.637500 0.087500
0.437500 0.637500 0.087500
0.481250 0.637500 0.087500
0.525000 0.637500 0.087500
0.975000 0.637500 0.087500
1.000000 0.637500 0.087500
1.000000 0.637500 0.087500
1.000000 0.637500 0.087500
0.000000 0.690625 0.087500
0.043750 0.690625 0.087500
0.087500 0.690625 0.087500
0.131250 0.690625 0.087500
0.175000 0.690625 0.087500
0.218750 0.690625 0.087500
0.262500 0.690625 0.087500
0.306250 0.690625 0.087500
0.350000 0.690625 0.087500
0.393750 0.690625 0.087500
0.437500 0.690625 0.087500
0.481250 0.690625 0.087500
0.525000 0.690625 0.087500
0.568750 0.690625 0.087500
1.000000 0.690625 0.087500
1.000000 0.690625 0.087500
1.000000 0.690625 0.087500
0.000000 0.743750 0.087500
0.043750 0.743750 0.087500
0.087500 0.743750 0.087500
0.131250 0.743750 0.087500
0.175000 0.743750 0.087500
0.218750 0.743750 0.087500
0.262500 0.743750 0.087500
0.306250 0.743750 0.087500
0.350000 0.743750 0.087500
0.393750 0.743750 0.087500
0.437500 0.743750 0.087500
0.481250 0.743750 0.087500
0.525000 0.743750 0.087500
0.568750 0.743750 0.087500
0.612500 0.743750 0.087500
1.000000 0.743750 0.087500
1.000000 0.743750 0.087500
0.000000 0.796875 0.087500
0.043750 0.796875 0.087500
0.087500 0.796875 0.087500
0.131250 0.796875 0.087500
0.175000 0.796875 0.087500
0.218750 0.796875 0.087500
0.262500 0.796875 0.087500
0.306250 0.796875 0.087500
0.350000 0.796875 0.087500
0.393750 0.796875 0.087500
0.437500 0.796875 0.087500
0.481250 0.796875 0.087500
0.525000 0.796875 0.087500
0.568750 0.796875 0.087500
0.612500 0.796875 0.087500
0.656250 0.796875 0.087500
1.000000 0.796875 0.087500
0.000000 0.850000 0.087500
0.043750 0.850000 0.087500
0.087500 0.850000 0.087500
0.131250 0.850000 0.087500
0.175000 0.850000 0.087500
0.218750 0.850000 0.087500
0.262500 0.850000 0.087500
0.306250 0.850000 0.087500
0.350000 0.850000 0.087500
0.393750 0.850000 0.087500
0.437500 0.850000 0.087500
0.481250 0.850000 0.087500
0.525000 0.850000 0.087500
0.568750 0.850000 0.087500
0.612500 0.850000 0.087500
0.656250 0.850000 0.087500
0.700000 0.850000 0.087500
0.000000 0.000000 0.175000
0.075000 0.000000 0.175000
0.150000 0.000000 0.175000
0.225000 0.000000 0.175000
0.300000 0.000000 0.175000
0.375000 0.000000 0.175000
0.450000 0.000000 0.175000
0.525000 0.000000 0.175000
0.600000 0.000000 0.175000
0.675000 0.000000 0.175000
0.750000 0.000000 0.175000
0.825000 0.000000 0.175000
0.900000 0.000000 0.175000
0.975000 0.000000 0.175000
1.000000 0.000000 0.175000
1.000000 0.000000 0.175000
1.000000 0.000000 0.175000
0.000000 0.053125 0.175000
0.043750 0.053125 0.175000
0.150000 0.053125 0.175000
0.225000 0.053125 0.175000
0.300000 0.053125 0.175000
0.375000 0.053125 0.175000
0.450000 0.053125 0.175000
0.525000 0.053125 0.175000
0.600000 0.053125 0.175000
0.675000 0.053125 0.175000
0.750000 0.053125 0.175000
0.825000 0.053125 0.175000
0.900000 0.053125 0.175000
0.975000 0.053125 0.175000
1.000000 0.053125 0.175000
1.000000 0.053125 0.175000
1.000000 0.053125 0.175000
0.000000 0.106250 0.175000
0.043750 0.106250 0.175000
0.087500 0.106250 0.175000
0.225000 0.106250 0.175000
0.300000 0.106250 0.175000
0.375000 0.106250 0.175000
0.450000 0.106250 0.175000
0.525000 0.106250 0.175000
0.600000 0.106250 0.175000
0.675000 0.106250 0.175000
0.750000 0.106250 0.175000
0.825000 0.106250 0.175000
0.900000 0.106250 0.175000
0.975000 0.106250 0.175000
1.000000 0.106250 0.175000
1.000000 0.106250 0.175000
1.000000 0.106250 0.175000
0.000000 0.159375 0.175000
0.043750 0.159375 0.175000
0.087500 0.159375 0.175000
0.131250 0.159375 0.175000
0.300000 0.159375 0.175000
0.375000 0.159375 0.175000
0.450000 0.159375 0.175000
0.525000 0.159375 0.175000
0.600000 0.159375 0.175000
0.675000 0.159375 0.175000
0.750000 0.159375 0.175000
0.825000 0.159375 0.175000
0.900000 0.159375 0.175000
0.975000 0.159375 0.175000
1.000000 0.159375 0.175000
1.000000 0.159375 0.175000
1.000000 0.159375 0.175000
0.000000 0.212500 0.175000
0.043750 0.212500 0.175000
0.087500 0.212500 0.175000
0.131250 0.212500 0.175000
0.175000 0.212500 0.175000
0.375000 0.212500 0.175000
0.450000 0.212500 0.175000
0.525000 0.212500 0.175000
0.600000 0.212500 0.175000
0.675000 0.212500 0.175000
0.750000 0.212500 0.175000
0.825000 0.212500 0.175000
0.900000 0.212500 0.175000
0.975000 0.212500 0.175000
1.000000 0.212500 0.175000
1.000000 0.212500 0.175000
1.000000 0.212500 0.175000
0.000000 0.265625 0.175000
0.043750 0.265625 0.175000
0.087500 0.265625 0.175000
0.131250 0.265625 0.175000
0.175000 0.265625 0.175000
0.218750 0.265625 0.175000
0.450000 0.265625 0.175000
0.525000 0.265625 0.175000
0.600000 0.265625 0.175000
0.675000 0.265625 0.175000
0.750000 0.265625 0.175000
0.825000 0.265625 0.175000
0.900000 0.265625 0.175000
0.975000 0.265625 0.175000
1.000000 0.265625 0.175000
1.000000 0.265625 0.175000
1.000000 0.265625 0.175000
0.000000 0.318750 0.175000
0.043750 0.318750 0.175000
0.087500 0.318750 0.175000
0.131250 0.318750 0.175000
0.175000 0.318750 0.175000
0.218750 0.318750 0.175000
0.262500 0.318750 0.175000
0.525000 0.318750 0.175000
0.600000 0.318750 0.175000
0.675000 0.318750 0.175000
0.750000 0.318750 0.175000
0.825000 0.318750 0.175000
0.900000 0.318750 0.175000
0.975000 0.318750 0.175000
1.000000 0.318750 0.175000
1.000000 0.318750 0.175000
1.000000 0.318750 0.175000
0.000000 0.371875 0.175000
0.043750 0.371875 0.175000
0.087500 0.371875 0.175000
0.131250 0.371875 0.175000
0.175000 0.371875 0.175000
0.218750 0.371875 0.175000
0.262500 0.371875 0.175000
0.306250 0.371875 0.175000
0.600000 0.371875 0.175000
0.675000 0.371875 0.175000
0.750000 0.371875 0.175000
0.825000 0.371875 0.175000
0.900000 0.371875 0.175000
0.975000 0.371875 0.175000
1.000000 0.371875 0.175000
1.000000 0.371875 0.175000
1.000000 0.371875 0.175000
0.000000 0.425000 0.175000
0.043750 0.425000 0.175000
0.087500 0.425000 0.175000
0.131250 0.425000 0.175000
0.175000 0.425000 0.175000
0.218750 0.425000 0.175000
0.262500 0.425000 0.175000
0.306250 0.425000 0.175000
0.350000 0.425000 0.175000
0.675000 0.425000 0.175000
0.750000 0.425000 0.175000
0.825000 0.425000 0.175000
0.900000 0.425000 0.175000
0.975000 0.425000 0.175000
1.000000 0.425000 0.175000
1.000000 0.425000 0.175000
1.000000 0.425000 0.175000
0.000000 0.478125 0.175000
0.043750 0.478125 0.175000
0.087500 0.478125 0.175000
0.131250 0.478125 0.175000
0.175000 0.478125 0.175000
0.218750 0.478125 0.175000
0.262500 0.478125 0.175000
0.306250 0.478125 0.175000
0.350000 0.478125 0.175000
0.393750 0.478125 0.175000
0.750000 0.478125 0.175000
0.825000 0.478125 0.175000
0.900000 0.478125 0.175000
0.975000 0.478125 0.175000
1.000000 0.478125 0.175000
1.000000 0.478125 0.175000
1.000000 0.478125 0.175000
0.000000 0.531250 0.175000
0.043750 0.531250 0.175000
0.087500 0.531250 0.175000
0.131250 0.531250 0.175000
0.175000 0.531250 0.175000
0.218750 0.531250 0.175000
0.262500 0.531250 0.175000
0.306250 0.531250 0.175000
0.350000 0.531250 0.175000
0.393750 0.531250 0.175000
0.437500 0.531250 0.175000
0.825000 0.531250 0.175000
0.900000 0.531250 0.175000
0.975000 0.531250 0.175000
1.000000 0.531250 0.175000
1.000000 0.531250 0.175000
1.000000 0.531250 0.175000
0.000000 0.584375 0.175000
0.043750 0.584375 0.175000
0.087500 0.584375 0.175000
0.131250 0.584375 0.175000
0.175000 0.584375 0.175000
0.218750 0.584375 0.175000
0.262500 0.584375 0.175000
0.306250 0.584375 0.175000
0.350000 0.584375 0.175000
0.393750 0.584375 0.175000
0.437500 0.584375 0.175000
0.481250 0.584375 0.175000
0.900000 0.584375 0.175000
0.975000 0.584375 0.175000
1.000000 0.584375 0.175000
1.000000 0.584375 0.175000
1.000000 0.584375 0.175000
0.000000 0.637500 0.175000
0.043750 0.637500 0.175000
0.087500 0.637500 0.175000
0.131250 0.637500 0.175000
0.175000 0.637500 0.175000
0.218750 0.637500 0.175000
0.262500 0.637500 0.175000
0.306250 0.637500 0.175000
0.350000 0.637500 0.175000
0.393750 0.637500 0.175000
0.437500 0.637500 0.175000
0.481250 0.637500 0.175000
0.525000 0.637500 0.175000
0.975000 0.637500 0.175000
1.000000 0.637500 0.175000
1.000000 0.637500 0.175000
1.000000 0.637500 0.175000
0.000000 0.690625 0.175000
0.043750 0.690625 0.175000
0.087500 0.690625 0.175000
0.131250 0.690625 0.175000
0.175000 0.690625 0.175000
0.218750 0.690625 0.175000
0.262500 0.690625 0.175000
0.306250 0.690625 0.175000
0.350000 0.690625 0.175000
0.393750 0.690625 0.175000
0.437500 0.690625 0.175000
0.481250 0.690625 0.175000
0.525000 0.690625 0.175000
0.568750 0.690625 0.175000
1.000000 0.690625 0.175000
1.000000 0.690625 0.175000
1.000000 0.690625 0.175000
0.000000 0.743750 0.175000
0.043750 0.743750 0.175000
0.087500 0.743750 0.175000
0.131250 0.743750 0.175000
0.175000 0.743750 0.175000
0.218750 0.743750 0.175000
0.262500 0.743750 0.175000
0.306250 0.743750 0.175000
0.350000 0.743750 0.175000
0.393750 0.743750 0.175000
0.437500 0.743750 0.175000
0.481250 0.743750 0.175000
0.525000 0.743750 0.175000
0.568750 0.743750 0.175000
0.612500 0.743750 0.175000
1.000000 0.743750 0.175000
1.000000 0.743750 0.175000
0.000000 0.796875 0.175000
0.043750 0.796875 0.175000
0.087500 0.796875 0.175000
0.131250 0.796875 0.175000
0.175000 0.796875 0.175000
0.218750 0.796875 0.175000
0.262500 0.796875 0.175000
0.306250 0.796875 0.175000
0.350000 0.796875 0.175000
0.393750 0.796875 0.175000
0.437500 0.796875 0.175000
0.481250 0.796875 0.175000
0.525000 0.796875 0.175000
0.568750 0.796875 0.175000
0.612500 0.796875 0.175000
0.656250 0.796875 0.175000
1.000000 0.796875 0.175000
0.000000 0.850000 0.175000
0.043750 0.850000 0.175000
0.087500 0.850000 0.175000
0.131250 0.850000 0.175000
0.175000 0.850000 0.175000
0.218750 0.850000 0.175000
0.262500 0.850000 0.175000
0.306250 0.850000 0.175000
0.350000 0.850000 0.175000
0.393750 0.850000 0.175000
0.437500 0.850000 0.175000
0.481250 0.850000 0.175000
0.525000 0.850000 0.175000
0.568750 0.850000 0.175000
0.612500 0.850000 0.175000
0.656250 0.850000 0.175000
0.700000 0.850000 0.175000
0.000000 0.000000 0.262500
0.075000 0.000000 0.262500
0.150000 0.000000 0.262500
0.225000 0.000000 0.262500
0.300000 0.000000 0.262500
0.375000 0.000000 0.262500
0.450000 0.000000 0.262500
0.525000 0.000000 0.262500
0.600000 0.000000 0.262500
0.675000 0.000000 0.262500
0.750000 0.000000 0.262500
0.825000 0.000000 0.262500
0.900000 0.000000 0.262500
0.975000 0.000000 0.262500
1.000000 0.000000 0.262500
1.000000 0.000000 0.262500
1.000000 0.000000 0.262500
