04-EFFECTS-AND-FILTERS/3d-luts-cube-files/cyberpunk_neon.cube
# Generated by Video Auto-Editor Pipeline
TITLE "Cyberpunk Neon"
LUT_3D_SIZE 5
DOMAIN_MIN 0.0 0.0 0.0
DOMAIN_MAX 1.0 1.0 1.0
0.000000 0.000000 0.000000
0.300000 0.000000 0.000000
0.600000 0.000000 0.000000
0.900000 0.000000 0.000000
1.000000 0.000000 0.000000
0.000000 0.212500 0.000000
0.175000 0.212500 0.000000
0.600000 0.212500 0.000000
0.900000 0.212500 0.000000
1.000000 0.212500 0.000000
0.000000 0.425000 0.000000
0.175000 0.425000 0.000000
0.350000 0.425000 0.000000
0.900000 0.425000 0.000000
1.000000 0.425000 0.000000
0.000000 0.637500 0.000000
0.175000 0.637500 0.000000
0.350000 0.637500 0.000000
0.525000 0.637500 0.000000
1.000000 0.637500 0.000000
0.000000 0.850000 0.000000
0.175000 0.850000 0.000000
0.350000 0.850000 0.000000
0.525000 0.850000 0.000000
0.700000 0.850000 0.000000
0.000000 0.000000 0.350000
0.300000 0.000000 0.350000
0.600000 0.000000 0.350000
0.900000 0.000000 0.350000
1.000000 0.000000 0.350000
0.000000 0.212500 0.350000
0.175000 0.212500 0.350000
0.600000 0.212500 0.350000
0.900000 0.212500 0.350000
1.000000 0.212500 0.350000
0.000000 0.425000 0.350000
0.175000 0.425000 0.350000
0.350000 0.425000 0.350000
0.900000 0.425000 0.350000
1.000000 0.425000 0.350000
0.000000 0.637500 0.350000
0.175000 0.637500 0.350000
0.350000 0.637500 0.350000
0.525000 0.637500 0.350000
1.000000 0.637500 0.350000
0.000000 0.850000 0.350000
0.175000 0.850000 0.350000
0.350000 0.850000 0.350000
0.525000 0.850000 0.350000
0.700000 0.850000 0.350000
0.000000 0.000000 0.700000
0.300000 0.000000 0.700000
0.600000 0.000000 0.700000
0.900000 0.000000 0.700000
1.000000 0.000000 0.700000
0.000000 0.212500 0.700000
0.175000 0.212500 0.700000
0.600000 0.212500 0.700000
0.900000 0.212500 0.700000
1.000000 0.212500 0.700000
0.000000 0.425000 0.700000
0.175000 0.425000 0.700000
0.350000 0.425000 0.700000
0.900000 0.425000 0.700000
1.000000 0.425000 0.700000
0.000000 0.637500 0.700000
0.175000 0.637500 0.700000
0.350000 0.637500 0.700000
0.525000 0.637500 0.700000
1.000000 0.637500 0.700000
0.000000 0.850000 0.700000
0.175000 0.850000 0.700000
0.350000 0.850000 0.700000
0.525000 0.850000 0.700000
0.700000 0.850000 0.700000
0.000000 0.000000 1.000000
0.300000 0.000000 1.000000
0.600000 0.000000 1.000000
0.900000 0.000000 1.000000
1.000000 0.000000 1.000000
0.000000 0.212500 1.000000
0.175000 0.212500 1.000000
0.600000 0.212500 1.000000
0.900000 0.212500 1.000000
1.000000 0.212500 1.000000
0.000000 0.425000 1.000000
0.175000 0.425000 1.000000
0.350000 0.425000 1.000000
0.900000 0.425000 1.000000
1.000000 0.425000 1.000000
0.000000 0.637500 1.000000
0.175000 0.637500 1.000000
0.350000 0.637500 1.000000
0.525000 0.637500 1.000000
1.000000 0.637500 1.000000
0.000000 0.850000 1.000000
0.175000 0.850000 1.000000
0.350000 0.850000 1.000000
0.525000 0.850000 1.000000
0.700000 0.850000 1.000000
0.000000 0.000000 1.000000
0.300000 0.000000 1.000000
0.600000 0.000000 1.000000
0.900000 0.000000 1.000000
1.000000 0.000000 1.000000
0.000000 0.212500 1.000000
0.175000 0.212500 1.000000
0.600000 0.212500 1.000000
0.900000 0.212500 1.000000
1.000000 0.212500 1.000000
0.000000 0.425000 1.000000
0.175000 0.425000 1.000000
0.350000 0.425000 1.000000
0.900000 0.425000 1.000000
1.000000 0.425000 1.000000
0.000000 0.637500 1.000000
0.175000 0.637500 1.000000
0.350000 0.637500 1.000000
0.525000 0.637500 1.000000
1.000000 0.637500 1.000000
0.000000 0.850000 1.000000
0.175000 0.850000 1.000000
0.350000 0.850000 1.000000
0.525000 0.850000 1.000000
0.700000 0.850000 1.000000
