04-EFFECTS-AND-FILTERS/3d-luts-cube-files/cyberpunk_neon.cube
# Generated by Video Auto-Editor Pipeline
TITLE "Cyberpunk Neon"
LUT_3D_SIZE 9
DOMAIN_MIN 0.0 0.0 0.0
DOMAIN_MAX 1.0 1.0 1.0
0.000000 0.000000 0.000000
0.150000 0.000000 0.000000
0.300000 0.000000 0.000000
0.450000 0.000000 0.000000
0.600000 0.000000 0.000000
0.750000 0.000000 0.000000
0.900000 0.000000 0.000000
1.000000 0.000000 0.000000
1.000000 0.000000 0.000000
0.000000 0.106250 0.000000
0.087500 0.106250 0.000000
0.300000 0.106250 0.000000
0.450000 0.106250 0.000000
0.600000 0.106250 0.000000
0.750000 0.106250 0.000000
0.900000 0.106250 0.000000
1.000000 0.106250 0.000000
1.000000 0.106250 0.000000
0.000000 0.212500 0.000000
0.087500 0.212500 0.000000
0.175000 0.212500 0.000000
0.450000 0.212500 0.000000
0.600000 0.212500 0.000000
0.750000 0.212500 0.000000
0.900000 0.212500 0.000000
1.000000 0.212500 0.000000
1.000000 0.212500 0.000000
0.000000 0.318750 0.000000
0.087500 0.318750 0.000000
0.175000 0.318750 0.000000
0.262500 0.318750 0.000000
0.600000 0.318750 0.000000
0.750000 0.318750 0.000000
0.900000 0.318750 0.000000
1.000000 0.318750 0.000000
1.000000 0.318750 0.000000
0.000000 0.425000 0.000000
0.087500 0.425000 0.000000
0.175000 0.425000 0.000000
0.262500 0.425000 0.000000
0.350000 0.425000 0.000000
0.750000 0.425000 0.000000
0.900000 0.425000 0.000000
1.000000 0.425000 0.000000
1.000000 0.425000 0.000000
0.000000 0.531250 0.000000
0.087500 0.531250 0.000000
0.175000 0.531250 0.000000
0.262500 0.531250 0.000000
0.350000 0.531250 0.000000
0.437500 0.531250 0.000000
0.900000 0.531250 0.000000
1.000000 0.531250 0.000000
1.000000 0.531250 0.000000
0.000000 0.637500 0.000000
0.087500 0.637500 0.000000
0.175000 0.637500 0.000000
0.262500 0.637500 0.000000
0.350000 0.637500 0.000000
0.437500 0.637500 0.000000
0.525000 0.637500 0.000000
1.000000 0.637500 0.000000
1.000000 0.637500 0.000000
0.000000 0.743750 0.000000
0.087500 0.743750 0.000000
0.175000 0.743750 0.000000
0.262500 0.743750 0.000000
0.350000 0.743750 0.000000
0.437500 0.743750 0.000000
0.525000 0.743750 0.000000
0.612500 0.743750 0.000000
1.000000 0.743750 0.000000
0.000000 0.850000 0.000000
0.087500 0.850000 0.000000
0.175000 0.850000 0.000000
0.262500 0.850000 0.000000
0.350000 0.850000 0.000000
0.437500 0.850000 0.000000
0.525000 0.850000 0.000000
0.612500 0.850000 0.000000
0.700000 0.850000 0.000000
0.000000 0.000000 0.175000
0.150000 0.000000 0.175000
0.300000 0.000000 0.175000
0.450000 0.000000 0.175000
0.600000 0.000000 0.175000
0.750000 0.000000 0.175000
0.900000 0.000000 0.175000
1.000000 0.000000 0.175000
1.000000 0.000000 0.175000
0.000000 0.106250 0.175000
0.087500 0.106250 0.175000
0.300000 0.106250 0.175000
0.450000 0.106250 0.175000
0.600000 0.106250 0.175000
0.750000 0.106250 0.175000
0.900000 0.106250 0.175000
1.000000 0.106250 0.175000
1.000000 0.106250 0.175000
0.000000 0.212500 0.175000
0.087500 0.212500 0.175000
0.175000 0.212500 0.175000
0.450000 0.212500 0.175000
0.600000 0.212500 0.175000
0.750000 0.212500 0.175000
0.900000 0.212500 0.175000
1.000000 0.212500 0.175000
1.000000 0.212500 0.175000
0.000000 0.318750 0.175000
0.087500 0.318750 0.175000
0.175000 0.318750 0.175000
0.262500 0.318750 0.175000
0.600000 0.318750 0.175000
0.750000 0.318750 0.175000
0.900000 0.318750 0.175000
1.000000 0.318750 0.175000
1.000000 0.318750 0.175000
0.000000 0.425000 0.175000
0.087500 0.425000 0.175000
0.175000 0.425000 0.175000
0.262500 0.425000 0.175000
0.350000 0.425000 0.175000
0.750000 0.425000 0.175000
0.900000 0.425000 0.175000
1.000000 0.425000 0.175000
1.000000 0.425000 0.175000
0.000000 0.531250 0.175000
0.087500 0.531250 0.175000
0.175000 0.531250 0.175000
0.262500 0.531250 0.175000
0.350000 0.531250 0.175000
0.437500 0.531250 0.175000
0.900000 0.531250 0.175000
1.000000 0.531250 0.175000
1.000000 0.531250 0.175000
0.000000 0.637500 0.175000
0.087500 0.637500 0.175000
0.175000 0.637500 0.175000
0.262500 0.637500 0.175000
0.350000 0.637500 0.175000
0.437500 0.637500 0.175000
0.525000 0.637500 0.175000
1.000000 0.637500 0.175000
1.000000 0.637500 0.175000
0.000000 0.743750 0.175000
0.087500 0.743750 0.175000
0.175000 0.743750 0.175000
0.262500 0.743750 0.175000
0.350000 0.743750 0.175000
0.437500 0.743750 0.175000
0.525000 0.743750 0.175000
0.612500 0.743750 0.175000
1.000000 0.743750 0.175000
0.000000 0.850000 0.175000
0.087500 0.850000 0.175000
0.175000 0.850000 0.175000
0.262500 0.850000 0.175000
0.350000 0.850000 0.175000
0.437500 0.850000 0.175000
0.525000 0.850000 0.175000
0.612500 0.850000 0.175000
0.700000 0.850000 0.175000
0.000000 0.000000 0.350000
0.150000 0.000000 0.350000
0.300000 0.000000 0.350000
0.450000 0.000000 0.350000
0.600000 0.000000 0.350000
0.750000 0.000000 0.350000
0.900000 0.000000 0.350000
1.000000 0.000000 0.350000
1.000000 0.000000 0.350000
0.000000 0.106250 0.350000
0.087500 0.106250 0.350000
0.300000 0.106250 0.350000
0.450000 0.106250 0.350000
0.600000 0.106250 0.350000
0.750000 0.106250 0.350000
0.900000 0.106250 0.350000
1.000000 0.106250 0.350000
1.000000 0.106250 0.350000
0.000000 0.212500 0.350000
0.087500 0.212500 0.350000
0.175000 0.212500 0.350000
0.450000 0.212500 0.350000
0.600000 0.212500 0.350000
0.750000 0.212500 0.350000
0.900000 0.212500 0.350000
1.000000 0.212500 0.350000
1.000000 0.212500 0.350000
0.000000 0.318750 0.350000
0.087500 0.318750 0.350000
0.175000 0.318750 0.350000
0.262500 0.318750 0.350000
0.600000 0.318750 0.350000
0.750000 0.318750 0.350000
0.900000 0.318750 0.350000
1.000000 0.318750 0.350000
1.000000 0.318750 0.350000
0.000000 0.425000 0.350000
0.087500 0.425000 0.350000
0.175000 0.425000 0.350000
0.262500 0.425000 0.350000
0.350000 0.425000 0.350000
0.750000 0.425000 0.350000
0.900000 0.425000 0.350000
1.000000 0.425000 0.350000
1.000000 0.425000 0.350000
0.000000 0.531250 0.350000
0.087500 0.531250 0.350000
0.175000 0.531250 0.350000
0.262500 0.531250 0.350000
0.350000 0.531250 0.350000
0.437500 0.531250 0.350000
0.900000 0.531250 0.350000
1.000000 0.531250 0.350000
1.000000 0.531250 0.350000
0.000000 0.637500 0.350000
0.087500 0.637500 0.350000
0.175000 0.637500 0.350000
0.262500 0.637500 0.350000
0.350000 0.637500 0.350000
0.437500 0.637500 0.350000
0.525000 0.637500 0.350000
1.000000 0.637500 0.350000
1.000000 0.637500 0.350000
0.000000 0.743750 0.350000
0.087500 0.743750 0.350000
0.175000 0.743750 0.350000
0.262500 0.743750 0.350000
0.350000 0.743750 0.350000
0.437500 0.743750 0.350000
0.525000 0.743750 0.350000
0.612500 0.743750 0.350000
1.000000 0.743750 0.350000
0.000000 0.850000 0.350000
0.087500 0.850000 0.350000
0.175000 0.850000 0.350000
0.262500 0.850000 0.350000
0.350000 0.850000 0.350000
0.437500 0.850000 0.350000
0.525000 0.850000 0.350000
0.612500 0.850000 0.350000
0.700000 0.850000 0.350000
0.000000 0.000000 0.525000
0.150000 0.000000 0.525000
0.300000 0.000000 0.525000
0.450000 0.000000 0.525000
0.600000 0.000000 0.525000
0.750000 0.000000 0.525000
0.900000 0.000000 0.525000
1.000000 0.000000 0.525000
1.000000 0.000000 0.525000
0.000000 0.106250 0.525000
0.087500 0.106250 0.525000
0.300000 0.106250 0.525000
0.450000 0.106250 0.525000
0.600000 0.106250 0.525000
0.750000 0.106250 0.525000
0.900000 0.106250 0.525000
1.000000 0.106250 0.525000
1.000000 0.106250 0.525000
0.000000 0.212500 0.525000
0.087500 0.212500 0.525000
0.175000 0.212500 0.525000
0.450000 0.212500 0.525000
0.600000 0.212500 0.525000
0.750000 0.212500 0.525000
0.900000 0.212500 0.525000
1.000000 0.212500 0.525000
1.000000 0.212500 0.525000
0.000000 0.318750 0.525000
0.087500 0.318750 0.525000
0.175000 0.318750 0.525000
0.262500 0.318750 0.525000
0.600000 0.318750 0.525000
0.750000 0.318750 0.525000
0.900000 0.318750 0.525000
1.000000 0.318750 0.525000
1.000000 0.318750 0.525000
0.000000 0.425000 0.525000
0.087500 0.425000 0.525000
0.175000 0.425000 0.525000
0.262500 0.425000 0.525000
0.350000 0.425000 0.525000
0.750000 0.425000 0.525000
0.900000 0.425000 0.525000
1.000000 0.425000 0.525000
1.000000 0.425000 0.525000
0.000000 0.531250 0.525000
0.087500 0.531250 0.525000
0.175000 0.531250 0.525000
0.262500 0.531250 0.525000
0.350000 0.531250 0.525000
0.437500 0.531250 0.525000
0.900000 0.531250 0.525000
1.000000 0.531250 0.525000
1.000000 0.531250 0.525000
0.000000 0.637500 0.525000
0.087500 0.637500 0.525000
0.175000 0.637500 0.525000
0.262500 0.637500 0.525000
0.350000 0.637500 0.525000
0.437500 0.637500 0.525000
0.525000 0.637500 0.525000
1.000000 0.637500 0.525000
1.000000 0.637500 0.525000
0.000000 0.743750 0.525000
0.087500 0.743750 0.525000
0.175000 0.743750 0.525000
0.262500 0.743750 0.525000
0.350000 0.743750 0.525000
0.437500 0.743750 0.525000
0.525000 0.743750 0.525000
0.612500 0.743750 0.525000
1.000000 0.743750 0.525000
0.000000 0.850000 0.525000
0.087500 0.850000 0.525000
0.175000 0.850000 0.525000
0.262500 0.850000 0.525000
0.350000 0.850000 0.525000
0.437500 0.850000 0.525000
0.525000 0.850000 0.525000
0.612500 0.850000 0.525000
0.700000 0.850000 0.525000
0.000000 0.000000 0.700000
0.150000 0.000000 0.700000
0.300000 0.000000 0.700000
0.450000 0.000000 0.700000
0.600000 0.000000 0.700000
0.750000 0.000000 0.700000
0.900000 0.000000 0.700000
1.000000 0.000000 0.700000
1.000000 0.000000 0.700000
0.000000 0.106250 0.700000
0.087500 0.106250 0.700000
0.300000 0.106250 0.700000
0.450000 0.106250 0.700000
0.600000 0.106250 0.700000
0.750000 0.106250 0.700000
0.900000 0.106250 0.700000
1.000000 0.106250 0.700000
1.000000 0.106250 0.700000
0.000000 0.212500 0.700000
0.087500 0.212500 0.700000
0.175000 0.212500 0.700000
0.450000 0.212500 0.700000
0.600000 0.212500 0.700000
0.750000 0.212500 0.700000
0.900000 0.212500 0.700000
1.000000 0.212500 0.700000
1.000000 0.212500 0.700000
0.000000 0.318750 0.700000
0.087500 0.318750 0.700000
0.175000 0.318750 0.700000
0.262500 0.318750 0.700000
0.600000 0.318750 0.700000
0.750000 0.318750 0.700000
0.900000 0.318750 0.700000
1.000000 0.318750 0.700000
1.000000 0.318750 0.700000
0.000000 0.425000 0.700000
0.087500 0.425000 0.700000
0.175000 0.425000 0.700000
0.262500 0.425000 0.700000
0.350000 0.425000 0.700000
0.750000 0.425000 0.700000
0.900000 0.425000 0.700000
1.000000 0.425000 0.700000
1.000000 0.425000 0.700000
0.000000 0.531250 0.700000
0.087500 0.531250 0.700000
0.175000 0.531250 0.700000
0.262500 0.531250 0.700000
0.350000 0.531250 0.700000
0.437500 0.531250 0.700000
0.900000 0.531250 0.700000
1.000000 0.531250 0.700000
1.000000 0.531250 0.700000
0.000000 0.637500 0.700000
0.087500 0.637500 0.700000
0.175000 0.637500 0.700000
0.262500 0.637500 0.700000
0.350000 0.637500 0.700000
0.437500 0.637500 0.700000
0.525000 0.637500 0.700000
1.000000 0.637500 0.700000
1.000000 0.637500 0.700000
0.000000 0.743750 0.700000
0.087500 0.743750 0.700000
0.175000 0.743750 0.700000
0.262500 0.743750 0.700000
0.350000 0.743750 0.700000
0.437500 0.743750 0.700000
0.525000 0.743750 0.700000
0.612500 0.743750 0.700000
1.000000 0.743750 0.700000
0.000000 0.850000 0.700000
0.087500 0.850000 0.700000
0.175000 0.850000 0.700000
0.262500 0.850000 0.700000
0.350000 0.850000 0.700000
0.437500 0.850000 0.700000
0.525000 0.850000 0.700000
0.612500 0.850000 0.700000
0.700000 0.850000 0.700000
0.000000 0.000000 0.875000
0.150000 0.000000 0.875000
0.300000 0.000000 0.875000
0.450000 0.000000 0.875000
0.600000 0.000000 0.875000
0.750000 0.000000 0.875000
0.900000 0.000000 0.875000
1.000000 0.000000 0.875000
1.000000 0.000000 0.875000
0.000000 0.106250 0.875000
0.087500 0.106250 0.875000
0.300000 0.106250 0.875000
0.450000 0.106250 0.875000
0.600000 0.106250 0.875000
0.750000 0.106250 0.875000
0.900000 0.106250 0.875000
1.000000 0.106250 0.875000
1.000000 0.106250 0.875000
0.000000 0.212500 0.875000
0.087500 0.212500 0.875000
0.175000 0.212500 0.875000
0.450000 0.212500 0.875000
0.600000 0.212500 0.875000
0.750000 0.212500 0.875000
0.900000 0.212500 0.875000
1.000000 0.212500 0.875000
1.000000 0.212500 0.875000
0.000000 0.318750 0.875000
0.087500 0.318750 0.875000
0.175000 0.318750 0.875000
0.262500 0.318750 0.875000
0.600000 0.318750 0.875000
0.750000 0.318750 0.875000
0.900000 0.318750 0.875000
1.000000 0.318750 0.875000
1.000000 0.318750 0.875000
0.000000 0.425000 0.875000
0.087500 0.425000 0.875000
0.175000 0.425000 0.875000
0.262500 0.425000 0.875000
0.350000 0.425000 0.875000
0.750000 0.425000 0.875000
0.900000 0.425000 0.875000
1.000000 0.425000 0.875000
1.000000 0.425000 0.875000
0.000000 0.531250 0.875000
0.087500 0.531250 0.875000
0.175000 0.531250 0.875000
0.262500 0.531250 0.875000
0.350000 0.531250 0.875000
0.437500 0.531250 0.875000
0.900000 0.531250 0.875000
1.000000 0.531250 0.875000
1.000000 0.531250 0.875000
0.000000 0.637500 0.875000
0.087500 0.637500 0.875000
0.175000 0.637500 0.875000
0.262500 0.637500 0.875000
0.350000 0.637500 0.875000
0.437500 0.637500 0.875000
0.525000 0.637500 0.875000
1.000000 0.637500 0.875000
1.000000 0.637500 0.875000
0.000000 0.743750 0.875000
0.087500 0.743750 0.875000
0.175000 0.743750 0.875000
0.262500 0.743750 0.875000
0.350000 0.743750 0.875000
0.437500 0.743750 0.875000
0.525000 0.743750 0.875000
0.612500 0.743750 0.875000
1.000000 0.743750 0.875000
0.000000 0.850000 0.875000
0.087500 0.850000 0.875000
0.175000 0.850000 0.875000
0.262500 0.850000 0.875000
0.350000 0.850000 0.875000
0.437500 0.850000 0.875000
0.525000 0.850000 0.875000
0.612500 0.850000 0.875000
0.700000 0.850000 0.875000
0.000000 0.000000 1.000000
0.150000 0.000000 1.000000
0.300000 0.000000 1.000000
0.450000 0.000000 1.000000
0.600000 0.000000 1.000000
0.750000 0.000000 1.000000
0.900000 0.000000 1.000000
1.000000 0.000000 1.000000
1.000000 0.000000 1.000000
0.000000 0.106250 1.000000
0.087500 0.106250 1.000000
0.300000 0.106250 1.000000
0.450000 0.106250 1.000000
0.600000 0.106250 1.000000
0.750000 0.106250 1.000000
0.900000 0.106250 1.000000
1.000000 0.106250 1.000000
1.000000 0.106250 1.000000
0.000000 0.212500 1.000000
0.087500 0.212500 1.000000
0.175000 0.212500 1.000000
0.450000 0.212500 1.000000
0.600000 0.212500 1.000000
0.750000 0.212500 1.000000
0.900000 0.212500 1.000000
1.000000 0.212500 1.000000
1.000000 0.212500 1.000000
0.000000 0.318750 1.000000
0.087500 0.318750 1.000000
0.175000 0.318750 1.000000
0.262500 0.318750 1.000000
0.600000 0.318750 1.000000
0.750000 0.318750 1.000000
0.900000 0.318750 1.000000
1.000000 0.318750 1.000000
1.000000 0.318750 1.000000
0.000000 0.425000 1.000000
0.087500 0.425000 1.000000
0.175000 0.425000 1.000000
0.262500 0.425000 1.000000
0.350000 0.425000 1.000000
0.750000 0.425000 1.000000
0.900000 0.425000 1.000000
1.000000 0.425000 1.000000
1.000000 0.425000 1.000000
0.000000 0.531250 1.000000
0.087500 0.531250 1.000000
0.175000 0.531250 1.000000
0.262500 0.531250 1.000000
0.350000 0.531250 1.000000
0.437500 0.531250 1.000000
0.900000 0.531250 1.000000
1.000000 0.531250 1.000000
1.000000 0.531250 1.000000
0.000000 0.637500 1.000000
0.087500 0.637500 1.000000
0.175000 0.637500 1.000000
0.262500 0.637500 1.000000
0.350000 0.637500 1.000000
0.437500 0.637500 1.000000
0.525000 0.637500 1.000000
1.000000 0.637500 1.000000
1.000000 0.637500 1.000000
0.000000 0.743750 1.000000
0.087500 0.743750 1.000000
0.175000 0.743750 1.000000
0.262500 0.743750 1.000000
0.350000 0.743750 1.000000
0.437500 0.743750 1.000000
0.525000 0.743750 1.000000
0.612500 0.743750 1.000000
1.000000 0.743750 1.000000
0.000000 0.850000 1.000000
0.087500 0.850000 1.000000
0.175000 0.850000 1.000000
0.262500 0.850000 1.000000
0.350000 0.850000 1.000000
0.437500 0.850000 1.000000
0.525000 0.850000 1.000000
0.612500 0.850000 1.000000
0.700000 0.850000 1.000000
0.000000 0.000000 1.000000
0.150000 0.000000 1.000000
0.300000 0.000000 1.000000
0.450000 0.000000 1.000000
0.600000 0.000000 1.000000
0.750000 0.000000 1.000000
0.900000 0.000000 1.000000
1.000000 0.000000 1.000000
1.000000 0.000000 1.000000
0.000000 0.106250 1.000000
0.087500 0.106250 1.000000
0.300000 0.106250 1.000000
0.450000 0.106250 1.000000
0.600000 0.106250 1.000000
0.750000 0.106250 1.000000
0.900000 0.106250 1.000000
1.000000 0.106250 1.000000
1.000000 0.106250 1.000000
0.000000 0.212500 1.000000
0.087500 0.212500 1.000000
0.175000 0.212500 1.000000
0.450000 0.212500 1.000000
0.600000 0.212500 1.000000
0.750000 0.212500 1.000000
0.900000 0.212500 1.000000
1.000000 0.212500 1.000000
1.000000 0.212500 1.000000
0.000000 0.318750 1.000000
0.087500 0.318750 1.000000
0.175000 0.318750 1.000000
0.262500 0.318750 1.000000
0.600000 0.318750 1.000000
0.750000 0.318750 1.000000
0.900000 0.318750 1.000000
1.000000 0.318750 1.000000
1.000000 0.318750 1.000000
0.000000 0.425000 1.000000
0.087500 0.425000 1.000000
0.175000 0.425000 1.000000
0.262500 0.425000 1.000000
0.350000 0.425000 1.000000
0.750000 0.425000 1.000000
0.900000 0.425000 1.000000
1.000000 0.425000 1.000000
1.000000 0.425000 1.000000
0.000000 0.531250 1.000000
0.087500 0.531250 1.000000
0.175000 0.531250 1.000000
0.262500 0.531250 1.000000
0.350000 0.531250 1.000000
0.437500 0.531250 1.000000
0.900000 0.531250 1.000000
1.000000 0.531250 1.000000
1.000000 0.531250 1.000000
0.000000 0.637500 1.000000
0.087500 0.637500 1.000000
0.175000 0.637500 1.000000
0.262500 0.637500 1.000000
0.350000 0.637500 1.000000
0.437500 0.637500 1.000000
0.525000 0.637500 1.000000
1.000000 0.637500 1.000000
1.000000 0.637500 1.000000
0.000000 0.743750 1.000000
0.087500 0.743750 1.000000
0.175000 0.743750 1.000000
0.262500 0.743750 1.000000
0.350000 0.743750 1.000000
0.437500 0.743750 1.000000
0.525000 0.743750 1.000000
0.612500 0.743750 1.000000
1.000000 0.743750 1.000000
0.000000 0.850000 1.000000
0.087500 0.850000 1.000000
0.175000 0.850000 1.000000
0.262500 0.850000 1.000000
0.350000 0.850000 1.000000
0.437500 0.850000 1.000000
0.525000 0.850000 1.000000
0.612500 0.850000 1.000000
0.700000 0.850000 1.000000
0.000000 0.000000 1.000000
0.150000 0.000000 1.000000
0.300000 0.000000 1.000000
0.450000 0.000000 1.000000
0.600000 0.000000 1.000000
0.750000 0.000000 1.000000
0.900000 0.000000 1.000000
1.000000 0.000000 1.000000
1.000000 0.000000 1.000000
0.000000 0.106250 1.000000
0.087500 0.106250 1.000000
0.300000 0.106250 1.000000
0.450000 0.106250 1.000000
0.600000 0.106250 1.000000
0.750000 0.106250 1.000000
0.900000 0.106250 1.000000
1.000000 0.106250 1.000000
1.000000 0.106250 1.000000
0.000000 0.212500 1.000000
0.087500 0.212500 1.000000
0.175000 0.212500 1.000000
0.450000 0.212500 1.000000
0.600000 0.212500 1.000000
0.750000 0.212500 1.000000
0.900000 0.212500 1.000000
1.000000 0.212500 1.000000
1.000000 0.212500 1.000000
0.000000 0.318750 1.000000
0.087500 0.318750 1.000000
0.175000 0.318750 1.000000
0.262500 0.318750 1.000000
0.600000 0.318750 1.000000
0.750000 0.318750 1.000000
0.900000 0.318750 1.000000
1.000000 0.318750 1.000000
1.000000 0.318750 1.000000
0.000000 0.425000 1.000000
0.087500 0.425000 1.000000
0.175000 0.425000 1.000000
0.262500 0.425000 1.000000
0.350000 0.425000 1.000000
0.750000 0.425000 1.000000
0.900000 0.425000 1.000000
1.000000 0.425000 1.000000
1.000000 0.425000 1.000000
0.000000 0.531250 1.000000
0.087500 0.531250 1.000000
0.175000 0.531250 1.000000
0.262500 0.531250 1.000000
0.350000 0.531250 1.000000
0.437500 0.531250 1.000000
0.900000 0.531250 1.000000
1.000000 0.531250 1.000000
1.000000 0.531250 1.000000
0.000000 0.637500 1.000000
0.087500 0.637500 1.000000
0.175000 0.637500 1.000000
0.262500 0.637500 1.000000
0.350000 0.637500 1.000000
0.437500 0.637500 1.000000
0.525000 0.637500 1.000000
1.000000 0.637500 1.000000
1.000000 0.637500 1.000000
0.000000 0.743750 1.000000
0.087500 0.743750 1.000000
0.175000 0.743750 1.000000
0.262500 0.743750 1.000000
0.350000 0.743750 1.000000
0.437500 0.743750 1.000000
0.525000 0.743750 1.000000
0.612500 0.743750 1.000000
1.000000 0.743750 1.000000
0.000000 0.850000 1.000000
0.087500 0.850000 1.000000
0.175000 0.850000 1.000000
0.262500 0.850000 1.000000
0.350000 0.850000 1.000000
0.437500 0.850000 1.000000
0.525000 0.850000 1.000000
0.612500 0.850000 1.000000
0.700000 0.850000 1.000000
