04-EFFECTS-AND-FILTERS/3d-luts-cube-files/matrix_cyber_green.cube
# Generated by Video Auto-Editor Pipeline
TITLE "Matrix Cyber Green"
LUT_3D_SIZE 17
DOMAIN_MIN 0.0 0.0 0.0
DOMAIN_MAX 1.0 1.0 1.0
0.000000 0.040000 0.000000
0.012147 0.063359 0.013081
0.024294 0.086719 0.026162
0.036441 0.110078 0.039244
0.048587 0.133437 0.052325
0.060734 0.156797 0.065406
0.072881 0.180156 0.078488
0.085028 0.203516 0.091569
0.097175 0.226875 0.104650
0.109322 0.250234 0.117731
0.121469 0.273594 0.130812
0.133616 0.296953 0.143894
0.145763 0.320312 0.156975
0.157909 0.343672 0.170056
0.170056 0.367031 0.183137
0.182203 0.390391 0.196219
0.194350 0.413750 0.209300
0.023847 0.085859 0.025681
0.035994 0.109219 0.038762
0.048141 0.132578 0.051844
0.060288 0.155938 0.064925
0.072434 0.179297 0.078006
0.084581 0.202656 0.091087
0.096728 0.226016 0.104169
0.108875 0.249375 0.117250
0.121022 0.272734 0.130331
0.133169 0.296094 0.143412
0.145316 0.319453 0.156494
0.157462 0.342812 0.169575
0.169609 0.366172 0.182656
0.181756 0.389531 0.195738
0.193903 0.412891 0.208819
0.206050 0.436250 0.221900
0.218197 0.459609 0.234981
0.047694 0.131719 0.051362
0.059841 0.155078 0.064444
0.071987 0.178437 0.077525
0.084134 0.201797 0.090606
0.096281 0.225156 0.103688
0.108428 0.248516 0.116769
0.120575 0.271875 0.129850
0.132722 0.295234 0.142931
0.144869 0.318594 0.156012
0.157016 0.341953 0.169094
0.169162 0.365312 0.182175
0.181309 0.388672 0.195256
0.193456 0.412031 0.208338
0.205603 0.435391 0.221419
0.217750 0.458750 0.234500
0.229897 0.482109 0.247581
0.242044 0.505469 0.260663
0.071541 0.177578 0.077044
0.083688 0.200938 0.090125
0.095834 0.224297 0.103206
0.107981 0.247656 0.116287
0.120128 0.271016 0.129369
0.132275 0.294375 0.142450
0.144422 0.317734 0.155531
0.156569 0.341094 0.168612
0.168716 0.364453 0.181694
0.180863 0.387812 0.194775
0.193009 0.411172 0.207856
0.205156 0.434531 0.220937
0.217303 0.457891 0.234019
0.229450 0.481250 0.247100
0.241597 0.504609 0.260181
0.253744 0.527969 0.273262
0.265891 0.551328 0.286344
0.095388 0.223437 0.102725
0.107534 0.246797 0.115806
0.119681 0.270156 0.128887
0.131828 0.293516 0.141969
0.143975 0.316875 0.155050
0.156122 0.340234 0.168131
0.168269 0.363594 0.181212
0.180416 0.386953 0.194294
0.192563 0.410313 0.207375
0.204709 0.433672 0.220456
0.216856 0.457031 0.233537
0.229003 0.480391 0.246619
0.241150 0.503750 0.259700
0.253297 0.527109 0.272781
0.265444 0.550469 0.285862
0.277591 0.573828 0.298944
0.289737 0.597187 0.312025
0.119234 0.269297 0.128406
0.131381 0.292656 0.141487
0.143528 0.316016 0.154569
0.155675 0.339375 0.167650
0.167822 0.362734 0.180731
0.179969 0.386094 0.193812
0.192116 0.409453 0.206894
0.204262 0.432812 0.219975
0.216409 0.456172 0.233056
0.228556 0.479531 0.246137
0.240703 0.502891 0.259219
0.252850 0.526250 0.272300
0.264997 0.549609 0.285381
0.277144 0.572969 0.298462
0.289291 0.596328 0.311544
0.301437 0.619687 0.324625
0.313584 0.643047 0.337706
0.143081 0.315156 0.154087
0.155228 0.338516 0.167169
0.167375 0.361875 0.180250
0.179522 0.385234 0.193331
0.191669 0.408594 0.206412
0.203816 0.431953 0.219494
0.215963 0.455312 0.232575
0.228109 0.478672 0.245656
0.240256 0.502031 0.258737
0.252403 0.525391 0.271819
0.264550 0.548750 0.284900
0.276697 0.572109 0.297981
0.288844 0.595469 0.311062
0.300991 0.618828 0.324144
0.313138 0.642188 0.337225
0.325284 0.665547 0.350306
0.337431 0.688906 0.363387
0.166928 0.361016 0.179769
0.179075 0.384375 0.192850
0.191222 0.407734 0.205931
0.203369 0.431094 0.219012
0.215516 0.454453 0.232094
0.227663 0.477812 0.245175
0.239809 0.501172 0.258256
0.251956 0.524531 0.271337
0.264103 0.547891 0.284419
0.276250 0.571250 0.297500
0.288397 0.594609 0.310581
0.300544 0.617969 0.323662
0.312691 0.641328 0.336744
0.324838 0.664688 0.349825
0.336984 0.688047 0.362906
0.349131 0.711406 0.375987
0.361278 0.734766 0.389069
0.190775 0.406875 0.205450
0.202922 0.430234 0.218531
0.215069 0.453594 0.231612
0.227216 0.476953 0.244694
0.239362 0.500312 0.257775
0.251509 0.523672 0.270856
0.263656 0.547031 0.283938
0.275803 0.570391 0.297019
0.287950 0.593750 0.310100
0.300097 0.617109 0.323181
0.312244 0.640469 0.336262
0.324391 0.663828 0.349344
0.336537 0.687187 0.362425
0.348684 0.710547 0.375506
0.360831 0.733906 0.388587
0.372978 0.757266 0.401669
0.385125 0.780625 0.414750
0.214622 0.452734 0.231131
0.226769 0.476094 0.244212
0.238916 0.499453 0.257294
0.251063 0.522813 0.270375
0.263209 0.546172 0.283456
0.275356 0.569531 0.296537
0.287503 0.592891 0.309619
0.299650 0.616250 0.322700
0.311797 0.639609 0.335781
0.323944 0.662969 0.348862
0.336091 0.686328 0.361944
0.348237 0.709688 0.375025
0.360384 0.733047 0.388106
0.372531 0.756406 0.401187
0.384678 0.779766 0.414269
0.396825 0.803125 0.427350
0.408972 0.826484 0.440431
0.238469 0.498594 0.256812
0.250616 0.521953 0.269894
0.262762 0.545312 0.282975
0.274909 0.568672 0.296056
0.287056 0.592031 0.309137
0.299203 0.615391 0.322219
0.311350 0.638750 0.335300
0.323497 0.662109 0.348381
0.335644 0.685469 0.361462
0.347791 0.708828 0.374544
0.359937 0.732187 0.387625
0.372084 0.755547 0.400706
0.384231 0.778906 0.413787
0.396378 0.802266 0.426869
0.408525 0.825625 0.439950
0.420672 0.848984 0.453031
0.432819 0.872344 0.466112
0.262316 0.544453 0.282494
0.274462 0.567813 0.295575
0.286609 0.591172 0.308656
0.298756 0.614531 0.321738
0.310903 0.637891 0.334819
0.323050 0.661250 0.347900
0.335197 0.684609 0.360981
0.347344 0.707969 0.374063
0.359491 0.731328 0.387144
0.371638 0.754687 0.400225
0.383784 0.778047 0.413306
0.395931 0.801406 0.426387
0.408078 0.824766 0.439469
0.420225 0.848125 0.452550
0.432372 0.871484 0.465631
0.444519 0.894844 0.478712
0.456666 0.918203 0.491794
0.286162 0.590313 0.308175
0.298309 0.613672 0.321256
0.310456 0.637031 0.334337
0.322603 0.660391 0.347419
0.334750 0.683750 0.360500
0.346897 0.707109 0.373581
0.359044 0.730469 0.386662
0.371191 0.753828 0.399744
0.383337 0.777188 0.412825
0.395484 0.800547 0.425906
0.407631 0.823906 0.438987
0.419778 0.847266 0.452069
0.431925 0.870625 0.465150
0.444072 0.893984 0.478231
0.456219 0.917344 0.491312
0.468366 0.940703 0.504394
0.480513 0.964063 0.517475
0.310009 0.636172 0.333856
0.322156 0.659531 0.346937
0.334303 0.682891 0.360019
0.346450 0.706250 0.373100
0.358597 0.729609 0.386181
0.370744 0.752969 0.399262
0.382891 0.776328 0.412344
0.395038 0.799688 0.425425
0.407184 0.823047 0.438506
0.419331 0.846406 0.451587
0.431478 0.869766 0.464669
0.443625 0.893125 0.477750
0.455772 0.916484 0.490831
0.467919 0.939844 0.503912
0.480066 0.963203 0.516994
0.492212 0.986563 0.530075
0.504359 1.000000 0.543156
0.333856 0.682031 0.359537
0.346003 0.705391 0.372619
0.358150 0.728750 0.385700
0.370297 0.752109 0.398781
0.382444 0.775469 0.411862
0.394591 0.798828 0.424944
0.406738 0.822188 0.438025
0.418884 0.845547 0.451106
0.431031 0.868906 0.464187
0.443178 0.892266 0.477269
0.455325 0.915625 0.490350
0.467472 0.938984 0.503431
0.479619 0.962344 0.516513
0.491766 0.985703 0.529594
0.503912 1.000000 0.542675
0.516059 1.000000 0.555756
0.528206 1.000000 0.568837
0.357703 0.727891 0.385219
0.369850 0.751250 0.398300
0.381997 0.774609 0.411381
0.394144 0.797969 0.424462
0.406291 0.821328 0.437544
0.418437 0.844687 0.450625
0.430584 0.868047 0.463706
0.442731 0.891406 0.476787
0.454878 0.914766 0.489869
0.467025 0.938125 0.502950
0.479172 0.961484 0.516031
0.491319 0.984844 0.529112
0.503466 1.000000 0.542194
0.515613 1.000000 0.555275
0.527759 1.000000 0.568356
0.539906 1.000000 0.581437
0.552053 1.000000 0.594519
0.381550 0.773750 0.410900
0.393697 0.797109 0.423981
0.405844 0.820469 0.437062
0.417991 0.843828 0.450144
0.430138 0.867188 0.463225
0.442284 0.890547 0.476306
0.454431 0.913906 0.489387
0.466578 0.937266 0.502469
0.478725 0.960625 0.515550
0.490872 0.983984 0.528631
0.503019 1.000000 0.541712
0.515166 1.000000 0.554794
0.527313 1.000000 0.567875
0.539459 1.000000 0.580956
0.551606 1.000000 0.594037
0.563753 1.000000 0.607119
0.575900 1.000000 0.620200
0.004631 0.048906 0.004987
0.016778 0.072266 0.018069
0.028925 0.095625 0.031150
0.041072 0.118984 0.044231
0.053219 0.142344 0.057312
0.065366 0.165703 0.070394
0.077513 0.189063 0.083475
0.089659 0.212422 0.096556
0.101806 0.235781 0.109637
0.113953 0.259141 0.122719
0.126100 0.282500 0.135800
0.138247 0.305859 0.148881
0.150394 0.329219 0.161962
0.162541 0.352578 0.175044
0.174687 0.375937 0.188125
0.186834 0.399297 0.201206
0.198981 0.422656 0.214287
0.028478 0.094766 0.030669
0.040625 0.118125 0.043750
0.052772 0.141484 0.056831
0.064919 0.164844 0.069913
0.077066 0.188203 0.082994
0.089212 0.211562 0.096075
0.101359 0.234922 0.109156
0.113506 0.258281 0.122237
0.125653 0.281641 0.135319
0.137800 0.305000 0.148400
0.149947 0.328359 0.161481
0.162094 0.351719 0.174562
0.174241 0.375078 0.187644
0.186388 0.398438 0.200725
0.198534 0.421797 0.213806
0.210681 0.445156 0.226887
0.222828 0.468516 0.239969
0.052325 0.140625 0.056350
0.064472 0.163984 0.069431
0.076619 0.187344 0.082512
0.088766 0.210703 0.095594
0.100913 0.234063 0.108675
0.113059 0.257422 0.121756
0.125206 0.280781 0.134837
0.137353 0.304141 0.147919
0.149500 0.327500 0.161000
0.161647 0.350859 0.174081
0.173794 0.374219 0.187162
0.185941 0.397578 0.200244
0.198088 0.420938 0.213325
0.210234 0.444297 0.226406
0.222381 0.467656 0.239487
0.234528 0.491016 0.252569
0.246675 0.514375 0.265650
0.076172 0.186484 0.082031
0.088319 0.209844 0.095112
0.100466 0.233203 0.108194
0.112612 0.256562 0.121275
0.124759 0.279922 0.134356
0.136906 0.303281 0.147437
0.149053 0.326641 0.160519
0.161200 0.350000 0.173600
0.173347 0.373359 0.186681
0.185494 0.396719 0.199762
0.197641 0.420078 0.212844
0.209787 0.443437 0.225925
0.221934 0.466797 0.239006
0.234081 0.490156 0.252087
0.246228 0.513516 0.265169
0.258375 0.536875 0.278250
0.270522 0.560234 0.291331
0.100019 0.232344 0.107712
0.112166 0.255703 0.120794
0.124312 0.279062 0.133875
0.136459 0.302422 0.146956
0.148606 0.325781 0.160037
0.160753 0.349141 0.173119
0.172900 0.372500 0.186200
0.185047 0.395859 0.199281
0.197194 0.419219 0.212362
0.209341 0.442578 0.225444
0.221487 0.465937 0.238525
0.233634 0.489297 0.251606
0.245781 0.512656 0.264687
0.257928 0.536016 0.277769
0.270075 0.559375 0.290850
0.282222 0.582734 0.303931
0.294369 0.606094 0.317012
0.123866 0.278203 0.133394
0.136012 0.301562 0.146475
0.148159 0.324922 0.159556
0.160306 0.348281 0.172637
0.172453 0.371641 0.185719
0.184600 0.395000 0.198800
0.196747 0.418359 0.211881
0.208894 0.441719 0.224962
0.221041 0.465078 0.238044
0.233187 0.488437 0.251125
0.245334 0.511797 0.264206
0.257481 0.535156 0.277287
0.269628 0.558516 0.290369
0.281775 0.581875 0.303450
0.293922 0.605234 0.316531
0.306069 0.628594 0.329612
0.318216 0.651953 0.342694
0.147712 0.324062 0.159075
0.159859 0.347422 0.172156
0.172006 0.370781 0.185237
0.184153 0.394141 0.198319
0.196300 0.417500 0.211400
0.208447 0.440859 0.224481
0.220594 0.464219 0.237562
0.232741 0.487578 0.250644
0.244887 0.510937 0.263725
0.257034 0.534297 0.276806
0.269181 0.557656 0.289887
0.281328 0.581016 0.302969
0.293475 0.604375 0.316050
0.305622 0.627734 0.329131
0.317769 0.651094 0.342212
0.329916 0.674453 0.355294
0.342062 0.697813 0.368375
0.171559 0.369922 0.184756
0.183706 0.393281 0.197837
0.195853 0.416641 0.210919
0.208000 0.440000 0.224000
0.220147 0.463359 0.237081
0.232294 0.486719 0.250163
0.244441 0.510078 0.263244
0.256588 0.533438 0.276325
0.268734 0.556797 0.289406
0.280881 0.580156 0.302487
0.293028 0.603516 0.315569
0.305175 0.626875 0.328650
0.317322 0.650234 0.341731
0.329469 0.673594 0.354813
0.341616 0.696953 0.367894
0.353763 0.720313 0.380975
0.365909 0.743672 0.394056
0.195406 0.415781 0.210437
0.207553 0.439141 0.223519
0.219700 0.462500 0.236600
0.231847 0.485859 0.249681
0.243994 0.509219 0.262762
0.256141 0.532578 0.275844
0.268288 0.555938 0.288925
0.280434 0.579297 0.302006
0.292581 0.602656 0.315087
0.304728 0.626016 0.328169
0.316875 0.649375 0.341250
0.329022 0.672734 0.354331
0.341169 0.696094 0.367412
0.353316 0.719453 0.380494
0.365463 0.742813 0.393575
0.377609 0.766172 0.406656
0.389756 0.789531 0.419738
0.219253 0.461641 0.236119
0.231400 0.485000 0.249200
0.243547 0.508359 0.262281
0.255694 0.531719 0.275362
0.267841 0.555078 0.288444
0.279988 0.578437 0.301525
0.292134 0.601797 0.314606
0.304281 0.625156 0.327687
0.316428 0.648516 0.340769
0.328575 0.671875 0.353850
0.340722 0.695234 0.366931
0.352869 0.718594 0.380012
0.365016 0.741953 0.393094
0.377163 0.765313 0.406175
0.389309 0.788672 0.419256
0.401456 0.812031 0.432337
0.413603 0.835391 0.445419
0.243100 0.507500 0.261800
0.255247 0.530859 0.274881
0.267394 0.554219 0.287962
0.279541 0.577578 0.301044
0.291687 0.600937 0.314125
0.303834 0.624297 0.327206
0.315981 0.647656 0.340287
0.328128 0.671016 0.353369
0.340275 0.694375 0.366450
0.352422 0.717734 0.379531
0.364569 0.741094 0.392612
0.376716 0.764453 0.405694
0.388862 0.787813 0.418775
0.401009 0.811172 0.431856
0.413156 0.834531 0.444937
0.425303 0.857891 0.458019
0.437450 0.881250 0.471100
0.266947 0.553359 0.287481
0.279094 0.576719 0.300563
0.291241 0.600078 0.313644
0.303388 0.623438 0.326725
0.315534 0.646797 0.339806
0.327681 0.670156 0.352888
0.339828 0.693516 0.365969
0.351975 0.716875 0.379050
0.364122 0.740234 0.392131
0.376269 0.763594 0.405212
0.388416 0.786953 0.418294
0.400562 0.810312 0.431375
0.412709 0.833672 0.444456
0.424856 0.857031 0.457537
0.437003 0.880391 0.470619
0.449150 0.903750 0.483700
0.461297 0.927109 0.496781
0.290794 0.599219 0.313162
0.302941 0.622578 0.326244
0.315087 0.645937 0.339325
0.327234 0.669297 0.352406
0.339381 0.692656 0.365488
0.351528 0.716016 0.378569
0.363675 0.739375 0.391650
0.375822 0.762734 0.404731
0.387969 0.786094 0.417813
0.400116 0.809453 0.430894
0.412262 0.832812 0.443975
0.424409 0.856172 0.457056
0.436556 0.879531 0.470137
0.448703 0.902891 0.483219
0.460850 0.926250 0.496300
0.472997 0.949609 0.509381
0.485144 0.972969 0.522462
0.314641 0.645078 0.338844
0.326788 0.668438 0.351925
0.338934 0.691797 0.365006
0.351081 0.715156 0.378087
0.363228 0.738516 0.391169
0.375375 0.761875 0.404250
0.387522 0.785234 0.417331
0.399669 0.808594 0.430413
0.411816 0.831953 0.443494
0.423963 0.855313 0.456575
0.436109 0.878672 0.469656
0.448256 0.902031 0.482737
0.460403 0.925391 0.495819
0.472550 0.948750 0.508900
0.484697 0.972109 0.521981
0.496844 0.995469 0.535062
0.508991 1.000000 0.548144
0.338488 0.690938 0.364525
0.350634 0.714297 0.377606
0.362781 0.737656 0.390688
0.374928 0.761016 0.403769
0.387075 0.784375 0.416850
0.399222 0.807734 0.429931
0.411369 0.831094 0.443013
0.423516 0.854453 0.456094
0.435663 0.877813 0.469175
0.447809 0.901172 0.482256
0.459956 0.924531 0.495337
0.472103 0.947891 0.508419
0.484250 0.971250 0.521500
0.496397 0.994609 0.534581
0.508544 1.000000 0.547662
0.520691 1.000000 0.560744
0.532837 1.000000 0.573825
0.362334 0.736797 0.390206
0.374481 0.760156 0.403287
0.386628 0.783516 0.416369
0.398775 0.806875 0.429450
0.410922 0.830234 0.442531
0.423069 0.853594 0.455612
0.435216 0.876953 0.468694
0.447363 0.900313 0.481775
0.459509 0.923672 0.494856
0.471656 0.947031 0.507937
0.483803 0.970391 0.521019
0.495950 0.993750 0.534100
0.508097 1.000000 0.547181
0.520244 1.000000 0.560262
0.532391 1.000000 0.573344
0.544538 1.000000 0.586425
0.556684 1.000000 0.599506
0.386181 0.782656 0.415887
0.398328 0.806016 0.428969
0.410475 0.829375 0.442050
0.422622 0.852734 0.455131
0.434769 0.876094 0.468212
0.446916 0.899453 0.481294
0.459063 0.922813 0.494375
0.471209 0.946172 0.507456
0.483356 0.969531 0.520537
0.495503 0.992891 0.533619
0.507650 1.000000 0.546700
0.519797 1.000000 0.559781
0.531944 1.000000 0.572863
0.544091 1.000000 0.585944
0.556238 1.000000 0.599025
0.568384 1.000000 0.612106
0.580531 1.000000 0.625187
0.009262 0.057813 0.009975
0.021409 0.081172 0.023056
0.033556 0.104531 0.036137
0.045703 0.127891 0.049219
0.057850 0.151250 0.062300
0.069997 0.174609 0.075381
0.082144 0.197969 0.088462
0.094291 0.221328 0.101544
0.106438 0.244688 0.114625
0.118584 0.268047 0.127706
0.130731 0.291406 0.140787
0.142878 0.314766 0.153869
0.155025 0.338125 0.166950
0.167172 0.361484 0.180031
0.179319 0.384844 0.193112
0.191466 0.408203 0.206194
0.203613 0.431562 0.219275
0.033109 0.103672 0.035656
0.045256 0.127031 0.048737
0.057403 0.150391 0.061819
0.069550 0.173750 0.074900
0.081697 0.197109 0.087981
0.093844 0.220469 0.101062
0.105991 0.243828 0.114144
0.118138 0.267187 0.127225
0.130284 0.290547 0.140306
0.142431 0.313906 0.153387
0.154578 0.337266 0.166469
0.166725 0.360625 0.179550
0.178872 0.383984 0.192631
0.191019 0.407344 0.205712
0.203166 0.430703 0.218794
0.215312 0.454062 0.231875
0.227459 0.477422 0.244956
0.056956 0.149531 0.061337
0.069103 0.172891 0.074419
0.081250 0.196250 0.087500
0.093397 0.219609 0.100581
0.105544 0.242969 0.113662
0.117691 0.266328 0.126744
0.129838 0.289687 0.139825
0.141984 0.313047 0.152906
0.154131 0.336406 0.165987
0.166278 0.359766 0.179069
0.178425 0.383125 0.192150
0.190572 0.406484 0.205231
0.202719 0.429844 0.218312
0.214866 0.453203 0.231394
0.227012 0.476562 0.244475
0.239159 0.499922 0.257556
0.251306 0.523281 0.270637
0.080803 0.195391 0.087019
0.092950 0.218750 0.100100
0.105097 0.242109 0.113181
0.117244 0.265469 0.126262
0.129391 0.288828 0.139344
0.141538 0.312188 0.152425
0.153684 0.335547 0.165506
0.165831 0.358906 0.178587
0.177978 0.382266 0.191669
0.190125 0.405625 0.204750
0.202272 0.428984 0.217831
0.214419 0.452344 0.230912
0.226566 0.475703 0.243994
0.238712 0.499062 0.257075
0.250859 0.522422 0.270156
0.263006 0.545781 0.283237
0.275153 0.569141 0.296319
0.104650 0.241250 0.112700
0.116797 0.264609 0.125781
0.128944 0.287969 0.138862
0.141091 0.311328 0.151944
0.153237 0.334687 0.165025
0.165384 0.358047 0.178106
0.177531 0.381406 0.191187
0.189678 0.404766 0.204269
0.201825 0.428125 0.217350
0.213972 0.451484 0.230431
0.226119 0.474844 0.243512
0.238266 0.498203 0.256594
0.250412 0.521563 0.269675
0.262559 0.544922 0.282756
0.274706 0.568281 0.295837
0.286853 0.591641 0.308919
0.299000 0.615000 0.322000
0.128497 0.287109 0.138381
0.140644 0.310469 0.151462
0.152791 0.333828 0.164544
0.164937 0.357187 0.177625
0.177084 0.380547 0.190706
0.189231 0.403906 0.203787
0.201378 0.427266 0.216869
0.213525 0.450625 0.229950
0.225672 0.473984 0.243031
0.237819 0.497344 0.256112
0.249966 0.520703 0.269194
0.262112 0.544063 0.282275
0.274259 0.567422 0.295356
0.286406 0.590781 0.308437
0.298553 0.614141 0.321519
0.310700 0.637500 0.334600
0.322847 0.660859 0.347681
0.152344 0.332969 0.164062
0.164491 0.356328 0.177144
0.176638 0.379687 0.190225
0.188784 0.403047 0.203306
0.200931 0.426406 0.216387
0.213078 0.449766 0.229469
0.225225 0.473125 0.242550
0.237372 0.496484 0.255631
0.249519 0.519844 0.268712
0.261666 0.543203 0.281794
0.273812 0.566562 0.294875
0.285959 0.589922 0.307956
0.298106 0.613281 0.321037
0.310253 0.636641 0.334119
0.322400 0.660000 0.347200
0.334547 0.683359 0.360281
0.346694 0.706719 0.373362
0.176191 0.378828 0.189744
0.188338 0.402187 0.202825
0.200484 0.425547 0.215906
0.212631 0.448906 0.228987
0.224778 0.472266 0.242069
0.236925 0.495625 0.255150
0.249072 0.518984 0.268231
0.261219 0.542344 0.281312
0.273366 0.565703 0.294394
0.285513 0.589063 0.307475
0.297659 0.612422 0.320556
0.309806 0.635781 0.333637
0.321953 0.659141 0.346719
0.334100 0.682500 0.359800
0.346247 0.705859 0.372881
0.358394 0.729219 0.385962
0.370541 0.752578 0.399044
0.200037 0.424687 0.215425
0.212184 0.448047 0.228506
0.224331 0.471406 0.241587
0.236478 0.494766 0.254669
0.248625 0.518125 0.267750
0.260772 0.541484 0.280831
0.272919 0.564844 0.293912
0.285066 0.588203 0.306994
0.297212 0.611563 0.320075
0.309359 0.634922 0.333156
0.321506 0.658281 0.346237
0.333653 0.681641 0.359319
0.345800 0.705000 0.372400
0.357947 0.728359 0.385481
0.370094 0.751719 0.398562
0.382241 0.775078 0.411644
0.394388 0.798438 0.424725
0.223884 0.470547 0.241106
0.236031 0.493906 0.254187
0.248178 0.517266 0.267269
0.260325 0.540625 0.280350
0.272472 0.563984 0.293431
0.284619 0.587344 0.306512
0.296766 0.610703 0.319594
0.308912 0.634062 0.332675
0.321059 0.657422 0.345756
0.333206 0.680781 0.358837
0.345353 0.704141 0.371919
0.357500 0.727500 0.385000
0.369647 0.750859 0.398081
0.381794 0.774219 0.411162
0.393941 0.797578 0.424244
0.406087 0.820937 0.437325
0.418234 0.844297 0.450406
0.247731 0.516406 0.266787
0.259878 0.539766 0.279869
0.272025 0.563125 0.292950
0.284172 0.586484 0.306031
0.296319 0.609844 0.319112
0.308466 0.633203 0.332194
0.320612 0.656562 0.345275
0.332759 0.679922 0.358356
0.344906 0.703281 0.371437
0.357053 0.726641 0.384519
0.369200 0.750000 0.397600
0.381347 0.773359 0.410681
0.393494 0.796719 0.423762
0.405641 0.820078 0.436844
0.417787 0.843437 0.449925
0.429934 0.866797 0.463006
0.442081 0.890156 0.476087
0.271578 0.562266 0.292469
0.283725 0.585625 0.305550
0.295872 0.608984 0.318631
0.308019 0.632344 0.331712
0.320166 0.655703 0.344794
0.332313 0.679063 0.357875
0.344459 0.702422 0.370956
0.356606 0.725781 0.384037
0.368753 0.749141 0.397119
0.380900 0.772500 0.410200
0.393047 0.795859 0.423281
0.405194 0.819219 0.436362
0.417341 0.842578 0.449444
0.429487 0.865938 0.462525
0.441634 0.889297 0.475606
0.453781 0.912656 0.488687
0.465928 0.936016 0.501769
0.295425 0.608125 0.318150
0.307572 0.631484 0.331231
0.319719 0.654844 0.344312
0.331866 0.678203 0.357394
0.344012 0.701563 0.370475
0.356159 0.724922 0.383556
0.368306 0.748281 0.396637
0.380453 0.771641 0.409719
0.392600 0.795000 0.422800
0.404747 0.818359 0.435881
0.416894 0.841719 0.448962
0.429041 0.865078 0.462044
0.441188 0.888437 0.475125
0.453334 0.911797 0.488206
0.465481 0.935156 0.501287
0.477628 0.958516 0.514369
0.489775 0.981875 0.527450
0.319272 0.653984 0.343831
0.331419 0.677344 0.356912
0.343566 0.700703 0.369994
0.355712 0.724062 0.383075
0.367859 0.747422 0.396156
0.380006 0.770781 0.409237
0.392153 0.794141 0.422319
0.404300 0.817500 0.435400
0.416447 0.840859 0.448481
0.428594 0.864219 0.461562
0.440741 0.887578 0.474644
0.452887 0.910937 0.487725
0.465034 0.934297 0.500806
0.477181 0.957656 0.513887
0.489328 0.981016 0.526969
0.501475 1.000000 0.540050
0.513622 1.000000 0.553131
0.343119 0.699844 0.369512
0.355266 0.723203 0.382594
0.367413 0.746563 0.395675
0.379559 0.769922 0.408756
0.391706 0.793281 0.421837
0.403853 0.816641 0.434919
0.416000 0.840000 0.448000
0.428147 0.863359 0.461081
0.440294 0.886719 0.474162
0.452441 0.910078 0.487244
0.464587 0.933438 0.500325
0.476734 0.956797 0.513406
0.488881 0.980156 0.526487
0.501028 1.000000 0.539569
0.513175 1.000000 0.552650
0.525322 1.000000 0.565731
0.537469 1.000000 0.578812
0.366966 0.745703 0.395194
0.379112 0.769062 0.408275
0.391259 0.792422 0.421356
0.403406 0.815781 0.434437
0.415553 0.839141 0.447519
0.427700 0.862500 0.460600
0.439847 0.885859 0.473681
0.451994 0.909219 0.486762
0.464141 0.932578 0.499844
0.476287 0.955937 0.512925
0.488434 0.979297 0.526006
0.500581 1.000000 0.539087
0.512728 1.000000 0.552169
0.524875 1.000000 0.565250
0.537022 1.000000 0.578331
0.549169 1.000000 0.591412
0.561316 1.000000 0.604494
0.390813 0.791562 0.420875
0.402959 0.814922 0.433956
0.415106 0.838281 0.447037
0.427253 0.861641 0.460119
0.439400 0.885000 0.473200
0.451547 0.908359 0.486281
0.463694 0.931719 0.499362
0.475841 0.955078 0.512444
0.487987 0.978437 0.525525
0.500134 1.000000 0.538606
0.512281 1.000000 0.551687
0.524428 1.000000 0.564769
0.536575 1.000000 0.577850
0.548722 1.000000 0.590931
0.560869 1.000000 0.604012
0.573016 1.000000 0.617094
0.585162 1.000000 0.630175
0.013894 0.066719 0.014963
0.026041 0.090078 0.028044
0.038187 0.113437 0.041125
0.050334 0.136797 0.054206
0.062481 0.160156 0.067288
0.074628 0.183516 0.080369
0.086775 0.206875 0.093450
0.098922 0.230234 0.106531
0.111069 0.253594 0.119612
0.123216 0.276953 0.132694
0.135362 0.300312 0.145775
0.147509 0.323672 0.158856
0.159656 0.347031 0.171937
0.171803 0.370391 0.185019
0.183950 0.393750 0.198100
0.196097 0.417109 0.211181
0.208244 0.440469 0.224262
