04-EFFECTS-AND-FILTERS/3d-luts-cube-files/matrix_cyber_green.cube
# Generated by Video Auto-Editor Pipeline
TITLE "Matrix Cyber Green"
LUT_3D_SIZE 9
DOMAIN_MIN 0.0 0.0 0.0
DOMAIN_MAX 1.0 1.0 1.0
0.000000 0.040000 0.000000
0.024294 0.086719 0.026162
0.048587 0.133437 0.052325
0.072881 0.180156 0.078488
0.097175 0.226875 0.104650
0.121469 0.273594 0.130812
0.145763 0.320312 0.156975
0.170056 0.367031 0.183137
0.194350 0.413750 0.209300
0.047694 0.131719 0.051362
0.071987 0.178437 0.077525
0.096281 0.225156 0.103688
0.120575 0.271875 0.129850
0.144869 0.318594 0.156012
0.169162 0.365312 0.182175
0.193456 0.412031 0.208338
0.217750 0.458750 0.234500
0.242044 0.505469 0.260663
0.095388 0.223437 0.102725
0.119681 0.270156 0.128887
0.143975 0.316875 0.155050
0.168269 0.363594 0.181212
0.192563 0.410313 0.207375
0.216856 0.457031 0.233537
0.241150 0.503750 0.259700
0.265444 0.550469 0.285862
0.289737 0.597187 0.312025
0.143081 0.315156 0.154087
0.167375 0.361875 0.180250
0.191669 0.408594 0.206412
0.215963 0.455312 0.232575
0.240256 0.502031 0.258737
0.264550 0.548750 0.284900
0.288844 0.595469 0.311062
0.313138 0.642188 0.337225
0.337431 0.688906 0.363387
0.190775 0.406875 0.205450
0.215069 0.453594 0.231612
0.239362 0.500312 0.257775
0.263656 0.547031 0.283938
0.287950 0.593750 0.310100
0.312244 0.640469 0.336262
0.336537 0.687187 0.362425
0.360831 0.733906 0.388587
0.385125 0.780625 0.414750
0.238469 0.498594 0.256812
0.262762 0.545312 0.282975
0.287056 0.592031 0.309137
0.311350 0.638750 0.335300
0.335644 0.685469 0.361462
0.359937 0.732187 0.387625
0.384231 0.778906 0.413787
0.408525 0.825625 0.439950
0.432819 0.872344 0.466112
0.286162 0.590313 0.308175
0.310456 0.637031 0.334337
0.334750 0.683750 0.360500
0.359044 0.730469 0.386662
0.383337 0.777188 0.412825
0.407631 0.823906 0.438987
0.431925 0.870625 0.465150
0.456219 0.917344 0.491312
0.480513 0.964063 0.517475
0.333856 0.682031 0.359537
0.358150 0.728750 0.385700
0.382444 0.775469 0.411862
0.406738 0.822188 0.438025
0.431031 0.868906 0.464187
0.455325 0.915625 0.490350
0.479619 0.962344 0.516513
0.503912 1.000000 0.542675
0.528206 1.000000 0.568837
0.381550 0.773750 0.410900
0.405844 0.820469 0.437062
0.430138 0.867188 0.463225
0.454431 0.913906 0.489387
0.478725 0.960625 0.515550
0.503019 1.000000 0.541712
0.527313 1.000000 0.567875
0.551606 1.000000 0.594037
0.575900 1.000000 0.620200
0.009262 0.057813 0.009975
0.033556 0.104531 0.036137
0.057850 0.151250 0.062300
0.082144 0.197969 0.088462
0.106438 0.244688 0.114625
0.130731 0.291406 0.140787
0.155025 0.338125 0.166950
0.179319 0.384844 0.193112
0.203613 0.431562 0.219275
0.056956 0.149531 0.061337
0.081250 0.196250 0.087500
0.105544 0.242969 0.113662
0.129838 0.289687 0.139825
0.154131 0.336406 0.165987
0.178425 0.383125 0.192150
0.202719 0.429844 0.218312
0.227012 0.476562 0.244475
0.251306 0.523281 0.270637
0.104650 0.241250 0.112700
0.128944 0.287969 0.138862
0.153237 0.334687 0.165025
0.177531 0.381406 0.191187
0.201825 0.428125 0.217350
0.226119 0.474844 0.243512
0.250412 0.521563 0.269675
0.274706 0.568281 0.295837
0.299000 0.615000 0.322000
0.152344 0.332969 0.164062
0.176638 0.379687 0.190225
0.200931 0.426406 0.216387
0.225225 0.473125 0.242550
0.249519 0.519844 0.268712
0.273812 0.566562 0.294875
0.298106 0.613281 0.321037
0.322400 0.660000 0.347200
0.346694 0.706719 0.373362
0.200037 0.424687 0.215425
0.224331 0.471406 0.241587
0.248625 0.518125 0.267750
0.272919 0.564844 0.293912
0.297212 0.611563 0.320075
0.321506 0.658281 0.346237
0.345800 0.705000 0.372400
0.370094 0.751719 0.398562
0.394388 0.798438 0.424725
0.247731 0.516406 0.266787
0.272025 0.563125 0.292950
0.296319 0.609844 0.319112
0.320612 0.656562 0.345275
0.344906 0.703281 0.371437
0.369200 0.750000 0.397600
0.393494 0.796719 0.423762
0.417787 0.843437 0.449925
0.442081 0.890156 0.476087
0.295425 0.608125 0.318150
0.319719 0.654844 0.344312
0.344012 0.701563 0.370475
0.368306 0.748281 0.396637
0.392600 0.795000 0.422800
0.416894 0.841719 0.448962
0.441188 0.888437 0.475125
0.465481 0.935156 0.501287
0.489775 0.981875 0.527450
0.343119 0.699844 0.369512
0.367413 0.746563 0.395675
0.391706 0.793281 0.421837
0.416000 0.840000 0.448000
0.440294 0.886719 0.474162
0.464587 0.933438 0.500325
0.488881 0.980156 0.526487
0.513175 1.000000 0.552650
0.537469 1.000000 0.578812
0.390813 0.791562 0.420875
0.415106 0.838281 0.447037
0.439400 0.885000 0.473200
0.463694 0.931719 0.499362
0.487987 0.978437 0.525525
0.512281 1.000000 0.551687
0.536575 1.000000 0.577850
0.560869 1.000000 0.604012
0.585162 1.000000 0.630175
0.018525 0.075625 0.019950
0.042819 0.122344 0.046113
0.067113 0.169063 0.072275
0.091406 0.215781 0.098437
0.115700 0.262500 0.124600
0.139994 0.309219 0.150762
0.164288 0.355938 0.176925
0.188581 0.402656 0.203088
0.212875 0.449375 0.229250
0.066219 0.167344 0.071312
0.090512 0.214062 0.097475
0.114806 0.260781 0.123637
0.139100 0.307500 0.149800
0.163394 0.354219 0.175962
0.187688 0.400938 0.202125
0.211981 0.447656 0.228288
0.236275 0.494375 0.254450
0.260569 0.541094 0.280612
0.113912 0.259062 0.122675
0.138206 0.305781 0.148837
0.162500 0.352500 0.175000
0.186794 0.399219 0.201162
0.211088 0.445938 0.227325
0.235381 0.492656 0.253487
0.259675 0.539375 0.279650
0.283969 0.586094 0.305812
0.308262 0.632812 0.331975
0.161606 0.350781 0.174037
0.185900 0.397500 0.200200
0.210194 0.444219 0.226362
0.234488 0.490937 0.252525
0.258781 0.537656 0.278687
0.283075 0.584375 0.304850
0.307369 0.631094 0.331012
0.331663 0.677813 0.357175
0.355956 0.724531 0.383337
0.209300 0.442500 0.225400
0.233594 0.489219 0.251562
0.257887 0.535937 0.277725
0.282181 0.582656 0.303888
0.306475 0.629375 0.330050
0.330769 0.676094 0.356212
0.355062 0.722812 0.382375
0.379356 0.769531 0.408537
0.403650 0.816250 0.434700
0.256994 0.534219 0.276762
0.281287 0.580937 0.302925
0.305581 0.627656 0.329087
0.329875 0.674375 0.355250
0.354169 0.721094 0.381412
0.378462 0.767813 0.407575
0.402756 0.814531 0.433737
0.427050 0.861250 0.459900
0.451344 0.907969 0.486062
0.304688 0.625938 0.328125
0.328981 0.672656 0.354287
0.353275 0.719375 0.380450
0.377569 0.766094 0.406612
0.401863 0.812812 0.432775
0.426156 0.859531 0.458937
0.450450 0.906250 0.485100
0.474744 0.952969 0.511262
0.499037 0.999687 0.537425
0.352381 0.717656 0.379487
0.376675 0.764375 0.405650
0.400969 0.811094 0.431812
0.425262 0.857813 0.457975
0.449556 0.904531 0.484137
0.473850 0.951250 0.510300
0.498144 0.997969 0.536462
0.522437 1.000000 0.562625
0.546731 1.000000 0.588787
0.400075 0.809375 0.430850
0.424369 0.856094 0.457012
0.448662 0.902812 0.483175
0.472956 0.949531 0.509337
0.497250 0.996250 0.535500
0.521544 1.000000 0.561662
0.545837 1.000000 0.587825
0.570131 1.000000 0.613987
0.594425 1.000000 0.640150
0.027788 0.093438 0.029925
0.052081 0.140156 0.056087
0.076375 0.186875 0.082250
0.100669 0.233594 0.108413
0.124963 0.280313 0.134575
0.149256 0.327031 0.160737
0.173550 0.373750 0.186900
0.197844 0.420469 0.213062
0.222138 0.467187 0.239225
0.075481 0.185156 0.081287
0.099775 0.231875 0.107450
0.124069 0.278594 0.133612
0.148363 0.325313 0.159775
0.172656 0.372031 0.185937
0.196950 0.418750 0.212100
0.221244 0.465469 0.238263
0.245537 0.512188 0.264425
0.269831 0.558906 0.290587
0.123175 0.276875 0.132650
0.147469 0.323594 0.158812
0.171762 0.370312 0.184975
0.196056 0.417031 0.211137
0.220350 0.463750 0.237300
0.244644 0.510469 0.263462
0.268937 0.557188 0.289625
0.293231 0.603906 0.315787
0.317525 0.650625 0.341950
0.170869 0.368594 0.184012
0.195163 0.415313 0.210175
0.219456 0.462031 0.236337
0.243750 0.508750 0.262500
0.268044 0.555469 0.288662
0.292337 0.602187 0.314825
0.316631 0.648906 0.340987
0.340925 0.695625 0.367150
0.365219 0.742344 0.393312
0.218562 0.460312 0.235375
0.242856 0.507031 0.261537
0.267150 0.553750 0.287700
0.291444 0.600469 0.313862
0.315738 0.647188 0.340025
0.340031 0.693906 0.366187
0.364325 0.740625 0.392350
0.388619 0.787344 0.418512
0.412913 0.834063 0.444675
0.266256 0.552031 0.286737
0.290550 0.598750 0.312900
0.314844 0.645469 0.339062
0.339137 0.692187 0.365225
0.363431 0.738906 0.391387
0.387725 0.785625 0.417550
0.412019 0.832344 0.443712
0.436312 0.879062 0.469875
0.460606 0.925781 0.496037
0.313950 0.643750 0.338100
0.338244 0.690469 0.364262
0.362538 0.737187 0.390425
0.386831 0.783906 0.416587
0.411125 0.830625 0.442750
0.435419 0.877344 0.468912
0.459712 0.924063 0.495075
0.484006 0.970781 0.521237
0.508300 1.000000 0.547400
0.361644 0.735469 0.389462
0.385937 0.782188 0.415625
0.410231 0.828906 0.441787
0.434525 0.875625 0.467950
0.458819 0.922344 0.494112
0.483113 0.969062 0.520275
0.507406 1.000000 0.546438
0.531700 1.000000 0.572600
0.555994 1.000000 0.598762
0.409337 0.827187 0.440825
0.433631 0.873906 0.466987
0.457925 0.920625 0.493150
0.482219 0.967344 0.519312
0.506512 1.000000 0.545475
0.530806 1.000000 0.571637
0.555100 1.000000 0.597800
0.579394 1.000000 0.623962
0.603687 1.000000 0.650125
0.037050 0.111250 0.039900
0.061344 0.157969 0.066062
0.085638 0.204688 0.092225
0.109931 0.251406 0.118387
0.134225 0.298125 0.144550
0.158519 0.344844 0.170712
0.182813 0.391562 0.196875
0.207106 0.438281 0.223037
0.231400 0.485000 0.249200
0.084744 0.202969 0.091262
0.109037 0.249687 0.117425
0.133331 0.296406 0.143587
0.157625 0.343125 0.169750
0.181919 0.389844 0.195912
0.206212 0.436562 0.222075
0.230506 0.483281 0.248237
0.254800 0.530000 0.274400
0.279094 0.576719 0.300563
0.132437 0.294687 0.142625
0.156731 0.341406 0.168787
0.181025 0.388125 0.194950
0.205319 0.434844 0.221112
0.229613 0.481563 0.247275
0.253906 0.528281 0.273437
0.278200 0.575000 0.299600
0.302494 0.621719 0.325762
0.326788 0.668438 0.351925
0.180131 0.386406 0.193988
0.204425 0.433125 0.220150
0.228719 0.479844 0.246312
0.253012 0.526563 0.272475
0.277306 0.573281 0.298637
0.301600 0.620000 0.324800
0.325894 0.666719 0.350963
0.350188 0.713438 0.377125
0.374481 0.760156 0.403287
0.227825 0.478125 0.245350
0.252119 0.524844 0.271512
0.276413 0.571562 0.297675
0.300706 0.618281 0.323838
0.325000 0.665000 0.350000
0.349294 0.711719 0.376163
0.373588 0.758437 0.402325
0.397881 0.805156 0.428488
0.422175 0.851875 0.454650
0.275519 0.569844 0.296712
0.299812 0.616562 0.322875
0.324106 0.663281 0.349037
0.348400 0.710000 0.375200
0.372694 0.756719 0.401362
0.396988 0.803438 0.427525
0.421281 0.850156 0.453687
0.445575 0.896875 0.479850
0.469869 0.943594 0.506012
0.323213 0.661563 0.348075
0.347506 0.708281 0.374238
0.371800 0.755000 0.400400
0.396094 0.801719 0.426562
0.420388 0.848438 0.452725
0.444681 0.895156 0.478887
0.468975 0.941875 0.505050
0.493269 0.988594 0.531212
0.517563 1.000000 0.557375
0.370906 0.753281 0.399438
0.395200 0.800000 0.425600
0.419494 0.846719 0.451763
0.443788 0.893438 0.477925
0.468081 0.940156 0.504088
0.492375 0.986875 0.530250
0.516669 1.000000 0.556413
0.540963 1.000000 0.582575
0.565256 1.000000 0.608737
0.418600 0.845000 0.450800
0.442894 0.891719 0.476963
0.467188 0.938438 0.503125
0.491481 0.985156 0.529288
0.515775 1.000000 0.555450
0.540069 1.000000 0.581612
0.564363 1.000000 0.607775
0.588656 1.000000 0.633937
0.612950 1.000000 0.660100
0.046313 0.129063 0.049875
0.070606 0.175781 0.076037
0.094900 0.222500 0.102200
0.119194 0.269219 0.128362
0.143488 0.315937 0.154525
0.167781 0.362656 0.180687
0.192075 0.409375 0.206850
0.216369 0.456094 0.233013
0.240662 0.502812 0.259175
0.094006 0.220781 0.101237
0.118300 0.267500 0.127400
0.142594 0.314219 0.153562
0.166888 0.360938 0.179725
0.191181 0.407656 0.205887
0.215475 0.454375 0.232050
0.239769 0.501094 0.258213
0.264063 0.547813 0.284375
0.288356 0.594531 0.310538
0.141700 0.312500 0.152600
0.165994 0.359219 0.178762
0.190287 0.405937 0.204925
0.214581 0.452656 0.231087
0.238875 0.499375 0.257250
0.263169 0.546094 0.283412
0.287463 0.592813 0.309575
0.311756 0.639531 0.335737
0.336050 0.686250 0.361900
0.189394 0.404219 0.203962
0.213688 0.450937 0.230125
0.237981 0.497656 0.256288
0.262275 0.544375 0.282450
0.286569 0.591094 0.308613
0.310862 0.637813 0.334775
0.335156 0.684531 0.360937
0.359450 0.731250 0.387100
0.383744 0.777969 0.413262
0.237088 0.495937 0.255325
0.261381 0.542656 0.281487
0.285675 0.589375 0.307650
0.309969 0.636094 0.333813
0.334263 0.682813 0.359975
0.358556 0.729531 0.386138
0.382850 0.776250 0.412300
0.407144 0.822969 0.438462
0.431438 0.869688 0.464625
0.284781 0.587656 0.306687
0.309075 0.634375 0.332850
0.333369 0.681094 0.359012
0.357663 0.727813 0.385175
0.381956 0.774531 0.411337
0.406250 0.821250 0.437500
0.430544 0.867969 0.463662
0.454838 0.914687 0.489825
0.479131 0.961406 0.515988
0.332475 0.679375 0.358050
0.356769 0.726094 0.384212
0.381063 0.772813 0.410375
0.405356 0.819531 0.436537
0.429650 0.866250 0.462700
0.453944 0.912969 0.488862
0.478238 0.959688 0.515025
0.502531 1.000000 0.541188
0.526825 1.000000 0.567350
0.380169 0.771094 0.409413
0.404463 0.817813 0.435575
0.428756 0.864531 0.461737
0.453050 0.911250 0.487900
0.477344 0.957969 0.514062
0.501638 1.000000 0.540225
0.525931 1.000000 0.566388
0.550225 1.000000 0.592550
0.574519 1.000000 0.618712
0.427863 0.862812 0.460775
0.452156 0.909531 0.486938
0.476450 0.956250 0.513100
0.500744 1.000000 0.539262
0.525038 1.000000 0.565425
0.549331 1.000000 0.591587
0.573625 1.000000 0.617750
0.597919 1.000000 0.643912
0.622212 1.000000 0.670075
0.055575 0.146875 0.059850
0.079869 0.193594 0.086013
0.104163 0.240313 0.112175
0.128456 0.287031 0.138337
0.152750 0.333750 0.164500
0.177044 0.380469 0.190662
0.201338 0.427187 0.216825
0.225631 0.473906 0.242987
0.249925 0.520625 0.269150
0.103269 0.238594 0.111212
0.127562 0.285312 0.137375
0.151856 0.332031 0.163538
0.176150 0.378750 0.189700
0.200444 0.425469 0.215862
0.224738 0.472187 0.242025
0.249031 0.518906 0.268188
0.273325 0.565625 0.294350
0.297619 0.612344 0.320512
0.150962 0.330313 0.162575
0.175256 0.377031 0.188738
0.199550 0.423750 0.214900
0.223844 0.470469 0.241062
0.248138 0.517188 0.267225
0.272431 0.563906 0.293387
0.296725 0.610625 0.319550
0.321019 0.657344 0.345712
0.345313 0.704063 0.371875
0.198656 0.422031 0.213937
0.222950 0.468750 0.240100
0.247244 0.515469 0.266263
0.271538 0.562188 0.292425
0.295831 0.608906 0.318587
0.320125 0.655625 0.344750
0.344419 0.702344 0.370912
0.368713 0.749063 0.397075
0.393006 0.795781 0.423237
0.246350 0.513750 0.265300
0.270644 0.560469 0.291462
0.294938 0.607187 0.317625
0.319231 0.653906 0.343788
0.343525 0.700625 0.369950
0.367819 0.747344 0.396112
0.392112 0.794063 0.422275
0.416406 0.840781 0.448437
0.440700 0.887500 0.474600
0.294044 0.605469 0.316662
0.318337 0.652188 0.342825
0.342631 0.698906 0.368987
0.366925 0.745625 0.395150
0.391219 0.792344 0.421312
0.415513 0.839063 0.447475
0.439806 0.885781 0.473637
0.464100 0.932500 0.499800
0.488394 0.979219 0.525962
0.341737 0.697187 0.368025
0.366031 0.743906 0.394187
0.390325 0.790625 0.420350
0.414619 0.837344 0.446512
0.438913 0.884063 0.472675
0.463206 0.930781 0.498837
0.487500 0.977500 0.525000
0.511794 1.000000 0.551162
0.536088 1.000000 0.577325
0.389431 0.788906 0.419387
0.413725 0.835625 0.445550
0.438019 0.882344 0.471712
0.462313 0.929063 0.497875
0.486606 0.975781 0.524037
0.510900 1.000000 0.550200
0.535194 1.000000 0.576362
0.559488 1.000000 0.602525
0.583781 1.000000 0.628687
0.437125 0.880625 0.470750
0.461419 0.927344 0.496912
0.485712 0.974063 0.523075
0.510006 1.000000 0.549237
0.534300 1.000000 0.575400
0.558594 1.000000 0.601562
0.582888 1.000000 0.627725
0.607181 1.000000 0.653887
0.631475 1.000000 0.680050
0.064838 0.164688 0.069825
0.089131 0.211406 0.095987
0.113425 0.258125 0.122150
0.137719 0.304844 0.148312
0.162013 0.351562 0.174475
0.186306 0.398281 0.200637
0.210600 0.445000 0.226800
0.234894 0.491719 0.252962
0.259188 0.538438 0.279125
0.112531 0.256406 0.121187
0.136825 0.303125 0.147350
0.161119 0.349844 0.173512
0.185413 0.396562 0.199675
0.209706 0.443281 0.225837
0.234000 0.490000 0.252000
0.258294 0.536719 0.278162
0.282587 0.583438 0.304325
0.306881 0.630156 0.330487
0.160225 0.348125 0.172550
0.184519 0.394844 0.198712
0.208812 0.441562 0.224875
0.233106 0.488281 0.251037
0.257400 0.535000 0.277200
0.281694 0.581719 0.303362
0.305988 0.628437 0.329525
0.330281 0.675156 0.355687
0.354575 0.721875 0.381850
0.207919 0.439844 0.223912
0.232213 0.486563 0.250075
0.256506 0.533281 0.276237
0.280800 0.580000 0.302400
0.305094 0.626719 0.328562
0.329388 0.673438 0.354725
0.353681 0.720156 0.380887
0.377975 0.766875 0.407050
0.402269 0.813594 0.433212
0.255613 0.531563 0.275275
0.279906 0.578281 0.301437
0.304200 0.625000 0.327600
0.328494 0.671719 0.353762
0.352787 0.718437 0.379925
0.377081 0.765156 0.406087
0.401375 0.811875 0.432250
0.425669 0.858594 0.458412
0.449963 0.905313 0.484575
0.303306 0.623281 0.326637
0.327600 0.670000 0.352800
0.351894 0.716719 0.378962
0.376188 0.763437 0.405125
0.400481 0.810156 0.431287
0.424775 0.856875 0.457450
0.449069 0.903594 0.483612
0.473362 0.950313 0.509775
0.497656 0.997031 0.535937
0.351000 0.715000 0.378000
0.375294 0.761719 0.404162
0.399588 0.808438 0.430325
0.423881 0.855156 0.456487
0.448175 0.901875 0.482650
0.472469 0.948594 0.508812
0.496762 0.995313 0.534975
0.521056 1.000000 0.561137
0.545350 1.000000 0.587300
0.398694 0.806719 0.429362
0.422988 0.853438 0.455525
0.447281 0.900156 0.481687
0.471575 0.946875 0.507850
0.495869 0.993594 0.534012
0.520163 1.000000 0.560175
0.544456 1.000000 0.586337
0.568750 1.000000 0.612500
0.593044 1.000000 0.638662
0.446387 0.898438 0.480725
0.470681 0.945156 0.506887
0.494975 0.991875 0.533050
0.519269 1.000000 0.559213
0.543562 1.000000 0.585375
0.567856 1.000000 0.611537
0.592150 1.000000 0.637700
0.616444 1.000000 0.663862
0.640737 1.000000 0.690025
0.074100 0.182500 0.079800
0.098394 0.229219 0.105963
0.122688 0.275938 0.132125
0.146981 0.322656 0.158287
0.171275 0.369375 0.184450
0.195569 0.416094 0.210612
0.219863 0.462812 0.236775
0.244156 0.509531 0.262937
0.268450 0.556250 0.289100
0.121794 0.274219 0.131163
0.146088 0.320937 0.157325
0.170381 0.367656 0.183487
0.194675 0.414375 0.209650
0.218969 0.461094 0.235812
0.243262 0.507812 0.261975
0.267556 0.554531 0.288137
0.291850 0.601250 0.314300
0.316144 0.647969 0.340463
0.169487 0.365937 0.182525
0.193781 0.412656 0.208687
0.218075 0.459375 0.234850
0.242369 0.506094 0.261012
0.266663 0.552813 0.287175
0.290956 0.599531 0.313337
0.315250 0.646250 0.339500
0.339544 0.692969 0.365663
0.363837 0.739688 0.391825
0.217181 0.457656 0.233887
0.241475 0.504375 0.260050
0.265769 0.551094 0.286212
0.290063 0.597812 0.312375
0.314356 0.644531 0.338537
0.338650 0.691250 0.364700
0.362944 0.737969 0.390862
0.387238 0.784687 0.417025
0.411531 0.831406 0.443187
0.264875 0.549375 0.285250
0.289169 0.596094 0.311412
0.313462 0.642813 0.337575
0.337756 0.689531 0.363737
0.362050 0.736250 0.389900
0.386344 0.782969 0.416062
0.410637 0.829687 0.442225
0.434931 0.876406 0.468387
0.459225 0.923125 0.494550
0.312569 0.641094 0.336612
0.336863 0.687813 0.362775
0.361156 0.734531 0.388937
0.385450 0.781250 0.415100
0.409744 0.827969 0.441262
0.434037 0.874687 0.467425
0.458331 0.921406 0.493587
0.482625 0.968125 0.519750
0.506919 1.000000 0.545912
0.360263 0.732813 0.387975
0.384556 0.779531 0.414137
0.408850 0.826250 0.440300
0.433144 0.872969 0.466462
0.457437 0.919687 0.492625
0.481731 0.966406 0.518787
0.506025 1.000000 0.544950
0.530319 1.000000 0.571113
0.554612 1.000000 0.597275
0.407956 0.824531 0.439337
0.432250 0.871250 0.465500
0.456544 0.917969 0.491662
0.480838 0.964688 0.517825
0.505131 1.000000 0.543987
0.529425 1.000000 0.570150
0.553719 1.000000 0.596313
0.578013 1.000000 0.622475
0.602306 1.000000 0.648637
0.455650 0.916250 0.490700
0.479944 0.962969 0.516863
0.504238 1.000000 0.543025
0.528531 1.000000 0.569187
0.552825 1.000000 0.595350
0.577119 1.000000 0.621512
0.601413 1.000000 0.647675
0.625706 1.000000 0.673837
0.650000 1.000000 0.700000
