04-EFFECTS-AND-FILTERS/3d-luts-cube-files/matrix_cyber_green.cube
# Generated by Video Auto-Editor Pipeline
TITLE "Matrix Cyber Green"
LUT_3D_SIZE 5
DOMAIN_MIN 0.0 0.0 0.0
DOMAIN_MAX 1.0 1.0 1.0
0.000000 0.040000 0.000000
0.048587 0.133437 0.052325
0.097175 0.226875 0.104650
0.145763 0.320312 0.156975
0.194350 0.413750 0.209300
0.095388 0.223437 0.102725
0.143975 0.316875 0.155050
0.192563 0.410313 0.207375
0.241150 0.503750 0.259700
0.289737 0.597187 0.312025
0.190775 0.406875 0.205450
0.239362 0.500312 0.257775
0.287950 0.593750 0.310100
0.336537 0.687187 0.362425
0.385125 0.780625 0.414750
0.286162 0.590313 0.308175
0.334750 0.683750 0.360500
0.383337 0.777188 0.412825
0.431925 0.870625 0.465150
0.480513 0.964063 0.517475
0.381550 0.773750 0.410900
0.430138 0.867188 0.463225
0.478725 0.960625 0.515550
0.527313 1.000000 0.567875
0.575900 1.000000 0.620200
0.018525 0.075625 0.019950
0.067113 0.169063 0.072275
0.115700 0.262500 0.124600
0.164288 0.355938 0.176925
0.212875 0.449375 0.229250
0.113912 0.259062 0.122675
0.162500 0.352500 0.175000
0.211088 0.445938 0.227325
0.259675 0.539375 0.279650
0.308262 0.632812 0.331975
0.209300 0.442500 0.225400
0.257887 0.535937 0.277725
0.306475 0.629375 0.330050
0.355062 0.722812 0.382375
0.403650 0.816250 0.434700
0.304688 0.625938 0.328125
0.353275 0.719375 0.380450
0.401863 0.812812 0.432775
0.450450 0.906250 0.485100
0.499037 0.999687 0.537425
0.400075 0.809375 0.430850
0.448662 0.902812 0.483175
0.497250 0.996250 0.535500
0.545837 1.000000 0.587825
0.594425 1.000000 0.640150
0.037050 0.111250 0.039900
0.085638 0.204688 0.092225
0.134225 0.298125 0.144550
0.182813 0.391562 0.196875
0.231400 0.485000 0.249200
0.132437 0.294687 0.142625
0.181025 0.388125 0.194950
0.229613 0.481563 0.247275
0.278200 0.575000 0.299600
0.326788 0.668438 0.351925
0.227825 0.478125 0.245350
0.276413 0.571562 0.297675
0.325000 0.665000 0.350000
0.373588 0.758437 0.402325
0.422175 0.851875 0.454650
0.323213 0.661563 0.348075
0.371800 0.755000 0.400400
0.420388 0.848438 0.452725
0.468975 0.941875 0.505050
0.517563 1.000000 0.557375
0.418600 0.845000 0.450800
0.467188 0.938438 0.503125
0.515775 1.000000 0.555450
0.564363 1.000000 0.607775
0.612950 1.000000 0.660100
0.055575 0.146875 0.059850
0.104163 0.240313 0.112175
0.152750 0.333750 0.164500
0.201338 0.427187 0.216825
0.249925 0.520625 0.269150
0.150962 0.330313 0.162575
0.199550 0.423750 0.214900
0.248138 0.517188 0.267225
0.296725 0.610625 0.319550
0.345313 0.704063 0.371875
0.246350 0.513750 0.265300
0.294938 0.607187 0.317625
0.343525 0.700625 0.369950
0.392112 0.794063 0.422275
0.440700 0.887500 0.474600
0.341737 0.697187 0.368025
0.390325 0.790625 0.420350
0.438913 0.884063 0.472675
0.487500 0.977500 0.525000
0.536088 1.000000 0.577325
0.437125 0.880625 0.470750
0.485712 0.974063 0.523075
0.534300 1.000000 0.575400
0.582888 1.000000 0.627725
0.631475 1.000000 0.680050
0.074100 0.182500 0.079800
0.122688 0.275938 0.132125
0.171275 0.369375 0.184450
0.219863 0.462812 0.236775
0.268450 0.556250 0.289100
0.169487 0.365937 0.182525
0.218075 0.459375 0.234850
0.266663 0.552813 0.287175
0.315250 0.646250 0.339500
0.363837 0.739688 0.391825
0.264875 0.549375 0.285250
0.313462 0.642813 0.337575
0.362050 0.736250 0.389900
0.410637 0.829687 0.442225
0.459225 0.923125 0.494550
0.360263 0.732813 0.387975
0.408850 0.826250 0.440300
0.457437 0.919687 0.492625
0.506025 1.000000 0.544950
0.554612 1.000000 0.597275
0.455650 0.916250 0.490700
0.504238 1.000000 0.543025
0.552825 1.000000 0.595350
0.601413 1.000000 0.647675
0.650000 1.000000 0.700000
