04-EFFECTS-AND-FILTERS/3d-luts-cube-files/monochrome_red_spotlight.cube
# Generated by Video Auto-Editor Pipeline
TITLE "Monochrome Red Spotlight"
LUT_3D_SIZE 17
DOMAIN_MIN 0.0 0.0 0.0
DOMAIN_MAX 1.0 1.0 1.0
0.000000 0.000000 0.000000
0.018687 0.018687 0.018687
0.037375 0.037375 0.037375
0.056063 0.056063 0.056063
0.074750 0.074750 0.074750
0.093437 0.093437 0.093437
0.431250 0.000000 0.000000
0.503125 0.000000 0.000000
0.575000 0.000000 0.000000
0.646875 0.000000 0.000000
0.718750 0.000000 0.000000
0.790625 0.000000 0.000000
0.862500 0.000000 0.000000
0.934375 0.000000 0.000000
1.000000 0.000000 0.000000
1.000000 0.000000 0.000000
1.000000 0.000000 0.000000
0.036687 0.036687 0.036687
0.055375 0.055375 0.055375
0.074063 0.074063 0.074063
0.092750 0.092750 0.092750
0.111437 0.111437 0.111437
0.130125 0.130125 0.130125
0.431250 0.018750 0.000000
0.503125 0.018750 0.000000
0.575000 0.018750 0.000000
0.646875 0.018750 0.000000
0.718750 0.018750 0.000000
0.790625 0.018750 0.000000
0.862500 0.018750 0.000000
0.934375 0.018750 0.000000
1.000000 0.018750 0.000000
1.000000 0.018750 0.000000
1.000000 0.018750 0.000000
0.073375 0.073375 0.073375
0.092062 0.092062 0.092062
0.110750 0.110750 0.110750
0.129437 0.129437 0.129437
0.148125 0.148125 0.148125
0.166812 0.166812 0.166812
0.431250 0.037500 0.000000
0.503125 0.037500 0.000000
0.575000 0.037500 0.000000
0.646875 0.037500 0.000000
0.718750 0.037500 0.000000
0.790625 0.037500 0.000000
0.862500 0.037500 0.000000
0.934375 0.037500 0.000000
1.000000 0.037500 0.000000
1.000000 0.037500 0.000000
1.000000 0.037500 0.000000
0.110062 0.110062 0.110062
0.128750 0.128750 0.128750
0.147437 0.147437 0.147437
0.166125 0.166125 0.166125
0.184812 0.184812 0.184812
0.203500 0.203500 0.203500
0.431250 0.056250 0.000000
0.503125 0.056250 0.000000
0.575000 0.056250 0.000000
0.646875 0.056250 0.000000
0.718750 0.056250 0.000000
0.790625 0.056250 0.000000
0.862500 0.056250 0.000000
0.934375 0.056250 0.000000
1.000000 0.056250 0.000000
1.000000 0.056250 0.000000
1.000000 0.056250 0.000000
0.146750 0.146750 0.146750
0.165437 0.165437 0.165437
0.184125 0.184125 0.184125
0.202813 0.202813 0.202813
0.221500 0.221500 0.221500
0.240187 0.240187 0.240187
0.431250 0.075000 0.000000
0.503125 0.075000 0.000000
0.575000 0.075000 0.000000
0.646875 0.075000 0.000000
0.718750 0.075000 0.000000
0.790625 0.075000 0.000000
0.862500 0.075000 0.000000
0.934375 0.075000 0.000000
1.000000 0.075000 0.000000
1.000000 0.075000 0.000000
1.000000 0.075000 0.000000
0.183437 0.183437 0.183437
0.202125 0.202125 0.202125
0.220812 0.220812 0.220812
0.239500 0.239500 0.239500
0.258187 0.258187 0.258187
0.276875 0.276875 0.276875
0.295562 0.295562 0.295562
0.314250 0.314250 0.314250
0.575000 0.093750 0.000000
0.646875 0.093750 0.000000
0.718750 0.093750 0.000000
0.790625 0.093750 0.000000
0.862500 0.093750 0.000000
0.934375 0.093750 0.000000
1.000000 0.093750 0.000000
1.000000 0.093750 0.000000
1.000000 0.093750 0.000000
0.220125 0.220125 0.220125
0.238812 0.238812 0.238812
0.257500 0.257500 0.257500
0.276187 0.276187 0.276187
0.294875 0.294875 0.294875
0.313562 0.313562 0.313562
0.332250 0.332250 0.332250
0.350938 0.350938 0.350938
0.369625 0.369625 0.369625
0.646875 0.112500 0.000000
0.718750 0.112500 0.000000
0.790625 0.112500 0.000000
0.862500 0.112500 0.000000
0.934375 0.112500 0.000000
1.000000 0.112500 0.000000
1.000000 0.112500 0.000000
1.000000 0.112500 0.000000
0.256812 0.256812 0.256812
0.275500 0.275500 0.275500
0.294187 0.294187 0.294187
0.312875 0.312875 0.312875
0.331562 0.331562 0.331562
0.350250 0.350250 0.350250
0.368938 0.368938 0.368938
0.387625 0.387625 0.387625
0.406312 0.406312 0.406312
0.425000 0.425000 0.425000
0.718750 0.131250 0.000000
0.790625 0.131250 0.000000
0.862500 0.131250 0.000000
0.934375 0.131250 0.000000
1.000000 0.131250 0.000000
1.000000 0.131250 0.000000
1.000000 0.131250 0.000000
0.293500 0.293500 0.293500
0.312188 0.312188 0.312188
0.330875 0.330875 0.330875
0.349562 0.349562 0.349562
0.368250 0.368250 0.368250
0.386937 0.386937 0.386937
0.405625 0.405625 0.405625
0.424312 0.424312 0.424312
0.443000 0.443000 0.443000
0.461687 0.461687 0.461687
0.480375 0.480375 0.480375
0.499062 0.499062 0.499062
0.862500 0.150000 0.000000
0.934375 0.150000 0.000000
1.000000 0.150000 0.000000
1.000000 0.150000 0.000000
1.000000 0.150000 0.000000
0.330187 0.330187 0.330187
0.348875 0.348875 0.348875
0.367562 0.367562 0.367562
0.386250 0.386250 0.386250
0.404937 0.404937 0.404937
0.423625 0.423625 0.423625
0.442312 0.442312 0.442312
0.461000 0.461000 0.461000
0.479687 0.479687 0.479687
0.498375 0.498375 0.498375
0.517062 0.517062 0.517062
0.535750 0.535750 0.535750
0.554437 0.554437 0.554437
0.934375 0.168750 0.000000
1.000000 0.168750 0.000000
1.000000 0.168750 0.000000
1.000000 0.168750 0.000000
0.366875 0.366875 0.366875
0.385562 0.385562 0.385562
0.404250 0.404250 0.404250
0.422937 0.422937 0.422937
0.441625 0.441625 0.441625
0.460312 0.460312 0.460312
0.479000 0.479000 0.479000
0.497687 0.497687 0.497687
0.516375 0.516375 0.516375
0.535062 0.535062 0.535062
0.553750 0.553750 0.553750
0.572437 0.572437 0.572437
0.591125 0.591125 0.591125
0.609812 0.609812 0.609812
0.628500 0.628500 0.628500
1.000000 0.187500 0.000000
1.000000 0.187500 0.000000
0.403562 0.403562 0.403562
0.422250 0.422250 0.422250
0.440937 0.440937 0.440937
0.459625 0.459625 0.459625
0.478312 0.478312 0.478312
0.497000 0.497000 0.497000
0.515687 0.515687 0.515687
0.534375 0.534375 0.534375
0.553063 0.553063 0.553063
0.571750 0.571750 0.571750
0.590437 0.590437 0.590437
0.609125 0.609125 0.609125
0.627812 0.627812 0.627812
0.646500 0.646500 0.646500
0.665188 0.665188 0.665188
0.683875 0.683875 0.683875
1.000000 0.206250 0.000000
0.440250 0.440250 0.440250
0.458937 0.458937 0.458937
0.477625 0.477625 0.477625
0.496312 0.496312 0.496312
0.515000 0.515000 0.515000
0.533687 0.533687 0.533687
0.552375 0.552375 0.552375
0.571063 0.571063 0.571063
0.589750 0.589750 0.589750
0.608437 0.608437 0.608437
0.627125 0.627125 0.627125
0.645812 0.645812 0.645812
0.664500 0.664500 0.664500
0.683187 0.683187 0.683187
0.701875 0.701875 0.701875
0.720562 0.720562 0.720562
0.739250 0.739250 0.739250
0.476937 0.476937 0.476937
0.495625 0.495625 0.495625
0.514312 0.514312 0.514312
0.533000 0.533000 0.533000
0.551687 0.551687 0.551687
0.570375 0.570375 0.570375
0.589062 0.589062 0.589062
0.607750 0.607750 0.607750
0.626437 0.626437 0.626437
0.645125 0.645125 0.645125
0.663812 0.663812 0.663812
0.682500 0.682500 0.682500
0.701187 0.701187 0.701187
0.719875 0.719875 0.719875
0.738563 0.738563 0.738563
0.757250 0.757250 0.757250
0.775937 0.775937 0.775937
0.513625 0.513625 0.513625
0.532312 0.532312 0.532312
0.551000 0.551000 0.551000
0.569688 0.569688 0.569688
0.588375 0.588375 0.588375
0.607062 0.607062 0.607062
0.625750 0.625750 0.625750
0.644437 0.644437 0.644437
0.663125 0.663125 0.663125
0.681812 0.681812 0.681812
0.700500 0.700500 0.700500
0.719187 0.719187 0.719187
0.737875 0.737875 0.737875
0.756563 0.756563 0.756563
0.775250 0.775250 0.775250
0.793937 0.793937 0.793937
0.812625 0.812625 0.812625
0.550312 0.550312 0.550312
0.569000 0.569000 0.569000
0.587688 0.587688 0.587688
0.606375 0.606375 0.606375
0.625062 0.625062 0.625062
0.643750 0.643750 0.643750
0.662438 0.662438 0.662438
0.681125 0.681125 0.681125
0.699812 0.699812 0.699812
0.718500 0.718500 0.718500
0.737187 0.737187 0.737187
0.755875 0.755875 0.755875
0.774563 0.774563 0.774563
0.793250 0.793250 0.793250
0.811937 0.811937 0.811937
0.830625 0.830625 0.830625
0.849312 0.849312 0.849312
0.587000 0.587000 0.587000
0.605687 0.605687 0.605687
0.624375 0.624375 0.624375
0.643062 0.643062 0.643062
0.661750 0.661750 0.661750
0.680437 0.680437 0.680437
0.699125 0.699125 0.699125
0.717812 0.717812 0.717812
0.736500 0.736500 0.736500
0.755187 0.755187 0.755187
0.773875 0.773875 0.773875
0.792562 0.792562 0.792562
0.811250 0.811250 0.811250
0.829937 0.829937 0.829937
0.848625 0.848625 0.848625
0.867312 0.867312 0.867312
0.886000 0.886000 0.886000
0.007125 0.007125 0.007125
0.025812 0.025812 0.025812
0.044500 0.044500 0.044500
0.063188 0.063188 0.063188
0.081875 0.081875 0.081875
0.100562 0.100562 0.100562
0.431250 0.000000 0.018750
0.503125 0.000000 0.018750
0.575000 0.000000 0.018750
0.646875 0.000000 0.018750
0.718750 0.000000 0.018750
0.790625 0.000000 0.018750
0.862500 0.000000 0.018750
0.934375 0.000000 0.018750
1.000000 0.000000 0.018750
1.000000 0.000000 0.018750
1.000000 0.000000 0.018750
0.043812 0.043812 0.043812
0.062500 0.062500 0.062500
0.081188 0.081188 0.081188
0.099875 0.099875 0.099875
0.118563 0.118563 0.118563
0.137250 0.137250 0.137250
0.431250 0.018750 0.018750
0.503125 0.018750 0.018750
0.575000 0.018750 0.018750
0.646875 0.018750 0.018750
0.718750 0.018750 0.018750
0.790625 0.018750 0.018750
0.862500 0.018750 0.018750
0.934375 0.018750 0.018750
1.000000 0.018750 0.018750
1.000000 0.018750 0.018750
1.000000 0.018750 0.018750
0.080500 0.080500 0.080500
0.099187 0.099187 0.099187
0.117875 0.117875 0.117875
0.136562 0.136562 0.136562
0.155250 0.155250 0.155250
0.173937 0.173937 0.173937
0.431250 0.037500 0.018750
0.503125 0.037500 0.018750
0.575000 0.037500 0.018750
0.646875 0.037500 0.018750
0.718750 0.037500 0.018750
0.790625 0.037500 0.018750
0.862500 0.037500 0.018750
0.934375 0.037500 0.018750
1.000000 0.037500 0.018750
1.000000 0.037500 0.018750
1.000000 0.037500 0.018750
0.117188 0.117188 0.117188
0.135875 0.135875 0.135875
0.154562 0.154562 0.154562
0.173250 0.173250 0.173250
0.191937 0.191937 0.191937
0.210625 0.210625 0.210625
0.431250 0.056250 0.018750
0.503125 0.056250 0.018750
0.575000 0.056250 0.018750
0.646875 0.056250 0.018750
0.718750 0.056250 0.018750
0.790625 0.056250 0.018750
0.862500 0.056250 0.018750
0.934375 0.056250 0.018750
1.000000 0.056250 0.018750
1.000000 0.056250 0.018750
1.000000 0.056250 0.018750
0.153875 0.153875 0.153875
0.172562 0.172562 0.172562
0.191250 0.191250 0.191250
0.209937 0.209937 0.209937
0.228625 0.228625 0.228625
0.247312 0.247312 0.247312
0.431250 0.075000 0.018750
0.503125 0.075000 0.018750
0.575000 0.075000 0.018750
0.646875 0.075000 0.018750
0.718750 0.075000 0.018750
0.790625 0.075000 0.018750
0.862500 0.075000 0.018750
0.934375 0.075000 0.018750
1.000000 0.075000 0.018750
1.000000 0.075000 0.018750
1.000000 0.075000 0.018750
0.190562 0.190562 0.190562
0.209250 0.209250 0.209250
0.227937 0.227937 0.227937
0.246625 0.246625 0.246625
0.265312 0.265312 0.265312
0.284000 0.284000 0.284000
0.302687 0.302687 0.302687
0.321375 0.321375 0.321375
0.575000 0.093750 0.018750
0.646875 0.093750 0.018750
0.718750 0.093750 0.018750
0.790625 0.093750 0.018750
0.862500 0.093750 0.018750
0.934375 0.093750 0.018750
1.000000 0.093750 0.018750
1.000000 0.093750 0.018750
1.000000 0.093750 0.018750
0.227250 0.227250 0.227250
0.245937 0.245937 0.245937
0.264625 0.264625 0.264625
0.283312 0.283312 0.283312
0.302000 0.302000 0.302000
0.320687 0.320687 0.320687
0.339375 0.339375 0.339375
0.358063 0.358063 0.358063
0.376750 0.376750 0.376750
0.646875 0.112500 0.018750
0.718750 0.112500 0.018750
0.790625 0.112500 0.018750
0.862500 0.112500 0.018750
0.934375 0.112500 0.018750
1.000000 0.112500 0.018750
1.000000 0.112500 0.018750
1.000000 0.112500 0.018750
0.263937 0.263937 0.263937
0.282625 0.282625 0.282625
0.301312 0.301312 0.301312
0.320000 0.320000 0.320000
0.338687 0.338687 0.338687
0.357375 0.357375 0.357375
0.376063 0.376063 0.376063
0.394750 0.394750 0.394750
0.413437 0.413437 0.413437
0.432125 0.432125 0.432125
0.718750 0.131250 0.018750
0.790625 0.131250 0.018750
0.862500 0.131250 0.018750
0.934375 0.131250 0.018750
1.000000 0.131250 0.018750
1.000000 0.131250 0.018750
1.000000 0.131250 0.018750
0.300625 0.300625 0.300625
0.319312 0.319312 0.319312
0.338000 0.338000 0.338000
0.356687 0.356687 0.356687
0.375375 0.375375 0.375375
0.394062 0.394062 0.394062
0.412750 0.412750 0.412750
0.431437 0.431437 0.431437
0.450125 0.450125 0.450125
0.468812 0.468812 0.468812
0.487500 0.487500 0.487500
0.506188 0.506188 0.506188
0.862500 0.150000 0.018750
0.934375 0.150000 0.018750
1.000000 0.150000 0.018750
1.000000 0.150000 0.018750
1.000000 0.150000 0.018750
0.337312 0.337312 0.337312
0.356000 0.356000 0.356000
0.374687 0.374687 0.374687
0.393375 0.393375 0.393375
0.412062 0.412062 0.412062
0.430750 0.430750 0.430750
0.449437 0.449437 0.449437
0.468125 0.468125 0.468125
0.486812 0.486812 0.486812
0.505500 0.505500 0.505500
0.524188 0.524188 0.524188
0.542875 0.542875 0.542875
0.561562 0.561562 0.561562
0.934375 0.168750 0.018750
1.000000 0.168750 0.018750
1.000000 0.168750 0.018750
1.000000 0.168750 0.018750
0.374000 0.374000 0.374000
0.392687 0.392687 0.392687
0.411375 0.411375 0.411375
0.430062 0.430062 0.430062
0.448750 0.448750 0.448750
0.467437 0.467437 0.467437
0.486125 0.486125 0.486125
0.504812 0.504812 0.504812
0.523500 0.523500 0.523500
0.542188 0.542188 0.542188
0.560875 0.560875 0.560875
0.579562 0.579562 0.579562
0.598250 0.598250 0.598250
0.616938 0.616938 0.616938
0.635625 0.635625 0.635625
1.000000 0.187500 0.018750
1.000000 0.187500 0.018750
0.410687 0.410687 0.410687
0.429375 0.429375 0.429375
0.448062 0.448062 0.448062
0.466750 0.466750 0.466750
0.485437 0.485437 0.485437
0.504125 0.504125 0.504125
0.522813 0.522813 0.522813
0.541500 0.541500 0.541500
0.560188 0.560188 0.560188
0.578875 0.578875 0.578875
0.597562 0.597562 0.597562
0.616250 0.616250 0.616250
0.634938 0.634938 0.634938
0.653625 0.653625 0.653625
0.672313 0.672313 0.672313
0.691000 0.691000 0.691000
1.000000 0.206250 0.018750
0.447375 0.447375 0.447375
0.466062 0.466062 0.466062
0.484750 0.484750 0.484750
0.503437 0.503437 0.503437
0.522125 0.522125 0.522125
0.540813 0.540813 0.540813
0.559500 0.559500 0.559500
0.578188 0.578188 0.578188
0.596875 0.596875 0.596875
0.615563 0.615563 0.615563
0.634250 0.634250 0.634250
0.652937 0.652937 0.652937
0.671625 0.671625 0.671625
0.690312 0.690312 0.690312
0.709000 0.709000 0.709000
0.727688 0.727688 0.727688
0.746375 0.746375 0.746375
0.484062 0.484062 0.484062
0.502750 0.502750 0.502750
0.521437 0.521437 0.521437
0.540125 0.540125 0.540125
0.558813 0.558813 0.558813
0.577500 0.577500 0.577500
0.596187 0.596187 0.596187
0.614875 0.614875 0.614875
0.633563 0.633563 0.633563
0.652250 0.652250 0.652250
0.670937 0.670937 0.670937
0.689625 0.689625 0.689625
0.708313 0.708313 0.708313
0.727000 0.727000 0.727000
0.745688 0.745688 0.745688
0.764375 0.764375 0.764375
0.783062 0.783062 0.783062
0.520750 0.520750 0.520750
0.539438 0.539438 0.539438
0.558125 0.558125 0.558125
0.576813 0.576813 0.576813
0.595500 0.595500 0.595500
0.614187 0.614187 0.614187
0.632875 0.632875 0.632875
0.651563 0.651563 0.651563
0.670250 0.670250 0.670250
0.688937 0.688937 0.688937
0.707625 0.707625 0.707625
0.726313 0.726313 0.726313
0.745000 0.745000 0.745000
0.763688 0.763688 0.763688
0.782375 0.782375 0.782375
0.801063 0.801063 0.801063
0.819750 0.819750 0.819750
0.557438 0.557438 0.557438
0.576125 0.576125 0.576125
0.594813 0.594813 0.594813
0.613500 0.613500 0.613500
0.632188 0.632188 0.632188
0.650875 0.650875 0.650875
0.669563 0.669563 0.669563
0.688250 0.688250 0.688250
0.706937 0.706937 0.706937
0.725625 0.725625 0.725625
0.744313 0.744313 0.744313
0.763000 0.763000 0.763000
0.781688 0.781688 0.781688
0.800375 0.800375 0.800375
0.819063 0.819063 0.819063
0.837750 0.837750 0.837750
0.856437 0.856437 0.856437
0.594125 0.594125 0.594125
0.612812 0.612812 0.612812
0.631500 0.631500 0.631500
0.650188 0.650188 0.650188
0.668875 0.668875 0.668875
0.687562 0.687562 0.687562
0.706250 0.706250 0.706250
0.724938 0.724938 0.724938
0.743625 0.743625 0.743625
0.762312 0.762312 0.762312
0.781000 0.781000 0.781000
0.799687 0.799687 0.799687
0.818375 0.818375 0.818375
0.837063 0.837063 0.837063
0.855750 0.855750 0.855750
0.874437 0.874437 0.874437
0.893125 0.893125 0.893125
0.014250 0.014250 0.014250
0.032938 0.032938 0.032938
0.051625 0.051625 0.051625
0.070312 0.070312 0.070312
0.089000 0.089000 0.089000
0.107687 0.107687 0.107687
0.431250 0.000000 0.037500
0.503125 0.000000 0.037500
0.575000 0.000000 0.037500
0.646875 0.000000 0.037500
0.718750 0.000000 0.037500
0.790625 0.000000 0.037500
0.862500 0.000000 0.037500
0.934375 0.000000 0.037500
1.000000 0.000000 0.037500
1.000000 0.000000 0.037500
1.000000 0.000000 0.037500
0.050937 0.050937 0.050937
0.069625 0.069625 0.069625
0.088313 0.088313 0.088313
0.107000 0.107000 0.107000
0.125688 0.125688 0.125688
0.144375 0.144375 0.144375
0.431250 0.018750 0.037500
0.503125 0.018750 0.037500
0.575000 0.018750 0.037500
0.646875 0.018750 0.037500
0.718750 0.018750 0.037500
0.790625 0.018750 0.037500
0.862500 0.018750 0.037500
0.934375 0.018750 0.037500
1.000000 0.018750 0.037500
1.000000 0.018750 0.037500
1.000000 0.018750 0.037500
0.087625 0.087625 0.087625
0.106312 0.106312 0.106312
0.125000 0.125000 0.125000
0.143687 0.143687 0.143687
0.162375 0.162375 0.162375
0.181062 0.181062 0.181062
0.431250 0.037500 0.037500
0.503125 0.037500 0.037500
0.575000 0.037500 0.037500
0.646875 0.037500 0.037500
0.718750 0.037500 0.037500
0.790625 0.037500 0.037500
0.862500 0.037500 0.037500
0.934375 0.037500 0.037500
1.000000 0.037500 0.037500
1.000000 0.037500 0.037500
1.000000 0.037500 0.037500
0.124312 0.124312 0.124312
0.143000 0.143000 0.143000
0.161688 0.161688 0.161688
0.180375 0.180375 0.180375
0.199063 0.199063 0.199063
0.217750 0.217750 0.217750
0.431250 0.056250 0.037500
0.503125 0.056250 0.037500
0.575000 0.056250 0.037500
0.646875 0.056250 0.037500
0.718750 0.056250 0.037500
0.790625 0.056250 0.037500
0.862500 0.056250 0.037500
0.934375 0.056250 0.037500
1.000000 0.056250 0.037500
1.000000 0.056250 0.037500
1.000000 0.056250 0.037500
0.161000 0.161000 0.161000
0.179688 0.179688 0.179688
0.198375 0.198375 0.198375
0.217063 0.217063 0.217063
0.235750 0.235750 0.235750
0.254437 0.254437 0.254437
0.431250 0.075000 0.037500
0.503125 0.075000 0.037500
0.575000 0.075000 0.037500
0.646875 0.075000 0.037500
0.718750 0.075000 0.037500
0.790625 0.075000 0.037500
0.862500 0.075000 0.037500
0.934375 0.075000 0.037500
1.000000 0.075000 0.037500
1.000000 0.075000 0.037500
1.000000 0.075000 0.037500
0.197687 0.197687 0.197687
0.216375 0.216375 0.216375
0.235062 0.235062 0.235062
0.253750 0.253750 0.253750
0.272437 0.272437 0.272437
0.291125 0.291125 0.291125
0.309812 0.309812 0.309812
0.328500 0.328500 0.328500
0.575000 0.093750 0.037500
0.646875 0.093750 0.037500
0.718750 0.093750 0.037500
0.790625 0.093750 0.037500
0.862500 0.093750 0.037500
0.934375 0.093750 0.037500
1.000000 0.093750 0.037500
1.000000 0.093750 0.037500
1.000000 0.093750 0.037500
0.234375 0.234375 0.234375
0.253062 0.253062 0.253062
0.271750 0.271750 0.271750
0.290437 0.290437 0.290437
0.309125 0.309125 0.309125
0.327812 0.327812 0.327812
0.346500 0.346500 0.346500
0.365187 0.365187 0.365187
0.383875 0.383875 0.383875
0.646875 0.112500 0.037500
0.718750 0.112500 0.037500
0.790625 0.112500 0.037500
0.862500 0.112500 0.037500
0.934375 0.112500 0.037500
1.000000 0.112500 0.037500
1.000000 0.112500 0.037500
1.000000 0.112500 0.037500
0.271062 0.271062 0.271062
0.289750 0.289750 0.289750
0.308437 0.308437 0.308437
0.327125 0.327125 0.327125
0.345812 0.345812 0.345812
0.364500 0.364500 0.364500
0.383188 0.383188 0.383188
0.401875 0.401875 0.401875
0.420562 0.420562 0.420562
0.439250 0.439250 0.439250
0.718750 0.131250 0.037500
0.790625 0.131250 0.037500
0.862500 0.131250 0.037500
0.934375 0.131250 0.037500
1.000000 0.131250 0.037500
1.000000 0.131250 0.037500
1.000000 0.131250 0.037500
0.307750 0.307750 0.307750
0.326437 0.326437 0.326437
0.345125 0.345125 0.345125
0.363812 0.363812 0.363812
0.382500 0.382500 0.382500
0.401187 0.401187 0.401187
0.419875 0.419875 0.419875
0.438562 0.438562 0.438562
0.457250 0.457250 0.457250
0.475937 0.475937 0.475937
0.494625 0.494625 0.494625
0.513312 0.513312 0.513312
0.862500 0.150000 0.037500
0.934375 0.150000 0.037500
1.000000 0.150000 0.037500
1.000000 0.150000 0.037500
1.000000 0.150000 0.037500
0.344437 0.344437 0.344437
0.363125 0.363125 0.363125
0.381812 0.381812 0.381812
0.400500 0.400500 0.400500
0.419187 0.419187 0.419187
0.437875 0.437875 0.437875
0.456562 0.456562 0.456562
0.475250 0.475250 0.475250
0.493937 0.493937 0.493937
0.512625 0.512625 0.512625
0.531312 0.531312 0.531312
0.550000 0.550000 0.550000
0.568687 0.568687 0.568687
0.934375 0.168750 0.037500
1.000000 0.168750 0.037500
1.000000 0.168750 0.037500
1.000000 0.168750 0.037500
0.381125 0.381125 0.381125
0.399812 0.399812 0.399812
0.418500 0.418500 0.418500
0.437187 0.437187 0.437187
0.455875 0.455875 0.455875
0.474562 0.474562 0.474562
0.493250 0.493250 0.493250
0.511937 0.511937 0.511937
0.530625 0.530625 0.530625
0.549312 0.549312 0.549312
0.568000 0.568000 0.568000
0.586687 0.586687 0.586687
0.605375 0.605375 0.605375
0.624062 0.624062 0.624062
0.642750 0.642750 0.642750
1.000000 0.187500 0.037500
1.000000 0.187500 0.037500
0.417812 0.417812 0.417812
0.436500 0.436500 0.436500
0.455187 0.455187 0.455187
0.473875 0.473875 0.473875
0.492562 0.492562 0.492562
0.511250 0.511250 0.511250
0.529937 0.529937 0.529937
0.548625 0.548625 0.548625
0.567312 0.567312 0.567312
0.586000 0.586000 0.586000
0.604687 0.604687 0.604687
0.623375 0.623375 0.623375
0.642062 0.642062 0.642062
0.660750 0.660750 0.660750
0.679438 0.679438 0.679438
0.698125 0.698125 0.698125
1.000000 0.206250 0.037500
0.454500 0.454500 0.454500
0.473187 0.473187 0.473187
0.491875 0.491875 0.491875
0.510563 0.510563 0.510563
0.529250 0.529250 0.529250
0.547937 0.547937 0.547937
0.566625 0.566625 0.566625
0.585313 0.585313 0.585313
0.604000 0.604000 0.604000
0.622687 0.622687 0.622687
0.641375 0.641375 0.641375
0.660062 0.660062 0.660062
0.678750 0.678750 0.678750
0.697437 0.697437 0.697437
0.716125 0.716125 0.716125
0.734812 0.734812 0.734812
0.753500 0.753500 0.753500
0.491187 0.491187 0.491187
0.509875 0.509875 0.509875
0.528562 0.528562 0.528562
0.547250 0.547250 0.547250
0.565937 0.565937 0.565937
0.584625 0.584625 0.584625
0.603312 0.603312 0.603312
0.622000 0.622000 0.622000
0.640687 0.640687 0.640687
0.659375 0.659375 0.659375
0.678062 0.678062 0.678062
0.696750 0.696750 0.696750
0.715437 0.715437 0.715437
0.734125 0.734125 0.734125
0.752812 0.752812 0.752812
0.771500 0.771500 0.771500
0.790187 0.790187 0.790187
0.527875 0.527875 0.527875
0.546562 0.546562 0.546562
0.565250 0.565250 0.565250
0.583937 0.583937 0.583937
0.602625 0.602625 0.602625
0.621312 0.621312 0.621312
0.640000 0.640000 0.640000
0.658687 0.658687 0.658687
0.677375 0.677375 0.677375
0.696062 0.696062 0.696062
0.714750 0.714750 0.714750
0.733437 0.733437 0.733437
0.752125 0.752125 0.752125
0.770813 0.770813 0.770813
0.789500 0.789500 0.789500
0.808187 0.808187 0.808187
0.826875 0.826875 0.826875
0.564562 0.564562 0.564562
0.583250 0.583250 0.583250
0.601938 0.601938 0.601938
0.620625 0.620625 0.620625
0.639312 0.639312 0.639312
0.658000 0.658000 0.658000
0.676687 0.676687 0.676687
0.695375 0.695375 0.695375
0.714062 0.714062 0.714062
0.732750 0.732750 0.732750
0.751437 0.751437 0.751437
0.770125 0.770125 0.770125
0.788813 0.788813 0.788813
0.807500 0.807500 0.807500
0.826187 0.826187 0.826187
0.844875 0.844875 0.844875
0.863562 0.863562 0.863562
0.601250 0.601250 0.601250
0.619937 0.619937 0.619937
0.638625 0.638625 0.638625
0.657312 0.657312 0.657312
0.676000 0.676000 0.676000
0.694687 0.694687 0.694687
0.713375 0.713375 0.713375
0.732062 0.732062 0.732062
0.750750 0.750750 0.750750
0.769437 0.769437 0.769437
0.788125 0.788125 0.788125
0.806812 0.806812 0.806812
0.825500 0.825500 0.825500
0.844187 0.844187 0.844187
0.862875 0.862875 0.862875
0.881562 0.881562 0.881562
0.900250 0.900250 0.900250
0.021375 0.021375 0.021375
0.040063 0.040063 0.040063
0.058750 0.058750 0.058750
0.077438 0.077438 0.077438
0.096125 0.096125 0.096125
0.114812 0.114812 0.114812
0.431250 0.000000 0.056250
0.503125 0.000000 0.056250
0.575000 0.000000 0.056250
0.646875 0.000000 0.056250
0.718750 0.000000 0.056250
0.790625 0.000000 0.056250
0.862500 0.000000 0.056250
0.934375 0.000000 0.056250
1.000000 0.000000 0.056250
1.000000 0.000000 0.056250
