04-EFFECTS-AND-FILTERS/3d-luts-cube-files/moody_dark_film.cube
# Generated by Video Auto-Editor Pipeline
TITLE "Moody Dark Film"
LUT_3D_SIZE 9
DOMAIN_MIN 0.0 0.0 0.0
DOMAIN_MAX 1.0 1.0 1.0
0.000000 0.000000 0.000000
0.068339 0.002942 0.004361
0.154840 0.006665 0.009480
0.249844 0.010754 0.014928
0.350830 0.015101 0.020604
0.456511 0.019650 0.026453
0.566089 0.024367 0.032446
0.679019 0.029228 0.038561
0.794900 0.034216 0.044781
0.006521 0.073773 0.009284
0.079480 0.079480 0.014723
0.167389 0.085250 0.020391
0.263317 0.091081 0.026235
0.365005 0.096969 0.032223
0.471257 0.102912 0.038334
0.581322 0.108908 0.044551
0.694676 0.114955 0.050862
0.810934 0.121051 0.057259
0.014774 0.167152 0.020179
0.090865 0.173599 0.026018
0.180083 0.180083 0.032001
0.276896 0.186603 0.038107
0.379264 0.193158 0.044320
0.486075 0.199746 0.050628
0.596615 0.206368 0.057022
0.710386 0.213023 0.063493
0.827016 0.219710 0.070037
0.023839 0.269712 0.031778
0.102473 0.276640 0.037880
0.192916 0.283596 0.044090
0.290577 0.290577 0.050395
0.393605 0.297584 0.056785
0.500961 0.304616 0.063254
0.611969 0.311673 0.069795
0.726150 0.318755 0.076402
0.843147 0.325860 0.083071
0.033475 0.378728 0.043860
0.114285 0.386021 0.050161
0.205880 0.393336 0.056549
0.304357 0.400671 0.063015
0.408027 0.408027 0.069553
0.515916 0.415403 0.076158
0.627381 0.422799 0.082824
0.741966 0.430215 0.089549
0.859324 0.437650 0.096328
0.043558 0.492812 0.056312
0.126287 0.500402 0.062776
0.218970 0.508010 0.069311
0.318233 0.515635 0.075913
0.422526 0.523277 0.082578
0.530936 0.530936 0.089301
0.642852 0.538613 0.096078
0.757834 0.546306 0.102907
0.875548 0.554015 0.109785
0.054014 0.611104 0.069069
0.138466 0.618946 0.075669
0.232181 0.626803 0.082332
0.332202 0.634675 0.089052
0.437102 0.642562 0.095828
0.546022 0.650463 0.102655
0.658380 0.658380 0.109531
0.773752 0.666311 0.116454
0.891818 0.674256 0.123421
0.064789 0.733014 0.082086
0.150810 0.741075 0.088804
0.245507 0.749150 0.095577
0.346261 0.757238 0.102403
0.451753 0.765339 0.109277
0.561172 0.773453 0.116198
0.673963 0.781581 0.123164
0.789721 0.789721 0.130172
0.908134 0.797874 0.137221
0.075846 0.858110 0.095327
0.163311 0.866366 0.102151
0.258944 0.874635 0.109023
0.360408 0.882915 0.115943
0.466476 0.891208 0.122907
0.576384 0.899512 0.129913
0.689602 0.907828 0.136961
0.805739 0.916155 0.144047
0.924494 0.924494 0.151171
0.000943 0.000943 0.082197
0.070482 0.004306 0.088917
0.157265 0.008189 0.095691
0.252452 0.012385 0.102517
0.353576 0.016814 0.109393
0.459369 0.021430 0.116314
0.569043 0.026204 0.123281
0.682056 0.031116 0.130290
0.798010 0.036149 0.137339
0.008040 0.075941 0.095441
0.081673 0.081673 0.102265
0.169843 0.087466 0.109139
0.265946 0.093319 0.116059
0.367768 0.099229 0.123024
0.474130 0.105192 0.130031
0.584287 0.111208 0.137079
0.697723 0.117274 0.144166
0.814054 0.123388 0.151291
0.016481 0.169606 0.108885
0.093103 0.176067 0.115804
0.182565 0.182565 0.122767
0.279545 0.189098 0.129772
0.382043 0.195666 0.136819
0.488960 0.202267 0.143905
0.599592 0.208902 0.151028
0.713444 0.215569 0.158187
0.830145 0.222267 0.165381
0.025670 0.272350 0.122510
0.104752 0.279289 0.129514
0.195423 0.286254 0.136559
0.293245 0.293245 0.143643
0.396400 0.300262 0.150765
0.503860 0.307304 0.157923
0.614957 0.314370 0.165116
0.729217 0.321461 0.172343
0.846285 0.328576 0.179602
0.035401 0.381506 0.136299
0.116602 0.388808 0.143382
0.208413 0.396130 0.150502
0.307044 0.403473 0.157659
0.410837 0.410837 0.164851
0.518828 0.418220 0.172076
0.630381 0.425624 0.179335
0.745044 0.433047 0.186624
0.862471 0.440490 0.193945
0.045562 0.495704 0.150240
0.128639 0.503301 0.157395
0.221526 0.510915 0.164586
0.320939 0.518547 0.171810
0.425351 0.526195 0.179067
0.533861 0.533861 0.186356
0.645863 0.541544 0.193675
0.760921 0.549243 0.201024
0.878704 0.556959 0.208402
0.056083 0.614092 0.164321
0.140850 0.621940 0.171544
0.234760 0.629802 0.178799
0.334925 0.637680 0.186087
0.439942 0.645573 0.193405
0.548960 0.653480 0.200753
0.661402 0.661402 0.208130
0.776850 0.669338 0.215535
0.894983 0.677289 0.222968
0.066915 0.736086 0.178532
0.153226 0.744153 0.185818
0.248108 0.752232 0.193135
0.349001 0.760325 0.200482
0.454607 0.768431 0.207858
0.564122 0.776551 0.215262
0.676996 0.784683 0.222694
0.792828 0.792828 0.230152
0.911307 0.800986 0.237636
0.078023 0.861256 0.192866
0.165756 0.869518 0.200212
0.261567 0.877791 0.207586
0.363165 0.886076 0.214990
0.469344 0.894372 0.222420
0.579346 0.902681 0.229877
0.692646 0.911001 0.237360
0.808855 0.919333 0.244869
0.927676 0.927676 0.252402
0.002136 0.002136 0.178654
0.072636 0.005742 0.185940
0.159696 0.009757 0.193258
0.255064 0.014049 0.200606
0.356326 0.018554 0.207982
0.462230 0.023233 0.215386
0.571998 0.028062 0.222818
0.685094 0.033021 0.230277
0.801122 0.038097 0.237762
0.009604 0.078119 0.192988
0.083875 0.083875 0.200335
0.172303 0.089691 0.207710
0.268579 0.095566 0.215114
0.370533 0.101496 0.222544
0.477004 0.107480 0.230002
0.587255 0.113515 0.237486
0.700772 0.119599 0.244995
0.817175 0.125731 0.252528
0.018216 0.172065 0.207438
0.095349 0.178540 0.214841
0.185052 0.185052 0.222271
0.282198 0.191598 0.229727
0.384825 0.198179 0.237210
0.491849 0.204793 0.244718
0.602572 0.211440 0.252251
0.716503 0.218119 0.259808
0.833276 0.224829 0.267388
0.027522 0.274993 0.221997
0.107038 0.281942 0.229452
0.197936 0.288917 0.236934
0.295918 0.295918 0.244441
0.399197 0.302944 0.251973
0.506762 0.309995 0.259529
0.617948 0.317071 0.267109
0.732287 0.324171 0.274712
0.849425 0.331295 0.282337
0.037343 0.384288 0.236659
0.118925 0.391597 0.244165
0.210950 0.398927 0.251696
0.309735 0.406278 0.259251
0.413650 0.413650 0.266830
0.521742 0.421041 0.274432
0.633384 0.428452 0.282057
0.748123 0.435883 0.289703
0.865620 0.443333 0.297372
0.047578 0.498598 0.251418
0.130997 0.506202 0.258973
0.224087 0.513823 0.266551
0.323648 0.521461 0.274152
0.428179 0.529116 0.281776
0.536788 0.536788 0.289422
0.648876 0.544477 0.297089
0.764011 0.552183 0.304778
0.881862 0.559905 0.312488
0.058163 0.617082 0.266271
0.143241 0.624936 0.273872
0.237343 0.632804 0.281495
0.337652 0.640687 0.289140
0.442784 0.648586 0.296807
0.551899 0.656498 0.304495
0.664426 0.664426 0.312204
0.779949 0.672368 0.319934
0.898150 0.680324 0.327683
0.069052 0.739160 0.281214
0.155647 0.747232 0.288858
0.250713 0.755316 0.296524
0.351745 0.763414 0.304212
0.457463 0.771525 0.311920
0.567073 0.779650 0.319649
0.680031 0.787787 0.327398
0.795937 0.795937 0.335166
0.914483 0.804099 0.342954
0.080210 0.864405 0.296242
0.168206 0.872670 0.303929
0.264193 0.880948 0.311636
0.365925 0.889237 0.319364
0.472214 0.897539 0.327112
0.582310 0.905852 0.334880
0.695691 0.914177 0.342667
0.811974 0.922513 0.350474
0.930861 0.930861 0.358298
0.003447 0.003447 0.281342
0.074799 0.007234 0.288986
0.162133 0.011365 0.296653
0.257681 0.015744 0.304341
0.359078 0.020319 0.312049
0.465094 0.025058 0.319778
0.574956 0.029938 0.327528
0.688134 0.034943 0.335296
0.804236 0.040060 0.343085
0.011209 0.080306 0.296370
0.086085 0.086085 0.304057
0.174768 0.091924 0.311765
0.271216 0.097821 0.319494
0.373302 0.103771 0.327242
0.479882 0.109775 0.335010
0.590225 0.115829 0.342798
0.703823 0.121932 0.350604
0.820298 0.128081 0.358429
0.019976 0.174530 0.311481
0.097603 0.181019 0.319209
0.187543 0.187543 0.326957
0.284854 0.194103 0.334724
0.387610 0.200697 0.342511
0.494740 0.207323 0.350317
0.605553 0.213983 0.358141
0.719564 0.220674 0.365984
0.836409 0.227396 0.373845
0.029393 0.277639 0.326671
0.109331 0.284598 0.334438
0.200453 0.291583 0.342224
0.298594 0.298594 0.350029
0.401998 0.305629 0.357853
0.509666 0.312690 0.365695
0.620941 0.319775 0.373555
0.735358 0.326884 0.381433
0.852566 0.334017 0.389329
0.039301 0.387072 0.341937
0.121256 0.394389 0.349742
0.213492 0.401728 0.357565
0.312430 0.409086 0.365406
0.416465 0.416465 0.373266
0.524659 0.423864 0.381143
0.636388 0.431283 0.389038
0.751205 0.438721 0.396950
0.868771 0.446179 0.404879
0.049608 0.501495 0.357277
0.133362 0.509105 0.365118
0.226652 0.516733 0.372977
0.326360 0.524378 0.380853
0.431010 0.532039 0.388747
0.539718 0.539718 0.396659
0.651892 0.547413 0.404587
0.767102 0.555125 0.412532
0.885022 0.562854 0.420494
0.060255 0.620075 0.372687
0.145638 0.627934 0.380563
0.239931 0.635808 0.388457
0.340382 0.643697 0.396367
0.445629 0.651601 0.404295
0.554841 0.659519 0.412240
0.667452 0.667452 0.420201
0.783050 0.675400 0.428178
0.901319 0.683361 0.436171
0.071199 0.742236 0.388166
0.158075 0.750312 0.396076
0.253323 0.758402 0.404003
0.354493 0.766505 0.411947
0.460322 0.774621 0.419907
0.570028 0.782751 0.427884
0.683068 0.790893 0.435876
0.799047 0.799047 0.443884
0.917660 0.807215 0.451908
0.082406 0.867555 0.403711
0.170662 0.875825 0.411655
0.266823 0.884107 0.419614
0.368689 0.892401 0.427590
0.475087 0.900707 0.435582
0.585276 0.909024 0.443590
0.698739 0.917354 0.451613
0.815094 0.925694 0.459651
0.934046 0.934046 0.467705
0.004840 0.004840 0.388298
0.076972 0.008775 0.396209
0.164575 0.013009 0.404136
0.260301 0.017467 0.412080
0.361834 0.022108 0.420041
0.467960 0.026903 0.428017
0.577917 0.031832 0.436010
0.691177 0.036882 0.444019
0.807352 0.042039 0.452042
0.012849 0.082502 0.403844
0.088305 0.088305 0.411788
0.177238 0.094166 0.419747
0.273856 0.100083 0.427724
0.376075 0.106054 0.435716
0.482762 0.112077 0.443724
0.593197 0.118150 0.451747
0.706876 0.124271 0.459786
0.823423 0.130438 0.467839
0.021761 0.176999 0.419454
0.099864 0.183502 0.427430
0.190040 0.190040 0.435421
0.287515 0.196613 0.443429
0.390398 0.203219 0.451452
0.497633 0.209859 0.459490
0.608537 0.216530 0.467543
0.722627 0.223233 0.475611
0.839543 0.229967 0.483694
0.031282 0.280289 0.435127
0.111632 0.287258 0.443134
0.202976 0.294253 0.451156
0.301273 0.301273 0.459194
0.404802 0.308319 0.467246
0.512572 0.315389 0.475314
0.623937 0.322483 0.483396
0.738432 0.329601 0.491493
0.855710 0.336743 0.499604
0.041273 0.389859 0.450861
0.123593 0.397185 0.458898
0.216038 0.404531 0.466950
0.315128 0.411897 0.475017
0.419284 0.419284 0.483099
0.527579 0.426690 0.491195
0.639395 0.434117 0.499305
0.754288 0.441562 0.507430
0.871923 0.449027 0.515569
0.051651 0.504395 0.466653
0.135733 0.512011 0.474720
0.229222 0.519645 0.482801
0.329076 0.527297 0.490897
0.433843 0.534965 0.499007
0.542650 0.542650 0.507131
0.654909 0.550352 0.515269
0.770195 0.558070 0.523421
0.888183 0.565804 0.531586
0.062359 0.623069 0.482503
0.148041 0.630934 0.490599
0.242523 0.638814 0.498708
0.343116 0.646709 0.506832
0.448477 0.654618 0.514969
0.557786 0.662542 0.523121
0.670481 0.670481 0.531286
0.786153 0.678434 0.539464
0.904489 0.686401 0.547656
0.073356 0.745314 0.498409
0.160508 0.753395 0.506533
0.255936 0.761490 0.514670
0.357243 0.769598 0.522821
0.463184 0.777719 0.530985
0.572984 0.785853 0.539163
0.686107 0.794000 0.547355
0.802160 0.802160 0.555559
0.920839 0.810332 0.563777
0.084611 0.870707 0.514370
0.173124 0.878981 0.522521
0.269457 0.887268 0.530685
0.371456 0.895567 0.538862
0.477963 0.903877 0.547053
0.588244 0.912199 0.555257
0.701788 0.920532 0.563474
0.818216 0.928877 0.571704
0.937234 0.937234 0.579947
0.006298 0.006298 0.498545
0.079154 0.010359 0.506669
0.167023 0.014685 0.514806
0.262925 0.019217 0.522957
0.364593 0.023919 0.531122
0.470829 0.028767 0.539300
0.580880 0.033744 0.547492
0.694222 0.038836 0.555696
0.810469 0.044031 0.563914
0.014522 0.084707 0.514506
0.090533 0.090533 0.522657
0.179714 0.096415 0.530821
0.276501 0.102354 0.538999
0.378850 0.108345 0.547190
0.485645 0.114387 0.555394
0.596171 0.120478 0.563612
0.709931 0.126617 0.571842
0.826550 0.132801 0.580085
0.023568 0.179475 0.530521
0.102134 0.185991 0.538698
0.192542 0.192542 0.546889
0.290179 0.199128 0.555092
0.393189 0.205747 0.563309
0.500529 0.212399 0.571539
0.611523 0.219082 0.579781
0.725693 0.225797 0.588036
0.842679 0.232542 0.596303
0.033189 0.282943 0.546587
0.113941 0.289922 0.554790
0.205503 0.296927 0.563007
0.303956 0.303956 0.571236
0.407608 0.311011 0.579478
0.515482 0.318091 0.587732
0.626934 0.325194 0.595999
0.741507 0.332321 0.604278
0.858855 0.339472 0.612570
0.043261 0.392650 0.562704
0.125937 0.399983 0.570933
0.218589 0.407337 0.579174
0.317830 0.414711 0.587428
0.422105 0.422105 0.595695
0.530500 0.429519 0.603973
0.642403 0.436953 0.612264
0.757373 0.444406 0.620567
0.875078 0.451878 0.628882
0.053706 0.507297 0.578871
0.138111 0.514920 0.587124
0.231796 0.522561 0.595390
0.331796 0.530218 0.603669
0.436679 0.537893 0.611959
0.545585 0.545585 0.620262
0.657929 0.553292 0.628576
0.773290 0.561017 0.636902
0.891346 0.568758 0.645240
0.064473 0.626066 0.595086
0.150450 0.633937 0.603364
0.245119 0.641822 0.611654
0.345852 0.649723 0.619956
0.451328 0.657638 0.628270
0.560732 0.665567 0.636596
0.673511 0.673511 0.644933
0.789258 0.681469 0.653282
0.907661 0.689442 0.661643
0.075522 0.748393 0.611349
0.162946 0.756480 0.619650
0.258554 0.764580 0.627964
0.359997 0.772693 0.636289
0.466049 0.780819 0.644626
0.575943 0.788958 0.652975
0.689148 0.797110 0.661335
0.805274 0.805274 0.669707
0.924020 0.813451 0.678089
0.086824 0.873860 0.627658
0.175591 0.882139 0.635983
0.272095 0.890431 0.644320
0.374226 0.898734 0.652668
0.480842 0.907048 0.661027
0.591215 0.915375 0.669398
0.704840 0.923713 0.677781
0.821340 0.932062 0.686174
0.940423 0.940423 0.694579
0.007810 0.007810 0.611487
0.081345 0.011981 0.619789
0.169477 0.016391 0.628103
0.265554 0.020991 0.636429
0.367355 0.025751 0.644766
0.473701 0.030650 0.653115
0.583845 0.035672 0.661475
0.697268 0.040805 0.669847
0.813588 0.046038 0.678230
0.016225 0.086921 0.627797
0.092769 0.092769 0.636122
0.182194 0.098673 0.644459
0.279150 0.104632 0.652807
0.381628 0.110643 0.661167
0.488530 0.116704 0.669539
0.599148 0.122813 0.677921
0.712988 0.128970 0.686315
0.829679 0.135171 0.694719
0.025396 0.181955 0.644152
0.104412 0.188485 0.652500
0.195049 0.195049 0.660860
0.292847 0.201648 0.669230
0.395983 0.208279 0.677612
0.503428 0.214943 0.686006
0.614512 0.221639 0.694410
0.728760 0.228365 0.702825
0.845817 0.235122 0.711251
0.035113 0.285601 0.660552
0.116256 0.292590 0.668922
0.208035 0.299604 0.677304
0.306643 0.306643 0.685697
0.410417 0.313708 0.694100
0.518393 0.320796 0.702515
0.629934 0.327909 0.710941
0.744585 0.335045 0.719377
0.862002 0.342204 0.727824
0.045262 0.395444 0.676995
0.128288 0.402785 0.685388
0.221145 0.410146 0.693791
0.320535 0.417528 0.702205
0.424930 0.424930 0.710630
0.533425 0.432351 0.719066
0.645414 0.439792 0.727513
0.760461 0.447253 0.735970
0.878234 0.454732 0.744437
0.055773 0.510201 0.693482
0.140494 0.517831 0.701896
0.234375 0.525478 0.710320
0.334519 0.533143 0.718756
0.439518 0.540824 0.727202
0.548521 0.548521 0.735658
0.660951 0.556236 0.744125
0.776388 0.563966 0.752603
0.894511 0.571713 0.761090
0.066598 0.629065 0.710010
0.152865 0.636942 0.718445
0.247720 0.644833 0.726891
0.348593 0.652739 0.735347
0.454181 0.660659 0.743814
0.563682 0.668594 0.752291
0.676544 0.676544 0.760778
0.792364 0.684507 0.769275
0.910834 0.692485 0.777783
0.077698 0.751475 0.726580
0.165391 0.759567 0.735036
0.261175 0.767672 0.743502
0.362754 0.775790 0.751979
0.468916 0.783921 0.760466
0.578904 0.792065 0.768963
0.692192 0.800221 0.777470
0.808391 0.808391 0.785987
0.927202 0.816572 0.794514
0.089046 0.877015 0.743190
0.178063 0.885299 0.751667
0.274738 0.893595 0.760153
0.376999 0.901902 0.768650
0.483722 0.910222 0.777156
0.594188 0.918552 0.785673
0.707894 0.926895 0.794200
0.824465 0.935248 0.802736
0.943614 0.943614 0.811282
0.009368 0.009368 0.726721
0.083546 0.013638 0.735177
0.171936 0.018124 0.743644
0.268186 0.022788 0.752121
0.370121 0.027604 0.760608
0.476575 0.032551 0.769105
0.586812 0.037617 0.777612
0.700317 0.042789 0.786129
0.816709 0.048058 0.794656
0.017956 0.089144 0.743332
0.095013 0.095013 0.751808
0.184680 0.100939 0.760295
0.281802 0.106917 0.768792
0.384410 0.112948 0.777299
0.491418 0.119027 0.785816
0.602127 0.125155 0.794342
0.716047 0.131329 0.802879
0.832809 0.137547 0.811425
0.027245 0.184440 0.759983
0.106697 0.190983 0.768479
0.197561 0.197561 0.776986
0.295519 0.204172 0.785502
0.398780 0.210816 0.794029
0.506329 0.217492 0.802565
0.617502 0.224200 0.811111
0.731829 0.230938 0.819666
0.848956 0.237706 0.828232
0.037052 0.288262 0.776673
0.118578 0.295261 0.785189
0.210571 0.302285 0.793715
0.309334 0.309334 0.802251
0.413230 0.316407 0.810796
0.521307 0.323505 0.819351
0.632936 0.330627 0.827916
0.747664 0.337772 0.836491
0.865151 0.344940 0.845074
0.047277 0.398240 0.793401
0.130645 0.405589 0.801936
0.223705 0.412958 0.810482
0.323244 0.420348 0.819037
0.427757 0.427757 0.827601
0.536352 0.435186 0.836175
0.648427 0.442635 0.844758
0.763550 0.450102 0.853351
0.881391 0.457589 0.861953
0.057852 0.513108 0.810167
0.142884 0.520745 0.818722
0.236958 0.528398 0.827286
0.337245 0.536069 0.835859
0.442360 0.543757 0.844442
0.551461 0.551461 0.853035
0.663975 0.559181 0.861637
0.779486 0.566918 0.870248
0.897678 0.574671 0.878868
0.068733 0.632067 0.826971
0.155286 0.639949 0.835544
0.250324 0.647845 0.844127
0.351336 0.655757 0.852719
0.457037 0.663683 0.861320
0.566633 0.671624 0.869931
0.679578 0.679578 0.878550
0.795473 0.687548 0.887179
0.914009 0.695531 0.895817
0.079883 0.754559 0.843811
0.167840 0.762655 0.852402
0.263801 0.770765 0.861003
0.365514 0.778888 0.869614
0.471786 0.787024 0.878233
0.581868 0.795173 0.886862
0.695237 0.803334 0.895499
0.811509 0.811509 0.904145
0.930386 0.819695 0.912801
0.091277 0.880172 0.860687
0.180540 0.888461 0.869297
0.277383 0.896761 0.877916
0.379776 0.905073 0.886544
0.486606 0.913396 0.895181
0.597163 0.921732 0.903827
0.710949 0.930078 0.912482
0.827593 0.938436 0.921146
0.946806 0.946806 0.929818
0.010967 0.010967 0.843954
0.085755 0.015325 0.852546
0.174400 0.019883 0.861147
0.270822 0.024608 0.869758
0.372889 0.029475 0.878377
0.479453 0.034469 0.887006
0.589782 0.039577 0.895644
0.703367 0.044787 0.904290
0.819832 0.050091 0.912946
0.019712 0.091375 0.860831
0.097266 0.097266 0.869441
0.187172 0.103212 0.878060
0.284458 0.109211 0.886688
0.387194 0.115260 0.895326
0.494308 0.121358 0.903972
0.605109 0.127504 0.912627
0.719107 0.133694 0.921291
0.835941 0.139929 0.929964
0.029113 0.186931 0.877743
0.108989 0.193487 0.886371
0.200078 0.200078 0.895008
0.298194 0.206701 0.903654
0.401580 0.213358 0.912308
0.509233 0.220046 0.920972
0.620495 0.226765 0.929644
0.734900 0.233515 0.938325
0.852098 0.240295 0.947015
0.039008 0.290928 0.894690
0.120908 0.297936 0.903335
0.213112 0.304970 0.911990
0.312028 0.312028 0.920653
0.416045 0.319111 0.929325
0.524224 0.326217 0.938006
0.635940 0.333348 0.946695
0.750745 0.340502 0.955393
0.868301 0.347679 0.964099
0.049305 0.401040 0.911671
0.133009 0.408396 0.920334
0.226270 0.415773 0.929006
0.325956 0.423170 0.937686
0.430587 0.430587 0.946375
0.539281 0.438024 0.955073
0.651442 0.445479 0.963779
0.766641 0.452954 0.972493
0.884551 0.460448 0.981216
0.059943 0.516018 0.928687
0.145280 0.523661 0.937367
0.239545 0.531321 0.946056
0.339975 0.538998 0.954753
0.445205 0.546692 0.963458
0.554402 0.554402 0.972173
0.667001 0.562129 0.980895
0.782587 0.569872 0.989626
0.900846 0.577631 0.998365
0.070878 0.635070 0.945736
0.157712 0.642958 0.954433
0.252933 0.650860 0.963138
0.354083 0.658777 0.971852
0.459896 0.666709 0.980574
0.569587 0.674655 0.989305
0.682615 0.682615 0.998044
0.798583 0.690590 1.000000
0.917186 0.698578 1.000000
0.082078 0.757644 0.962818
0.170296 0.765746 0.971531
0.266431 0.773861 0.980253
0.368277 0.781989 0.988983
0.474659 0.790130 0.997722
0.584834 0.798283 1.000000
0.698284 0.806449 1.000000
0.814628 0.814628 1.000000
0.933571 0.822820 1.000000
0.093516 0.883331 0.979932
0.183023 0.891624 0.988662
0.280033 0.899929 0.997400
0.382555 0.908245 1.000000
0.489492 0.916573 1.000000
0.600141 0.924913 1.000000
0.714007 0.933264 1.000000
0.830722 0.941626 1.000000
0.950000 0.950000 1.000000
