04-EFFECTS-AND-FILTERS/3d-luts-cube-files/moody_dark_film.cube
# Generated by Video Auto-Editor Pipeline
TITLE "Moody Dark Film"
LUT_3D_SIZE 17
DOMAIN_MIN 0.0 0.0 0.0
DOMAIN_MAX 1.0 1.0 1.0
0.000000 0.000000 0.000000
0.030161 0.001298 0.002007
0.068339 0.002942 0.004361
0.110269 0.004746 0.006868
0.154840 0.006665 0.009480
0.201482 0.008673 0.012171
0.249844 0.010754 0.014928
0.299686 0.012900 0.017741
0.350830 0.015101 0.020604
0.403141 0.017353 0.023509
0.456511 0.019650 0.026453
0.510851 0.021989 0.029433
0.566089 0.024367 0.032446
0.622163 0.026781 0.035489
0.679019 0.029228 0.038561
0.736612 0.031707 0.041658
0.794900 0.034216 0.044781
0.002878 0.032560 0.004272
0.035079 0.035079 0.006774
0.073877 0.037625 0.009382
0.116215 0.040199 0.012071
0.161095 0.042797 0.014826
0.207990 0.045421 0.017637
0.256567 0.048067 0.020497
0.306596 0.050736 0.023401
0.357907 0.053426 0.026344
0.410368 0.056137 0.029323
0.463875 0.058869 0.032335
0.518342 0.061619 0.035377
0.573698 0.064389 0.038447
0.629881 0.067177 0.041544
0.686841 0.069983 0.044666
0.744531 0.072806 0.047811
0.802911 0.075646 0.050979
0.006521 0.073773 0.009284
0.040104 0.076618 0.011971
0.079480 0.079480 0.014723
0.122208 0.082357 0.017533
0.167389 0.085250 0.020391
0.214530 0.088158 0.023294
0.263317 0.091081 0.026235
0.313530 0.094018 0.029213
0.365005 0.096969 0.032223
0.417615 0.099934 0.035264
0.471257 0.102912 0.038334
0.525850 0.105904 0.041430
0.581322 0.108908 0.044551
0.637614 0.111926 0.047695
0.694676 0.114955 0.050862
0.752462 0.117997 0.054050
0.810934 0.121051 0.057259
0.010521 0.119038 0.014621
0.045227 0.122096 0.017428
0.085144 0.125165 0.020285
0.128247 0.128247 0.023186
0.173718 0.131339 0.026127
0.221100 0.134443 0.029103
0.270093 0.137557 0.032112
0.320487 0.140683 0.035152
0.372124 0.143819 0.038220
0.424880 0.146966 0.041315
0.478657 0.150122 0.044435
0.533374 0.153289 0.047579
0.588961 0.156466 0.050745
0.645361 0.159653 0.053933
0.702524 0.162850 0.057140
0.760406 0.166056 0.060367
0.818969 0.169272 0.063613
0.014774 0.167152 0.020179
0.050440 0.170371 0.023079
0.090865 0.173599 0.026018
0.134328 0.176837 0.028993
0.180083 0.180083 0.032001
0.227700 0.183339 0.035040
0.276896 0.186603 0.038107
0.327468 0.189876 0.041201
0.379264 0.193158 0.044320
0.432165 0.196448 0.047463
0.486075 0.199746 0.050628
0.540914 0.203053 0.053815
0.596615 0.206368 0.057022
0.653122 0.209692 0.060248
0.710386 0.213023 0.063493
0.768364 0.216362 0.066756
0.827016 0.219710 0.070037
0.019224 0.217503 0.025909
0.055737 0.220853 0.028883
0.096643 0.224211 0.031890
0.140453 0.227576 0.034927
0.186483 0.230949 0.037994
0.234330 0.234330 0.041087
0.283724 0.237718 0.044205
0.334471 0.241113 0.047347
0.386425 0.244515 0.050511
0.439468 0.247925 0.053697
0.493509 0.251342 0.056904
0.548470 0.254766 0.060129
0.604285 0.258198 0.063374
0.660898 0.261636 0.066636
0.718261 0.265081 0.069916
0.776333 0.268533 0.073212
0.835076 0.271991 0.076524
0.023839 0.269712 0.031778
0.061112 0.273173 0.034815
0.102473 0.276640 0.037880
0.146618 0.280115 0.040972
0.192916 0.283596 0.044090
0.240988 0.287083 0.047231
0.290577 0.290577 0.050395
0.341497 0.294077 0.053580
0.393605 0.297584 0.056785
0.446791 0.301097 0.060010
0.500961 0.304616 0.063254
0.556042 0.308142 0.066516
0.611969 0.311673 0.069795
0.668687 0.315211 0.073090
0.726150 0.318755 0.076402
0.784315 0.322305 0.079729
0.843147 0.325860 0.083071
0.028595 0.323517 0.037767
0.066560 0.327075 0.040858
0.108355 0.330639 0.043975
0.152823 0.334208 0.047115
0.199382 0.337784 0.050278
0.247674 0.341365 0.053462
0.297455 0.344952 0.056667
0.348544 0.348544 0.059891
0.400806 0.352143 0.063134
0.454131 0.355747 0.066395
0.508430 0.359356 0.069674
0.563630 0.362971 0.072969
0.619668 0.366592 0.076280
0.676491 0.370218 0.079606
0.734051 0.373849 0.082947
0.792310 0.377486 0.086303
0.851230 0.381128 0.089673
0.033475 0.378728 0.043860
0.072077 0.382372 0.046999
0.114285 0.386021 0.050161
0.159066 0.389676 0.053345
0.205880 0.393336 0.056549
0.254388 0.397001 0.059772
0.304357 0.400671 0.063015
0.355614 0.404346 0.066275
0.408027 0.408027 0.069553
0.461489 0.411712 0.072847
0.515916 0.415403 0.076158
0.571233 0.419098 0.079483
0.627381 0.422799 0.082824
0.684308 0.426504 0.086180
0.741966 0.430215 0.089549
0.800317 0.433930 0.092932
0.859324 0.437650 0.096328
0.038466 0.435199 0.050044
0.077660 0.438920 0.053227
0.120264 0.442647 0.056430
0.165348 0.446378 0.059653
0.212410 0.450115 0.062895
0.261129 0.453855 0.066155
0.311283 0.457601 0.069432
0.362705 0.461351 0.072726
0.415267 0.465106 0.076035
0.468866 0.468866 0.079361
0.523418 0.472630 0.082701
0.578852 0.476399 0.086056
0.635110 0.480172 0.089425
0.692138 0.483950 0.092807
0.749893 0.487732 0.096203
0.808336 0.491519 0.099612
0.867430 0.495311 0.103033
0.043558 0.492812 0.056312
0.083304 0.496605 0.059535
0.126287 0.500402 0.062776
0.171666 0.504204 0.066035
0.218970 0.508010 0.069311
0.267897 0.511820 0.072604
0.318233 0.515635 0.075913
0.369817 0.519454 0.079238
0.422526 0.523277 0.082578
0.476260 0.527105 0.085932
0.530936 0.530936 0.089301
0.586487 0.534772 0.092683
0.642852 0.538613 0.096078
0.699982 0.542457 0.099486
0.757834 0.546306 0.102907
0.816367 0.550158 0.106340
0.875548 0.554015 0.109785
0.048743 0.551474 0.062656
0.089007 0.555332 0.065914
0.132355 0.559194 0.069190
0.178019 0.563061 0.072483
0.225561 0.566931 0.075791
0.274691 0.570805 0.079116
0.325206 0.574684 0.082455
0.376951 0.578566 0.085809
0.429805 0.582453 0.089176
0.483672 0.586343 0.092558
0.538471 0.590238 0.095953
0.594136 0.594136 0.099361
0.650609 0.598038 0.102781
0.707840 0.601944 0.106213
0.765787 0.605854 0.109658
0.824410 0.609768 0.113114
0.883678 0.613686 0.116582
0.054014 0.611104 0.069069
0.094767 0.615023 0.072361
0.138466 0.618946 0.075669
0.184408 0.622872 0.078993
0.232181 0.626803 0.082332
0.281511 0.630737 0.085685
0.332202 0.634675 0.089052
0.384105 0.638616 0.092433
0.437102 0.642562 0.095828
0.491101 0.646511 0.099235
0.546022 0.650463 0.102655
0.601801 0.654420 0.106087
0.658380 0.658380 0.109531
0.715711 0.662343 0.112987
0.773752 0.666311 0.116454
0.832466 0.670281 0.119932
0.891818 0.674256 0.123421
0.059364 0.671637 0.075547
0.100580 0.675612 0.078870
0.144618 0.679592 0.082209
0.190830 0.683575 0.085561
0.238830 0.687561 0.088928
0.288356 0.691551 0.092309
0.339220 0.695544 0.095703
0.391279 0.699541 0.099109
0.444419 0.703541 0.102529
0.498547 0.707545 0.105961
0.553589 0.711553 0.109404
0.609480 0.715563 0.112859
0.666164 0.719578 0.116326
0.723595 0.723595 0.119804
0.781730 0.727616 0.123292
0.840533 0.731641 0.126792
0.899970 0.735668 0.130301
0.064789 0.733014 0.082086
0.106446 0.737043 0.085438
0.150810 0.741075 0.088804
0.197285 0.745111 0.092184
0.245507 0.749150 0.095577
0.295226 0.753192 0.098984
0.346261 0.757238 0.102403
0.398473 0.761287 0.105834
0.451753 0.765339 0.109277
0.506011 0.769395 0.112732
0.561172 0.773453 0.116198
0.617174 0.777515 0.119676
0.673963 0.781581 0.123164
0.731492 0.785649 0.126663
0.789721 0.789721 0.130172
0.848612 0.793796 0.133691
0.908134 0.797874 0.137221
0.070284 0.795187 0.088680
0.112361 0.799266 0.092060
0.157041 0.803348 0.095452
0.203773 0.807434 0.098858
0.252212 0.811522 0.102277
0.302120 0.815614 0.105708
0.353323 0.819709 0.109150
0.405687 0.823807 0.112605
0.459106 0.827908 0.116071
0.513491 0.832013 0.119548
0.568771 0.836120 0.123035
0.624883 0.840230 0.126534
0.681776 0.844344 0.130043
0.739403 0.848461 0.133562
0.797724 0.852580 0.137091
0.856703 0.856703 0.140630
0.916308 0.860829 0.144178
0.075846 0.858110 0.095327
0.118323 0.862237 0.098733
0.163311 0.866366 0.102151
0.210293 0.870499 0.105581
0.258944 0.874635 0.109023
0.309039 0.878774 0.112478
0.360408 0.882915 0.115943
0.412921 0.887060 0.119419
0.466476 0.891208 0.122907
0.520988 0.895358 0.126405
0.576384 0.899512 0.129913
0.632607 0.903668 0.133432
0.689602 0.907828 0.136961
0.747326 0.911990 0.140499
0.805739 0.916155 0.144047
0.864805 0.920323 0.147604
0.924494 0.924494 0.151171
0.000416 0.000416 0.037819
0.031107 0.001901 0.040910
0.069409 0.003614 0.044027
0.111420 0.005466 0.047168
0.156052 0.007421 0.050331
0.202743 0.009458 0.053516
0.251148 0.011565 0.056721
0.301026 0.013733 0.059945
0.352203 0.015954 0.063189
0.404543 0.018224 0.066450
0.457940 0.020537 0.069729
0.512305 0.022892 0.073024
0.567566 0.025283 0.076335
0.623661 0.027710 0.079662
0.680537 0.030170 0.083003
0.738149 0.032660 0.086360
0.796455 0.035180 0.089730
0.003548 0.033517 0.043912
0.036046 0.036046 0.047052
0.074960 0.038603 0.050214
0.117376 0.041187 0.053398
0.162315 0.043795 0.056602
0.209258 0.046427 0.059826
0.257876 0.049082 0.063069
0.307941 0.051759 0.066330
0.359284 0.054457 0.069608
0.411774 0.057176 0.072902
0.465307 0.059915 0.076213
0.519799 0.062673 0.079539
0.575177 0.065450 0.082880
0.631382 0.068245 0.086236
0.688361 0.071057 0.089605
0.746070 0.073887 0.092989
0.804468 0.076733 0.096385
0.007274 0.074856 0.050097
0.041091 0.077708 0.053281
0.080575 0.080575 0.056484
0.123378 0.083459 0.059708
0.168615 0.086357 0.062950
0.215803 0.089271 0.066210
0.264631 0.092199 0.069487
0.314879 0.095142 0.072781
0.366386 0.098098 0.076091
0.419024 0.101068 0.079417
0.472693 0.104051 0.082757
0.527310 0.107048 0.086112
0.582804 0.110057 0.089481
0.639117 0.113079 0.092864
0.696199 0.116114 0.096260
0.754004 0.119160 0.099669
0.812494 0.122219 0.103090
0.011330 0.120202 0.056366
0.046232 0.123265 0.059589
0.086250 0.126339 0.062830
0.129424 0.129424 0.066089
0.174952 0.132521 0.069366
0.222379 0.135629 0.072659
0.271412 0.138748 0.075969
0.321841 0.141877 0.079294
0.373509 0.145017 0.082634
0.426294 0.148168 0.085988
0.480096 0.151329 0.089357
0.534837 0.154500 0.092739
0.590446 0.157680 0.096135
0.646867 0.160871 0.099543
0.704050 0.164071 0.102964
0.761951 0.167281 0.106398
0.820531 0.170501 0.109843
0.015624 0.168378 0.062710
0.051462 0.171601 0.065969
0.091983 0.174833 0.069245
0.135514 0.178073 0.072538
0.181323 0.181323 0.075847
0.228985 0.184582 0.079171
0.278220 0.187850 0.082511
0.328826 0.191126 0.085865
0.380653 0.194411 0.089233
0.433582 0.197704 0.092615
0.487517 0.201006 0.096010
0.542380 0.204316 0.099418
0.598104 0.207635 0.102838
0.654631 0.210961 0.106271
0.711915 0.214295 0.109716
0.769910 0.217638 0.113172
0.828581 0.220988 0.116640
0.020109 0.218780 0.069124
0.056775 0.222132 0.072417
0.097771 0.225493 0.075725
0.141647 0.228861 0.079049
0.187729 0.232237 0.082388
0.235620 0.235620 0.085741
0.285053 0.239011 0.089109
0.335834 0.242409 0.092490
0.387817 0.245815 0.095885
0.440889 0.249227 0.099292
0.494955 0.252647 0.102712
0.549939 0.256074 0.106144
0.605776 0.259508 0.109589
0.662410 0.262948 0.113045
0.719792 0.266396 0.116512
0.777882 0.269850 0.119990
0.836642 0.273312 0.123479
0.024752 0.271030 0.075603
0.062165 0.274494 0.078926
0.103612 0.277964 0.082265
0.147820 0.281441 0.085617
0.194169 0.284924 0.088985
0.242284 0.288414 0.092365
0.291911 0.291911 0.095759
0.342864 0.295413 0.099166
0.395002 0.298922 0.102586
0.448215 0.302438 0.106018
0.502410 0.305960 0.109462
0.557514 0.309487 0.112917
0.613463 0.313021 0.116384
0.670202 0.316561 0.119862
0.727683 0.320107 0.123351
0.785867 0.323660 0.126850
0.844716 0.327218 0.130360
0.029533 0.324873 0.082141
0.067626 0.328433 0.085494
0.109503 0.331999 0.088860
0.154032 0.335571 0.092241
0.200641 0.339148 0.095634
0.248976 0.342732 0.099041
0.298793 0.346321 0.102460
0.349916 0.349916 0.105892
0.402207 0.353516 0.109335
0.455559 0.357122 0.112790
0.509882 0.360734 0.116256
0.565105 0.364351 0.119734
0.621165 0.367974 0.123222
0.678008 0.371602 0.126721
0.735588 0.375235 0.130231
0.793864 0.378874 0.133750
0.852801 0.382518 0.137280
0.034436 0.380117 0.088736
0.073156 0.383763 0.092116
0.115443 0.387414 0.095509
0.160283 0.391071 0.098915
0.207146 0.394733 0.102334
0.255695 0.398400 0.105765
0.305700 0.402072 0.109208
0.356990 0.405749 0.112663
0.409431 0.409431 0.116129
0.462921 0.413119 0.119606
0.517371 0.416811 0.123094
0.572712 0.420509 0.126592
0.628881 0.424211 0.130102
0.685827 0.427918 0.133621
0.743505 0.431631 0.137150
0.801873 0.435348 0.140689
0.860898 0.439070 0.144237
0.039447 0.436617 0.095384
0.078751 0.440341 0.098790
0.121430 0.444069 0.102208
0.166572 0.447802 0.105639
0.213681 0.451540 0.109081
0.262442 0.455283 0.112535
0.312631 0.459030 0.116001
0.364085 0.462782 0.119478
0.416675 0.466539 0.122965
0.470301 0.470301 0.126464
0.524877 0.474066 0.129972
0.580334 0.477837 0.133491
0.636612 0.481612 0.137020
0.693661 0.485392 0.140558
0.751434 0.489176 0.144107
0.809895 0.492964 0.147664
0.869006 0.496757 0.151231
0.044558 0.494258 0.102082
0.084407 0.498052 0.105512
0.127462 0.501851 0.108954
0.172897 0.505654 0.112408
0.220248 0.509462 0.115873
0.269215 0.513274 0.119350
0.319585 0.517090 0.122837
0.371201 0.520911 0.126335
0.423939 0.524736 0.129843
0.477698 0.528565 0.133361
0.532398 0.532398 0.136890
0.587971 0.536236 0.140428
0.644357 0.540078 0.143976
0.701507 0.543924 0.147533
0.759377 0.547774 0.151099
0.817928 0.551628 0.154675
0.877126 0.555487 0.158259
0.049760 0.552944 0.108827
0.090121 0.556804 0.112281
0.133539 0.560668 0.115746
0.179257 0.564536 0.119222
0.226844 0.568408 0.122708
0.276014 0.572284 0.126206
0.326563 0.576164 0.129714
0.378338 0.580048 0.133232
0.431221 0.583936 0.136760
0.485113 0.587828 0.140298
0.539937 0.591724 0.143845
0.595623 0.595623 0.147402
0.652117 0.599527 0.150968
0.709368 0.603435 0.154543
0.767333 0.607346 0.158127
0.825974 0.611261 0.161720
0.885258 0.615180 0.165321
0.055047 0.612598 0.115618
0.095892 0.616518 0.119093
0.139657 0.620442 0.122580
0.185652 0.624370 0.126077
0.233470 0.628302 0.129584
0.282838 0.632238 0.133102
0.333563 0.636177 0.136630
0.385496 0.640120 0.140167
0.438522 0.644067 0.143714
0.492546 0.648017 0.147271
0.547491 0.651971 0.150837
0.603291 0.655929 0.154411
0.659890 0.659890 0.157995
0.717241 0.663855 0.161588
0.775301 0.667824 0.165188
0.834032 0.671796 0.168798
0.893401 0.675772 0.172416
0.060412 0.673152 0.122451
0.101715 0.677129 0.125948
0.145817 0.681110 0.129455
0.192081 0.685094 0.132973
0.240124 0.689082 0.136500
0.289688 0.693073 0.140037
0.340586 0.697068 0.143584
0.392674 0.701066 0.147140
0.445841 0.705068 0.150705
0.499995 0.709073 0.154280
0.555061 0.713081 0.157863
0.610973 0.717093 0.161455
0.667678 0.721109 0.165056
0.725128 0.725128 0.168665
0.783281 0.729150 0.172282
0.842101 0.733176 0.175908
0.901555 0.737205 0.179541
0.065851 0.734550 0.129326
0.107591 0.738580 0.132843
0.152017 0.742614 0.136370
0.198543 0.746651 0.139907
0.246807 0.750691 0.143453
0.296563 0.754735 0.147009
0.347631 0.758781 0.150574
0.399873 0.762832 0.154148
0.453180 0.766885 0.157731
0.507462 0.770942 0.161323
0.562647 0.775002 0.164923
0.618670 0.779065 0.168532
0.675479 0.783131 0.172149
0.733028 0.787201 0.175774
0.791274 0.791274 0.179408
0.850182 0.795350 0.183049
0.909720 0.799429 0.186698
0.071359 0.796741 0.136240
0.113515 0.800822 0.139776
0.158256 0.804905 0.143323
0.205037 0.808992 0.146878
0.253517 0.813082 0.150443
0.303462 0.817175 0.154016
0.354698 0.821271 0.157599
0.407091 0.825370 0.161191
0.460536 0.829473 0.164791
0.514946 0.833578 0.168399
0.570248 0.837687 0.172016
0.626382 0.841798 0.175641
0.683295 0.845913 0.179274
0.740941 0.850031 0.182915
0.799279 0.854152 0.186563
0.858275 0.858275 0.190220
0.917897 0.862402 0.193884
0.076933 0.859683 0.143192
0.119487 0.863811 0.146747
0.164532 0.867942 0.150311
0.211563 0.872076 0.153885
0.260255 0.876213 0.157467
0.310385 0.880352 0.161058
0.361786 0.884495 0.164658
0.414328 0.888641 0.168266
0.467910 0.892790 0.171883
0.522446 0.896941 0.175507
0.577865 0.901096 0.179140
0.634108 0.905254 0.182781
0.691124 0.909414 0.186429
0.748866 0.913578 0.190085
0.807297 0.917744 0.193749
0.866380 0.921913 0.197420
0.926085 0.926085 0.201098
0.000943 0.000943 0.082197
0.032058 0.002534 0.085550
0.070482 0.004306 0.088917
0.112573 0.006201 0.092297
0.157265 0.008189 0.095691
0.204006 0.010254 0.099098
0.252452 0.012385 0.102517
0.302367 0.014574 0.105949
0.353576 0.016814 0.109393
0.405946 0.019101 0.112848
0.459369 0.021430 0.116314
0.513759 0.023799 0.119792
0.569043 0.026204 0.123281
0.625159 0.028644 0.126780
0.682056 0.031116 0.130290
0.739686 0.033618 0.133809
0.798010 0.036149 0.137339
0.004239 0.034478 0.088793
0.037018 0.037018 0.092173
0.076046 0.039585 0.095566
0.118538 0.042178 0.098972
0.163536 0.044796 0.102391
0.210527 0.047436 0.105823
0.259186 0.050100 0.109266
0.309287 0.052785 0.112721
0.360661 0.055492 0.116187
0.413181 0.058218 0.119664
0.466740 0.060965 0.123152
0.521256 0.063730 0.126651
0.576657 0.066514 0.130160
0.632883 0.069315 0.133680
0.689882 0.072134 0.137209
0.747610 0.074970 0.140748
0.806026 0.077822 0.144297
0.008040 0.075941 0.095441
0.042082 0.078799 0.098847
0.081673 0.081673 0.102265
0.124548 0.084562 0.105696
0.169843 0.087466 0.109139
0.217078 0.090386 0.112593
0.265946 0.093319 0.116059
0.316230 0.096267 0.119536
0.367768 0.099229 0.123024
0.420434 0.102204 0.126522
0.474130 0.105192 0.130031
0.528770 0.108194 0.133550
0.584287 0.111208 0.137079
0.640621 0.114235 0.140618
0.697723 0.117274 0.144166
0.755546 0.120325 0.147724
0.814054 0.123388 0.151291
0.012147 0.121368 0.102139
0.047241 0.124435 0.105570
0.087359 0.127514 0.109012
0.130604 0.130604 0.112466
0.176186 0.133705 0.115931
0.223660 0.136817 0.119408
0.272732 0.139940 0.122895
0.323196 0.143073 0.126393
0.374895 0.146217 0.129902
0.427708 0.149372 0.133420
0.481536 0.152536 0.136949
0.536300 0.155711 0.140487
0.591932 0.158896 0.144035
0.648374 0.162090 0.147593
0.705576 0.165294 0.151159
0.763496 0.168508 0.154735
0.822093 0.171730 0.158319
0.016481 0.169606 0.108885
0.052488 0.172832 0.112339
0.093103 0.176067 0.115804
0.136702 0.179312 0.119280
0.182565 0.182565 0.122767
0.230272 0.185827 0.126264
0.279545 0.189098 0.129772
0.330185 0.192378 0.133291
0.382043 0.195666 0.136819
0.435000 0.198962 0.140357
0.488960 0.202267 0.143905
0.543847 0.205580 0.147462
0.599592 0.208902 0.151028
0.656141 0.212231 0.154603
0.713444 0.215569 0.158187
0.771458 0.218914 0.161780
0.830145 0.222267 0.165381
0.020999 0.220057 0.115676
0.057816 0.223413 0.119152
0.098901 0.226776 0.122638
0.142842 0.230147 0.126136
0.188977 0.233526 0.129643
0.236912 0.236912 0.133161
0.286383 0.240306 0.136689
0.337197 0.243707 0.140227
0.389211 0.247115 0.143774
0.442310 0.250530 0.147331
0.496402 0.253953 0.150896
0.551409 0.257382 0.154471
0.607268 0.260819 0.158055
0.663922 0.264262 0.161648
0.721324 0.267712 0.165249
0.779432 0.271169 0.168858
0.838209 0.274633 0.172476
0.025670 0.272350 0.122510
0.063220 0.275816 0.126007
0.104752 0.279289 0.129514
0.149023 0.282768 0.133032
0.195423 0.286254 0.136559
0.243582 0.289747 0.140096
0.293245 0.293245 0.143643
0.344232 0.296751 0.147200
0.396400 0.300262 0.150765
0.449639 0.303780 0.154340
0.503860 0.307304 0.157923
0.558987 0.310834 0.161515
0.614957 0.314370 0.165116
0.671717 0.317913 0.168725
0.729217 0.321461 0.172343
0.787419 0.325016 0.175969
0.846285 0.328576 0.179602
0.030476 0.326229 0.129385
0.068695 0.329792 0.132902
0.110653 0.333360 0.136429
0.155243 0.336934 0.139966
0.201902 0.340514 0.143513
0.250279 0.344100 0.147069
0.300133 0.347691 0.150634
0.351288 0.351288 0.154208
0.403608 0.354890 0.157791
0.456987 0.358499 0.161383
0.511336 0.362112 0.164984
0.566581 0.365732 0.168592
0.622662 0.369356 0.172210
0.679525 0.372987 0.175835
0.737124 0.376622 0.179468
0.795418 0.380263 0.183110
0.854372 0.383909 0.186759
0.035401 0.381506 0.136299
0.074238 0.385154 0.139836
0.116602 0.388808 0.143382
0.161502 0.392466 0.146938
0.208413 0.396130 0.150502
0.257003 0.399799 0.154076
0.307044 0.403473 0.157659
0.358366 0.407152 0.161251
0.410837 0.410837 0.164851
0.464352 0.414526 0.168460
0.518828 0.418220 0.172076
0.574191 0.421920 0.175702
0.630381 0.425624 0.179335
0.687347 0.429333 0.182976
0.745044 0.433047 0.186624
0.803430 0.436766 0.190281
0.862471 0.440490 0.193945
0.040432 0.438036 0.143251
0.079845 0.441762 0.146807
0.122598 0.445492 0.150371
0.167797 0.449227 0.153945
0.214954 0.452967 0.157527
0.263755 0.456711 0.161118
0.313980 0.460460 0.164718
0.365465 0.464214 0.168327
0.418084 0.467973 0.171943
0.471736 0.471736 0.175568
0.526336 0.475504 0.179201
0.581816 0.479276 0.182842
0.638115 0.483053 0.186490
0.695183 0.486834 0.190146
0.752976 0.490620 0.193810
0.811454 0.494410 0.197481
0.870582 0.498204 0.201160
0.045562 0.495704 0.150240
0.085512 0.499500 0.153813
0.128639 0.503301 0.157395
0.174129 0.507106 0.160986
0.221526 0.510915 0.164586
0.270533 0.514729 0.168194
0.320939 0.518547 0.171810
0.372586 0.522369 0.175435
0.425351 0.526195 0.179067
0.479137 0.530026 0.182707
0.533861 0.533861 0.186356
0.589456 0.537700 0.190012
0.645863 0.541544 0.193675
0.703033 0.545391 0.197346
0.760921 0.549243 0.201024
0.819490 0.553099 0.204710
0.878704 0.556959 0.208402
0.050781 0.554415 0.157263
0.091238 0.558277 0.160854
0.134724 0.562142 0.164453
0.180496 0.566012 0.168061
0.228128 0.569885 0.171677
0.277337 0.573763 0.175301
0.327920 0.577644 0.178933
0.379727 0.581530 0.182573
0.432637 0.585419 0.186221
0.486555 0.589313 0.189877
0.541402 0.593210 0.193540
0.597111 0.597111 0.197211
0.653625 0.601016 0.200889
0.710896 0.604925 0.204574
0.768879 0.608838 0.208266
0.827538 0.612755 0.211966
0.886838 0.616676 0.215672
0.056083 0.614092 0.164321
0.097019 0.618014 0.167928
0.140850 0.621940 0.171544
0.186898 0.625869 0.175168
0.234760 0.629802 0.178799
0.284167 0.633739 0.182439
0.334925 0.637680 0.186087
0.386889 0.641624 0.189742
0.439942 0.645573 0.193405
0.493991 0.649524 0.197076
0.548960 0.653480 0.200753
0.604782 0.657439 0.204438
0.661402 0.661402 0.208130
0.718772 0.665368 0.211829
0.776850 0.669338 0.215535
0.835598 0.673312 0.219248
0.894983 0.677289 0.222968
0.061463 0.674668 0.171410
0.102852 0.678647 0.175034
0.147018 0.682628 0.178666
0.193333 0.686614 0.182305
0.241420 0.690603 0.185953
0.291021 0.694596 0.189608
0.341952 0.698592 0.193270
0.394071 0.702591 0.196940
0.447265 0.706594 0.200618
0.501444 0.710601 0.204303
0.556533 0.714611 0.207994
0.612467 0.718624 0.211693
0.669192 0.722641 0.215399
0.726661 0.726661 0.219111
0.784832 0.730685 0.222831
0.843670 0.734712 0.226557
0.903140 0.738742 0.230289
0.066915 0.736086 0.178532
0.108737 0.740118 0.182171
0.153226 0.744153 0.185818
0.199802 0.748191 0.189473
0.248108 0.752232 0.193135
0.297901 0.756277 0.196805
0.349001 0.760325 0.200482
0.401273 0.764377 0.204167
0.454607 0.768431 0.207858
0.508914 0.772489 0.211557
0.564122 0.776551 0.215262
0.620167 0.780615 0.218975
0.676996 0.784683 0.222694
0.734563 0.788754 0.226420
0.792828 0.792828 0.230152
0.851753 0.796905 0.233891
0.911307 0.800986 0.237636
0.072437 0.798297 0.185684
0.114671 0.802378 0.189339
0.159472 0.806463 0.193001
0.206302 0.810551 0.196670
0.254824 0.814642 0.200347
0.304805 0.818736 0.204031
0.356072 0.822834 0.207722
0.408495 0.826934 0.211421
0.461966 0.831038 0.215126
0.516401 0.835144 0.218838
0.571726 0.839254 0.222557
0.627881 0.843367 0.226282
0.684814 0.847483 0.230015
0.742479 0.851602 0.233753
0.800835 0.855724 0.237498
0.859849 0.859849 0.241250
0.919486 0.863977 0.245007
0.078023 0.861256 0.192866
0.120652 0.865385 0.196535
0.165756 0.869518 0.200212
0.212833 0.873653 0.203895
0.261567 0.877791 0.207586
0.311732 0.881932 0.211285
0.363165 0.886076 0.214990
0.415736 0.890222 0.218701
0.469344 0.894372 0.222420
0.523904 0.898525 0.226145
0.579346 0.902681 0.229877
0.635610 0.906840 0.233616
0.692646 0.911001 0.237360
0.750407 0.915166 0.241112
0.808855 0.919333 0.244869
0.867956 0.923503 0.248632
0.927676 0.927676 0.252402
0.001521 0.001521 0.129444
0.033013 0.003193 0.132961
0.071558 0.005016 0.136488
0.113728 0.006949 0.140025
0.158480 0.008968 0.143572
0.205270 0.011059 0.147128
0.253758 0.013213 0.150693
0.303709 0.015422 0.154268
0.354951 0.017681 0.157851
0.407349 0.019984 0.161443
0.460799 0.022329 0.165044
0.515214 0.024712 0.168653
0.570520 0.027131 0.172270
0.626658 0.029583 0.175896
0.683575 0.032066 0.179529
0.741224 0.034579 0.183171
0.799566 0.037121 0.186820
