04-EFFECTS-AND-FILTERS/3d-luts-cube-files/moody_dark_film.cube
# Generated by Video Auto-Editor Pipeline
TITLE "Moody Dark Film"
LUT_3D_SIZE 5
DOMAIN_MIN 0.0 0.0 0.0
DOMAIN_MAX 1.0 1.0 1.0
0.000000 0.000000 0.000000
0.154840 0.006665 0.009480
0.350830 0.015101 0.020604
0.566089 0.024367 0.032446
0.794900 0.034216 0.044781
0.014774 0.167152 0.020179
0.180083 0.180083 0.032001
0.379264 0.193158 0.044320
0.596615 0.206368 0.057022
0.827016 0.219710 0.070037
0.033475 0.378728 0.043860
0.205880 0.393336 0.056549
0.408027 0.408027 0.069553
0.627381 0.422799 0.082824
0.859324 0.437650 0.096328
0.054014 0.611104 0.069069
0.232181 0.626803 0.082332
0.437102 0.642562 0.095828
0.658380 0.658380 0.109531
0.891818 0.674256 0.123421
0.075846 0.858110 0.095327
0.258944 0.874635 0.109023
0.466476 0.891208 0.122907
0.689602 0.907828 0.136961
0.924494 0.924494 0.151171
0.002136 0.002136 0.178654
0.159696 0.009757 0.193258
0.356326 0.018554 0.207982
0.571998 0.028062 0.222818
0.801122 0.038097 0.237762
0.018216 0.172065 0.207438
0.185052 0.185052 0.222271
0.384825 0.198179 0.237210
0.602572 0.211440 0.252251
0.833276 0.224829 0.267388
0.037343 0.384288 0.236659
0.210950 0.398927 0.251696
0.413650 0.413650 0.266830
0.633384 0.428452 0.282057
0.865620 0.443333 0.297372
0.058163 0.617082 0.266271
0.237343 0.632804 0.281495
0.442784 0.648586 0.296807
0.664426 0.664426 0.312204
0.898150 0.680324 0.327683
0.080210 0.864405 0.296242
0.264193 0.880948 0.311636
0.472214 0.897539 0.327112
0.695691 0.914177 0.342667
0.930861 0.930861 0.358298
0.004840 0.004840 0.388298
0.164575 0.013009 0.404136
0.361834 0.022108 0.420041
0.577917 0.031832 0.436010
0.807352 0.042039 0.452042
0.021761 0.176999 0.419454
0.190040 0.190040 0.435421
0.390398 0.203219 0.451452
0.608537 0.216530 0.467543
0.839543 0.229967 0.483694
0.041273 0.389859 0.450861
0.216038 0.404531 0.466950
0.419284 0.419284 0.483099
0.639395 0.434117 0.499305
0.871923 0.449027 0.515569
0.062359 0.623069 0.482503
0.242523 0.638814 0.498708
0.448477 0.654618 0.514969
0.670481 0.670481 0.531286
0.904489 0.686401 0.547656
0.084611 0.870707 0.514370
0.269457 0.887268 0.530685
0.477963 0.903877 0.547053
0.701788 0.920532 0.563474
0.937234 0.937234 0.579947
0.007810 0.007810 0.611487
0.169477 0.016391 0.628103
0.367355 0.025751 0.644766
0.583845 0.035672 0.661475
0.813588 0.046038 0.678230
0.025396 0.181955 0.644152
0.195049 0.195049 0.660860
0.395983 0.208279 0.677612
0.614512 0.221639 0.694410
0.845817 0.235122 0.711251
0.045262 0.395444 0.676995
0.221145 0.410146 0.693791
0.424930 0.424930 0.710630
0.645414 0.439792 0.727513
0.878234 0.454732 0.744437
0.066598 0.629065 0.710010
0.247720 0.644833 0.726891
0.454181 0.660659 0.743814
0.676544 0.676544 0.760778
0.910834 0.692485 0.777783
0.089046 0.877015 0.743190
0.274738 0.893595 0.760153
0.483722 0.910222 0.777156
0.707894 0.926895 0.794200
0.943614 0.943614 0.811282
0.010967 0.010967 0.843954
0.174400 0.019883 0.861147
0.372889 0.029475 0.878377
0.589782 0.039577 0.895644
0.819832 0.050091 0.912946
0.029113 0.186931 0.877743
0.200078 0.200078 0.895008
0.401580 0.213358 0.912308
0.620495 0.226765 0.929644
0.852098 0.240295 0.947015
0.049305 0.401040 0.911671
0.226270 0.415773 0.929006
0.430587 0.430587 0.946375
0.651442 0.445479 0.963779
0.884551 0.460448 0.981216
0.070878 0.635070 0.945736
0.252933 0.650860 0.963138
0.459896 0.666709 0.980574
0.682615 0.682615 0.998044
0.917186 0.698578 1.000000
0.093516 0.883331 0.979932
0.280033 0.899929 0.997400
0.489492 0.916573 1.000000
0.714007 0.933264 1.000000
0.950000 0.950000 1.000000
