04-EFFECTS-AND-FILTERS/3d-luts-cube-files/pastel_aesthetic_vlog.cube
# Generated by Video Auto-Editor Pipeline
TITLE "Pastel Aesthetic Vlog"
LUT_3D_SIZE 9
DOMAIN_MIN 0.0 0.0 0.0
DOMAIN_MAX 1.0 1.0 1.0
0.051500 0.040400 0.063000
0.194159 0.040400 0.063000
0.317711 0.040400 0.063000
0.434949 0.040400 0.063000
0.548267 0.040400 0.063000
0.658756 0.040400 0.063000
0.767042 0.040400 0.063000
0.873529 0.040400 0.063000
0.978500 0.040400 0.063000
0.051500 0.183397 0.063000
0.194159 0.183397 0.063000
0.317711 0.183397 0.063000
0.434949 0.183397 0.063000
0.548267 0.183397 0.063000
0.658756 0.183397 0.063000
0.767042 0.183397 0.063000
0.873529 0.183397 0.063000
0.978500 0.183397 0.063000
0.051500 0.307243 0.063000
0.194159 0.307243 0.063000
0.317711 0.307243 0.063000
0.434949 0.307243 0.063000
0.548267 0.307243 0.063000
0.658756 0.307243 0.063000
0.767042 0.307243 0.063000
0.873529 0.307243 0.063000
0.978500 0.307243 0.063000
0.051500 0.424759 0.063000
0.194159 0.424759 0.063000
0.317711 0.424759 0.063000
0.434949 0.424759 0.063000
0.548267 0.424759 0.063000
0.658756 0.424759 0.063000
0.767042 0.424759 0.063000
0.873529 0.424759 0.063000
0.978500 0.424759 0.063000
0.051500 0.538346 0.063000
0.194159 0.538346 0.063000
0.317711 0.538346 0.063000
0.434949 0.538346 0.063000
0.548267 0.538346 0.063000
0.658756 0.538346 0.063000
0.767042 0.538346 0.063000
0.873529 0.538346 0.063000
0.978500 0.538346 0.063000
0.051500 0.649097 0.063000
0.194159 0.649097 0.063000
0.317711 0.649097 0.063000
0.434949 0.649097 0.063000
0.548267 0.649097 0.063000
0.658756 0.649097 0.063000
0.767042 0.649097 0.063000
0.873529 0.649097 0.063000
0.978500 0.649097 0.063000
0.051500 0.757640 0.063000
0.194159 0.757640 0.063000
0.317711 0.757640 0.063000
0.434949 0.757640 0.063000
0.548267 0.757640 0.063000
0.658756 0.757640 0.063000
0.767042 0.757640 0.063000
0.873529 0.757640 0.063000
0.978500 0.757640 0.063000
0.051500 0.864380 0.063000
0.194159 0.864380 0.063000
0.317711 0.864380 0.063000
0.434949 0.864380 0.063000
0.548267 0.864380 0.063000
0.658756 0.864380 0.063000
0.767042 0.864380 0.063000
0.873529 0.864380 0.063000
0.978500 0.864380 0.063000
0.051500 0.969600 0.063000
0.194159 0.969600 0.063000
0.317711 0.969600 0.063000
0.434949 0.969600 0.063000
0.548267 0.969600 0.063000
0.658756 0.969600 0.063000
0.767042 0.969600 0.063000
0.873529 0.969600 0.063000
0.978500 0.969600 0.063000
0.051500 0.040400 0.208429
0.194159 0.040400 0.208429
0.317711 0.040400 0.208429
0.434949 0.040400 0.208429
0.548267 0.040400 0.208429
0.658756 0.040400 0.208429
0.767042 0.040400 0.208429
0.873529 0.040400 0.208429
0.978500 0.040400 0.208429
0.051500 0.183397 0.208429
0.194159 0.183397 0.208429
0.317711 0.183397 0.208429
0.434949 0.183397 0.208429
0.548267 0.183397 0.208429
0.658756 0.183397 0.208429
0.767042 0.183397 0.208429
0.873529 0.183397 0.208429
0.978500 0.183397 0.208429
0.051500 0.307243 0.208429
0.194159 0.307243 0.208429
0.317711 0.307243 0.208429
0.434949 0.307243 0.208429
0.548267 0.307243 0.208429
0.658756 0.307243 0.208429
0.767042 0.307243 0.208429
0.873529 0.307243 0.208429
0.978500 0.307243 0.208429
0.051500 0.424759 0.208429
0.194159 0.424759 0.208429
0.317711 0.424759 0.208429
0.434949 0.424759 0.208429
0.548267 0.424759 0.208429
0.658756 0.424759 0.208429
0.767042 0.424759 0.208429
0.873529 0.424759 0.208429
0.978500 0.424759 0.208429
0.051500 0.538346 0.208429
0.194159 0.538346 0.208429
0.317711 0.538346 0.208429
0.434949 0.538346 0.208429
0.548267 0.538346 0.208429
0.658756 0.538346 0.208429
0.767042 0.538346 0.208429
0.873529 0.538346 0.208429
0.978500 0.538346 0.208429
0.051500 0.649097 0.208429
0.194159 0.649097 0.208429
0.317711 0.649097 0.208429
0.434949 0.649097 0.208429
0.548267 0.649097 0.208429
0.658756 0.649097 0.208429
0.767042 0.649097 0.208429
0.873529 0.649097 0.208429
0.978500 0.649097 0.208429
0.051500 0.757640 0.208429
0.194159 0.757640 0.208429
0.317711 0.757640 0.208429
0.434949 0.757640 0.208429
0.548267 0.757640 0.208429
0.658756 0.757640 0.208429
0.767042 0.757640 0.208429
0.873529 0.757640 0.208429
0.978500 0.757640 0.208429
0.051500 0.864380 0.208429
0.194159 0.864380 0.208429
0.317711 0.864380 0.208429
0.434949 0.864380 0.208429
0.548267 0.864380 0.208429
0.658756 0.864380 0.208429
0.767042 0.864380 0.208429
0.873529 0.864380 0.208429
0.978500 0.864380 0.208429
0.051500 0.969600 0.208429
0.194159 0.969600 0.208429
0.317711 0.969600 0.208429
0.434949 0.969600 0.208429
0.548267 0.969600 0.208429
0.658756 0.969600 0.208429
0.767042 0.969600 0.208429
0.873529 0.969600 0.208429
0.978500 0.969600 0.208429
0.051500 0.040400 0.334380
0.194159 0.040400 0.334380
0.317711 0.040400 0.334380
0.434949 0.040400 0.334380
0.548267 0.040400 0.334380
0.658756 0.040400 0.334380
0.767042 0.040400 0.334380
0.873529 0.040400 0.334380
0.978500 0.040400 0.334380
0.051500 0.183397 0.334380
0.194159 0.183397 0.334380
0.317711 0.183397 0.334380
0.434949 0.183397 0.334380
0.548267 0.183397 0.334380
0.658756 0.183397 0.334380
0.767042 0.183397 0.334380
0.873529 0.183397 0.334380
0.978500 0.183397 0.334380
0.051500 0.307243 0.334380
0.194159 0.307243 0.334380
0.317711 0.307243 0.334380
0.434949 0.307243 0.334380
0.548267 0.307243 0.334380
0.658756 0.307243 0.334380
0.767042 0.307243 0.334380
0.873529 0.307243 0.334380
0.978500 0.307243 0.334380
0.051500 0.424759 0.334380
0.194159 0.424759 0.334380
0.317711 0.424759 0.334380
0.434949 0.424759 0.334380
0.548267 0.424759 0.334380
0.658756 0.424759 0.334380
0.767042 0.424759 0.334380
0.873529 0.424759 0.334380
0.978500 0.424759 0.334380
0.051500 0.538346 0.334380
0.194159 0.538346 0.334380
0.317711 0.538346 0.334380
0.434949 0.538346 0.334380
0.548267 0.538346 0.334380
0.658756 0.538346 0.334380
0.767042 0.538346 0.334380
0.873529 0.538346 0.334380
0.978500 0.538346 0.334380
0.051500 0.649097 0.334380
0.194159 0.649097 0.334380
0.317711 0.649097 0.334380
0.434949 0.649097 0.334380
0.548267 0.649097 0.334380
0.658756 0.649097 0.334380
0.767042 0.649097 0.334380
0.873529 0.649097 0.334380
0.978500 0.649097 0.334380
0.051500 0.757640 0.334380
0.194159 0.757640 0.334380
0.317711 0.757640 0.334380
0.434949 0.757640 0.334380
0.548267 0.757640 0.334380
0.658756 0.757640 0.334380
0.767042 0.757640 0.334380
0.873529 0.757640 0.334380
0.978500 0.757640 0.334380
0.051500 0.864380 0.334380
0.194159 0.864380 0.334380
0.317711 0.864380 0.334380
0.434949 0.864380 0.334380
0.548267 0.864380 0.334380
0.658756 0.864380 0.334380
0.767042 0.864380 0.334380
0.873529 0.864380 0.334380
0.978500 0.864380 0.334380
0.051500 0.969600 0.334380
0.194159 0.969600 0.334380
0.317711 0.969600 0.334380
0.434949 0.969600 0.334380
0.548267 0.969600 0.334380
0.658756 0.969600 0.334380
0.767042 0.969600 0.334380
0.873529 0.969600 0.334380
0.978500 0.969600 0.334380
0.051500 0.040400 0.453895
0.194159 0.040400 0.453895
0.317711 0.040400 0.453895
0.434949 0.040400 0.453895
0.548267 0.040400 0.453895
0.658756 0.040400 0.453895
0.767042 0.040400 0.453895
0.873529 0.040400 0.453895
0.978500 0.040400 0.453895
0.051500 0.183397 0.453895
0.194159 0.183397 0.453895
0.317711 0.183397 0.453895
0.434949 0.183397 0.453895
0.548267 0.183397 0.453895
0.658756 0.183397 0.453895
0.767042 0.183397 0.453895
0.873529 0.183397 0.453895
0.978500 0.183397 0.453895
0.051500 0.307243 0.453895
0.194159 0.307243 0.453895
0.317711 0.307243 0.453895
0.434949 0.307243 0.453895
0.548267 0.307243 0.453895
0.658756 0.307243 0.453895
0.767042 0.307243 0.453895
0.873529 0.307243 0.453895
0.978500 0.307243 0.453895
0.051500 0.424759 0.453895
0.194159 0.424759 0.453895
0.317711 0.424759 0.453895
0.434949 0.424759 0.453895
0.548267 0.424759 0.453895
0.658756 0.424759 0.453895
0.767042 0.424759 0.453895
0.873529 0.424759 0.453895
0.978500 0.424759 0.453895
0.051500 0.538346 0.453895
0.194159 0.538346 0.453895
0.317711 0.538346 0.453895
0.434949 0.538346 0.453895
0.548267 0.538346 0.453895
0.658756 0.538346 0.453895
0.767042 0.538346 0.453895
0.873529 0.538346 0.453895
0.978500 0.538346 0.453895
0.051500 0.649097 0.453895
0.194159 0.649097 0.453895
0.317711 0.649097 0.453895
0.434949 0.649097 0.453895
0.548267 0.649097 0.453895
0.658756 0.649097 0.453895
0.767042 0.649097 0.453895
0.873529 0.649097 0.453895
0.978500 0.649097 0.453895
0.051500 0.757640 0.453895
0.194159 0.757640 0.453895
0.317711 0.757640 0.453895
0.434949 0.757640 0.453895
0.548267 0.757640 0.453895
0.658756 0.757640 0.453895
0.767042 0.757640 0.453895
0.873529 0.757640 0.453895
0.978500 0.757640 0.453895
0.051500 0.864380 0.453895
0.194159 0.864380 0.453895
0.317711 0.864380 0.453895
0.434949 0.864380 0.453895
0.548267 0.864380 0.453895
0.658756 0.864380 0.453895
0.767042 0.864380 0.453895
0.873529 0.864380 0.453895
0.978500 0.864380 0.453895
0.051500 0.969600 0.453895
0.194159 0.969600 0.453895
0.317711 0.969600 0.453895
0.434949 0.969600 0.453895
0.548267 0.969600 0.453895
0.658756 0.969600 0.453895
0.767042 0.969600 0.453895
0.873529 0.969600 0.453895
0.978500 0.969600 0.453895
0.051500 0.040400 0.569413
0.194159 0.040400 0.569413
0.317711 0.040400 0.569413
0.434949 0.040400 0.569413
0.548267 0.040400 0.569413
0.658756 0.040400 0.569413
0.767042 0.040400 0.569413
0.873529 0.040400 0.569413
0.978500 0.040400 0.569413
0.051500 0.183397 0.569413
0.194159 0.183397 0.569413
0.317711 0.183397 0.569413
0.434949 0.183397 0.569413
0.548267 0.183397 0.569413
0.658756 0.183397 0.569413
0.767042 0.183397 0.569413
0.873529 0.183397 0.569413
0.978500 0.183397 0.569413
0.051500 0.307243 0.569413
0.194159 0.307243 0.569413
0.317711 0.307243 0.569413
0.434949 0.307243 0.569413
0.548267 0.307243 0.569413
0.658756 0.307243 0.569413
0.767042 0.307243 0.569413
0.873529 0.307243 0.569413
0.978500 0.307243 0.569413
0.051500 0.424759 0.569413
0.194159 0.424759 0.569413
0.317711 0.424759 0.569413
0.434949 0.424759 0.569413
0.548267 0.424759 0.569413
0.658756 0.424759 0.569413
0.767042 0.424759 0.569413
0.873529 0.424759 0.569413
0.978500 0.424759 0.569413
0.051500 0.538346 0.569413
0.194159 0.538346 0.569413
0.317711 0.538346 0.569413
0.434949 0.538346 0.569413
0.548267 0.538346 0.569413
0.658756 0.538346 0.569413
0.767042 0.538346 0.569413
0.873529 0.538346 0.569413
0.978500 0.538346 0.569413
0.051500 0.649097 0.569413
0.194159 0.649097 0.569413
0.317711 0.649097 0.569413
0.434949 0.649097 0.569413
0.548267 0.649097 0.569413
0.658756 0.649097 0.569413
0.767042 0.649097 0.569413
0.873529 0.649097 0.569413
0.978500 0.649097 0.569413
0.051500 0.757640 0.569413
0.194159 0.757640 0.569413
0.317711 0.757640 0.569413
0.434949 0.757640 0.569413
0.548267 0.757640 0.569413
0.658756 0.757640 0.569413
0.767042 0.757640 0.569413
0.873529 0.757640 0.569413
0.978500 0.757640 0.569413
0.051500 0.864380 0.569413
0.194159 0.864380 0.569413
0.317711 0.864380 0.569413
0.434949 0.864380 0.569413
0.548267 0.864380 0.569413
0.658756 0.864380 0.569413
0.767042 0.864380 0.569413
0.873529 0.864380 0.569413
0.978500 0.864380 0.569413
0.051500 0.969600 0.569413
0.194159 0.969600 0.569413
0.317711 0.969600 0.569413
0.434949 0.969600 0.569413
0.548267 0.969600 0.569413
0.658756 0.969600 0.569413
0.767042 0.969600 0.569413
0.873529 0.969600 0.569413
0.978500 0.969600 0.569413
0.051500 0.040400 0.682047
0.194159 0.040400 0.682047
0.317711 0.040400 0.682047
0.434949 0.040400 0.682047
0.548267 0.040400 0.682047
0.658756 0.040400 0.682047
0.767042 0.040400 0.682047
0.873529 0.040400 0.682047
0.978500 0.040400 0.682047
0.051500 0.183397 0.682047
0.194159 0.183397 0.682047
0.317711 0.183397 0.682047
0.434949 0.183397 0.682047
0.548267 0.183397 0.682047
0.658756 0.183397 0.682047
0.767042 0.183397 0.682047
0.873529 0.183397 0.682047
0.978500 0.183397 0.682047
0.051500 0.307243 0.682047
0.194159 0.307243 0.682047
0.317711 0.307243 0.682047
0.434949 0.307243 0.682047
0.548267 0.307243 0.682047
0.658756 0.307243 0.682047
0.767042 0.307243 0.682047
0.873529 0.307243 0.682047
0.978500 0.307243 0.682047
0.051500 0.424759 0.682047
0.194159 0.424759 0.682047
0.317711 0.424759 0.682047
0.434949 0.424759 0.682047
0.548267 0.424759 0.682047
0.658756 0.424759 0.682047
0.767042 0.424759 0.682047
0.873529 0.424759 0.682047
0.978500 0.424759 0.682047
0.051500 0.538346 0.682047
0.194159 0.538346 0.682047
0.317711 0.538346 0.682047
0.434949 0.538346 0.682047
0.548267 0.538346 0.682047
0.658756 0.538346 0.682047
0.767042 0.538346 0.682047
0.873529 0.538346 0.682047
0.978500 0.538346 0.682047
0.051500 0.649097 0.682047
0.194159 0.649097 0.682047
0.317711 0.649097 0.682047
0.434949 0.649097 0.682047
0.548267 0.649097 0.682047
0.658756 0.649097 0.682047
0.767042 0.649097 0.682047
0.873529 0.649097 0.682047
0.978500 0.649097 0.682047
0.051500 0.757640 0.682047
0.194159 0.757640 0.682047
0.317711 0.757640 0.682047
0.434949 0.757640 0.682047
0.548267 0.757640 0.682047
0.658756 0.757640 0.682047
0.767042 0.757640 0.682047
0.873529 0.757640 0.682047
0.978500 0.757640 0.682047
0.051500 0.864380 0.682047
0.194159 0.864380 0.682047
0.317711 0.864380 0.682047
0.434949 0.864380 0.682047
0.548267 0.864380 0.682047
0.658756 0.864380 0.682047
0.767042 0.864380 0.682047
0.873529 0.864380 0.682047
0.978500 0.864380 0.682047
0.051500 0.969600 0.682047
0.194159 0.969600 0.682047
0.317711 0.969600 0.682047
0.434949 0.969600 0.682047
0.548267 0.969600 0.682047
0.658756 0.969600 0.682047
0.767042 0.969600 0.682047
0.873529 0.969600 0.682047
0.978500 0.969600 0.682047
0.051500 0.040400 0.792436
0.194159 0.040400 0.792436
0.317711 0.040400 0.792436
0.434949 0.040400 0.792436
0.548267 0.040400 0.792436
0.658756 0.040400 0.792436
0.767042 0.040400 0.792436
0.873529 0.040400 0.792436
0.978500 0.040400 0.792436
0.051500 0.183397 0.792436
0.194159 0.183397 0.792436
0.317711 0.183397 0.792436
0.434949 0.183397 0.792436
0.548267 0.183397 0.792436
0.658756 0.183397 0.792436
0.767042 0.183397 0.792436
0.873529 0.183397 0.792436
0.978500 0.183397 0.792436
0.051500 0.307243 0.792436
0.194159 0.307243 0.792436
0.317711 0.307243 0.792436
0.434949 0.307243 0.792436
0.548267 0.307243 0.792436
0.658756 0.307243 0.792436
0.767042 0.307243 0.792436
0.873529 0.307243 0.792436
0.978500 0.307243 0.792436
0.051500 0.424759 0.792436
0.194159 0.424759 0.792436
0.317711 0.424759 0.792436
0.434949 0.424759 0.792436
0.548267 0.424759 0.792436
0.658756 0.424759 0.792436
0.767042 0.424759 0.792436
0.873529 0.424759 0.792436
0.978500 0.424759 0.792436
0.051500 0.538346 0.792436
0.194159 0.538346 0.792436
0.317711 0.538346 0.792436
0.434949 0.538346 0.792436
0.548267 0.538346 0.792436
0.658756 0.538346 0.792436
0.767042 0.538346 0.792436
0.873529 0.538346 0.792436
0.978500 0.538346 0.792436
0.051500 0.649097 0.792436
0.194159 0.649097 0.792436
0.317711 0.649097 0.792436
0.434949 0.649097 0.792436
0.548267 0.649097 0.792436
0.658756 0.649097 0.792436
0.767042 0.649097 0.792436
0.873529 0.649097 0.792436
0.978500 0.649097 0.792436
0.051500 0.757640 0.792436
0.194159 0.757640 0.792436
0.317711 0.757640 0.792436
0.434949 0.757640 0.792436
0.548267 0.757640 0.792436
0.658756 0.757640 0.792436
0.767042 0.757640 0.792436
0.873529 0.757640 0.792436
0.978500 0.757640 0.792436
0.051500 0.864380 0.792436
0.194159 0.864380 0.792436
0.317711 0.864380 0.792436
0.434949 0.864380 0.792436
0.548267 0.864380 0.792436
0.658756 0.864380 0.792436
0.767042 0.864380 0.792436
0.873529 0.864380 0.792436
0.978500 0.864380 0.792436
0.051500 0.969600 0.792436
0.194159 0.969600 0.792436
0.317711 0.969600 0.792436
0.434949 0.969600 0.792436
0.548267 0.969600 0.792436
0.658756 0.969600 0.792436
0.767042 0.969600 0.792436
0.873529 0.969600 0.792436
0.978500 0.969600 0.792436
0.051500 0.040400 0.900990
0.194159 0.040400 0.900990
0.317711 0.040400 0.900990
0.434949 0.040400 0.900990
0.548267 0.040400 0.900990
0.658756 0.040400 0.900990
0.767042 0.040400 0.900990
0.873529 0.040400 0.900990
0.978500 0.040400 0.900990
0.051500 0.183397 0.900990
0.194159 0.183397 0.900990
0.317711 0.183397 0.900990
0.434949 0.183397 0.900990
0.548267 0.183397 0.900990
0.658756 0.183397 0.900990
0.767042 0.183397 0.900990
0.873529 0.183397 0.900990
0.978500 0.183397 0.900990
0.051500 0.307243 0.900990
0.194159 0.307243 0.900990
0.317711 0.307243 0.900990
0.434949 0.307243 0.900990
0.548267 0.307243 0.900990
0.658756 0.307243 0.900990
0.767042 0.307243 0.900990
0.873529 0.307243 0.900990
0.978500 0.307243 0.900990
0.051500 0.424759 0.900990
0.194159 0.424759 0.900990
0.317711 0.424759 0.900990
0.434949 0.424759 0.900990
0.548267 0.424759 0.900990
0.658756 0.424759 0.900990
0.767042 0.424759 0.900990
0.873529 0.424759 0.900990
0.978500 0.424759 0.900990
0.051500 0.538346 0.900990
0.194159 0.538346 0.900990
0.317711 0.538346 0.900990
0.434949 0.538346 0.900990
0.548267 0.538346 0.900990
0.658756 0.538346 0.900990
0.767042 0.538346 0.900990
0.873529 0.538346 0.900990
0.978500 0.538346 0.900990
0.051500 0.649097 0.900990
0.194159 0.649097 0.900990
0.317711 0.649097 0.900990
0.434949 0.649097 0.900990
0.548267 0.649097 0.900990
0.658756 0.649097 0.900990
0.767042 0.649097 0.900990
0.873529 0.649097 0.900990
0.978500 0.649097 0.900990
0.051500 0.757640 0.900990
0.194159 0.757640 0.900990
0.317711 0.757640 0.900990
0.434949 0.757640 0.900990
0.548267 0.757640 0.900990
0.658756 0.757640 0.900990
0.767042 0.757640 0.900990
0.873529 0.757640 0.900990
0.978500 0.757640 0.900990
0.051500 0.864380 0.900990
0.194159 0.864380 0.900990
0.317711 0.864380 0.900990
0.434949 0.864380 0.900990
0.548267 0.864380 0.900990
0.658756 0.864380 0.900990
0.767042 0.864380 0.900990
0.873529 0.864380 0.900990
0.978500 0.864380 0.900990
0.051500 0.969600 0.900990
0.194159 0.969600 0.900990
0.317711 0.969600 0.900990
0.434949 0.969600 0.900990
0.548267 0.969600 0.900990
0.658756 0.969600 0.900990
0.767042 0.969600 0.900990
0.873529 0.969600 0.900990
0.978500 0.969600 0.900990
0.051500 0.040400 1.000000
0.194159 0.040400 1.000000
0.317711 0.040400 1.000000
0.434949 0.040400 1.000000
0.548267 0.040400 1.000000
0.658756 0.040400 1.000000
0.767042 0.040400 1.000000
0.873529 0.040400 1.000000
0.978500 0.040400 1.000000
0.051500 0.183397 1.000000
0.194159 0.183397 1.000000
0.317711 0.183397 1.000000
0.434949 0.183397 1.000000
0.548267 0.183397 1.000000
0.658756 0.183397 1.000000
0.767042 0.183397 1.000000
0.873529 0.183397 1.000000
0.978500 0.183397 1.000000
0.051500 0.307243 1.000000
0.194159 0.307243 1.000000
0.317711 0.307243 1.000000
0.434949 0.307243 1.000000
0.548267 0.307243 1.000000
0.658756 0.307243 1.000000
0.767042 0.307243 1.000000
0.873529 0.307243 1.000000
0.978500 0.307243 1.000000
0.051500 0.424759 1.000000
0.194159 0.424759 1.000000
0.317711 0.424759 1.000000
0.434949 0.424759 1.000000
0.548267 0.424759 1.000000
0.658756 0.424759 1.000000
0.767042 0.424759 1.000000
0.873529 0.424759 1.000000
0.978500 0.424759 1.000000
0.051500 0.538346 1.000000
0.194159 0.538346 1.000000
0.317711 0.538346 1.000000
0.434949 0.538346 1.000000
0.548267 0.538346 1.000000
0.658756 0.538346 1.000000
0.767042 0.538346 1.000000
0.873529 0.538346 1.000000
0.978500 0.538346 1.000000
0.051500 0.649097 1.000000
0.194159 0.649097 1.000000
0.317711 0.649097 1.000000
0.434949 0.649097 1.000000
0.548267 0.649097 1.000000
0.658756 0.649097 1.000000
0.767042 0.649097 1.000000
0.873529 0.649097 1.000000
0.978500 0.649097 1.000000
0.051500 0.757640 1.000000
0.194159 0.757640 1.000000
0.317711 0.757640 1.000000
0.434949 0.757640 1.000000
0.548267 0.757640 1.000000
0.658756 0.757640 1.000000
0.767042 0.757640 1.000000
0.873529 0.757640 1.000000
0.978500 0.757640 1.000000
0.051500 0.864380 1.000000
0.194159 0.864380 1.000000
0.317711 0.864380 1.000000
0.434949 0.864380 1.000000
0.548267 0.864380 1.000000
0.658756 0.864380 1.000000
0.767042 0.864380 1.000000
0.873529 0.864380 1.000000
0.978500 0.864380 1.000000
0.051500 0.969600 1.000000
0.194159 0.969600 1.000000
0.317711 0.969600 1.000000
0.434949 0.969600 1.000000
0.548267 0.969600 1.000000
0.658756 0.969600 1.000000
0.767042 0.969600 1.000000
0.873529 0.969600 1.000000
0.978500 0.969600 1.000000
