04-EFFECTS-AND-FILTERS/3d-luts-cube-files/pastel_aesthetic_vlog.cube
# Generated by Video Auto-Editor Pipeline
TITLE "Pastel Aesthetic Vlog"
LUT_3D_SIZE 5
DOMAIN_MIN 0.0 0.0 0.0
DOMAIN_MAX 1.0 1.0 1.0
0.051500 0.040400 0.063000
0.317711 0.040400 0.063000
0.548267 0.040400 0.063000
0.767042 0.040400 0.063000
0.978500 0.040400 0.063000
0.051500 0.307243 0.063000
0.317711 0.307243 0.063000
0.548267 0.307243 0.063000
0.767042 0.307243 0.063000
0.978500 0.307243 0.063000
0.051500 0.538346 0.063000
0.317711 0.538346 0.063000
0.548267 0.538346 0.063000
0.767042 0.538346 0.063000
0.978500 0.538346 0.063000
0.051500 0.757640 0.063000
0.317711 0.757640 0.063000
0.548267 0.757640 0.063000
0.767042 0.757640 0.063000
0.978500 0.757640 0.063000
0.051500 0.969600 0.063000
0.317711 0.969600 0.063000
0.548267 0.969600 0.063000
0.767042 0.969600 0.063000
0.978500 0.969600 0.063000
0.051500 0.040400 0.334380
0.317711 0.040400 0.334380
0.548267 0.040400 0.334380
0.767042 0.040400 0.334380
0.978500 0.040400 0.334380
0.051500 0.307243 0.334380
0.317711 0.307243 0.334380
0.548267 0.307243 0.334380
0.767042 0.307243 0.334380
0.978500 0.307243 0.334380
0.051500 0.538346 0.334380
0.317711 0.538346 0.334380
0.548267 0.538346 0.334380
0.767042 0.538346 0.334380
0.978500 0.538346 0.334380
0.051500 0.757640 0.334380
0.317711 0.757640 0.334380
0.548267 0.757640 0.334380
0.767042 0.757640 0.334380
0.978500 0.757640 0.334380
0.051500 0.969600 0.334380
0.317711 0.969600 0.334380
0.548267 0.969600 0.334380
0.767042 0.969600 0.334380
0.978500 0.969600 0.334380
0.051500 0.040400 0.569413
0.317711 0.040400 0.569413
0.548267 0.040400 0.569413
0.767042 0.040400 0.569413
0.978500 0.040400 0.569413
0.051500 0.307243 0.569413
0.317711 0.307243 0.569413
0.548267 0.307243 0.569413
0.767042 0.307243 0.569413
0.978500 0.307243 0.569413
0.051500 0.538346 0.569413
0.317711 0.538346 0.569413
0.548267 0.538346 0.569413
0.767042 0.538346 0.569413
0.978500 0.538346 0.569413
0.051500 0.757640 0.569413
0.317711 0.757640 0.569413
0.548267 0.757640 0.569413
0.767042 0.757640 0.569413
0.978500 0.757640 0.569413
0.051500 0.969600 0.569413
0.317711 0.969600 0.569413
0.548267 0.969600 0.569413
0.767042 0.969600 0.569413
0.978500 0.969600 0.569413
0.051500 0.040400 0.792436
0.317711 0.040400 0.792436
0.548267 0.040400 0.792436
0.767042 0.040400 0.792436
0.978500 0.040400 0.792436
0.051500 0.307243 0.792436
0.317711 0.307243 0.792436
0.548267 0.307243 0.792436
0.767042 0.307243 0.792436
0.978500 0.307243 0.792436
0.051500 0.538346 0.792436
0.317711 0.538346 0.792436
0.548267 0.538346 0.792436
0.767042 0.538346 0.792436
0.978500 0.538346 0.792436
0.051500 0.757640 0.792436
0.317711 0.757640 0.792436
0.548267 0.757640 0.792436
0.767042 0.757640 0.792436
0.978500 0.757640 0.792436
0.051500 0.969600 0.792436
0.317711 0.969600 0.792436
0.548267 0.969600 0.792436
0.767042 0.969600 0.792436
0.978500 0.969600 0.792436
0.051500 0.040400 1.000000
0.317711 0.040400 1.000000
0.548267 0.040400 1.000000
0.767042 0.040400 1.000000
0.978500 0.040400 1.000000
0.051500 0.307243 1.000000
0.317711 0.307243 1.000000
0.548267 0.307243 1.000000
0.767042 0.307243 1.000000
0.978500 0.307243 1.000000
0.051500 0.538346 1.000000
0.317711 0.538346 1.000000
0.548267 0.538346 1.000000
0.767042 0.538346 1.000000
0.978500 0.538346 1.000000
0.051500 0.757640 1.000000
0.317711 0.757640 1.000000
0.548267 0.757640 1.000000
0.767042 0.757640 1.000000
0.978500 0.757640 1.000000
0.051500 0.969600 1.000000
0.317711 0.969600 1.000000
0.548267 0.969600 1.000000
0.767042 0.969600 1.000000
0.978500 0.969600 1.000000
