04-EFFECTS-AND-FILTERS/3d-luts-cube-files/pastel_aesthetic_vlog.cube
# Generated by Video Auto-Editor Pipeline
TITLE "Pastel Aesthetic Vlog"
LUT_3D_SIZE 17
DOMAIN_MIN 0.0 0.0 0.0
DOMAIN_MAX 1.0 1.0 1.0
0.051500 0.040400 0.063000
0.127949 0.040400 0.063000
0.194159 0.040400 0.063000
0.256985 0.040400 0.063000
0.317711 0.040400 0.063000
0.376920 0.040400 0.063000
0.434949 0.040400 0.063000
0.492014 0.040400 0.063000
0.548267 0.040400 0.063000
0.603819 0.040400 0.063000
0.658756 0.040400 0.063000
0.713145 0.040400 0.063000
0.767042 0.040400 0.063000
0.820490 0.040400 0.063000
0.873529 0.040400 0.063000
0.926189 0.040400 0.063000
0.978500 0.040400 0.063000
0.051500 0.117030 0.063000
0.127949 0.117030 0.063000
0.194159 0.117030 0.063000
0.256985 0.117030 0.063000
0.317711 0.117030 0.063000
0.376920 0.117030 0.063000
0.434949 0.117030 0.063000
0.492014 0.117030 0.063000
0.548267 0.117030 0.063000
0.603819 0.117030 0.063000
0.658756 0.117030 0.063000
0.713145 0.117030 0.063000
0.767042 0.117030 0.063000
0.820490 0.117030 0.063000
0.873529 0.117030 0.063000
0.926189 0.117030 0.063000
0.978500 0.117030 0.063000
0.051500 0.183397 0.063000
0.127949 0.183397 0.063000
0.194159 0.183397 0.063000
0.256985 0.183397 0.063000
0.317711 0.183397 0.063000
0.376920 0.183397 0.063000
0.434949 0.183397 0.063000
0.492014 0.183397 0.063000
0.548267 0.183397 0.063000
0.603819 0.183397 0.063000
0.658756 0.183397 0.063000
0.713145 0.183397 0.063000
0.767042 0.183397 0.063000
0.820490 0.183397 0.063000
0.873529 0.183397 0.063000
0.926189 0.183397 0.063000
0.978500 0.183397 0.063000
0.051500 0.246373 0.063000
0.127949 0.246373 0.063000
0.194159 0.246373 0.063000
0.256985 0.246373 0.063000
0.317711 0.246373 0.063000
0.376920 0.246373 0.063000
0.434949 0.246373 0.063000
0.492014 0.246373 0.063000
0.548267 0.246373 0.063000
0.603819 0.246373 0.063000
0.658756 0.246373 0.063000
0.713145 0.246373 0.063000
0.767042 0.246373 0.063000
0.820490 0.246373 0.063000
0.873529 0.246373 0.063000
0.926189 0.246373 0.063000
0.978500 0.246373 0.063000
0.051500 0.307243 0.063000
0.127949 0.307243 0.063000
0.194159 0.307243 0.063000
0.256985 0.307243 0.063000
0.317711 0.307243 0.063000
0.376920 0.307243 0.063000
0.434949 0.307243 0.063000
0.492014 0.307243 0.063000
0.548267 0.307243 0.063000
0.603819 0.307243 0.063000
0.658756 0.307243 0.063000
0.713145 0.307243 0.063000
0.767042 0.307243 0.063000
0.820490 0.307243 0.063000
0.873529 0.307243 0.063000
0.926189 0.307243 0.063000
0.978500 0.307243 0.063000
0.051500 0.366593 0.063000
0.127949 0.366593 0.063000
0.194159 0.366593 0.063000
0.256985 0.366593 0.063000
0.317711 0.366593 0.063000
0.376920 0.366593 0.063000
0.434949 0.366593 0.063000
0.492014 0.366593 0.063000
0.548267 0.366593 0.063000
0.603819 0.366593 0.063000
0.658756 0.366593 0.063000
0.713145 0.366593 0.063000
0.767042 0.366593 0.063000
0.820490 0.366593 0.063000
0.873529 0.366593 0.063000
0.926189 0.366593 0.063000
0.978500 0.366593 0.063000
0.051500 0.424759 0.063000
0.127949 0.424759 0.063000
0.194159 0.424759 0.063000
0.256985 0.424759 0.063000
0.317711 0.424759 0.063000
0.376920 0.424759 0.063000
0.434949 0.424759 0.063000
0.492014 0.424759 0.063000
0.548267 0.424759 0.063000
0.603819 0.424759 0.063000
0.658756 0.424759 0.063000
0.713145 0.424759 0.063000
0.767042 0.424759 0.063000
0.820490 0.424759 0.063000
0.873529 0.424759 0.063000
0.926189 0.424759 0.063000
0.978500 0.424759 0.063000
0.051500 0.481960 0.063000
0.127949 0.481960 0.063000
0.194159 0.481960 0.063000
0.256985 0.481960 0.063000
0.317711 0.481960 0.063000
0.376920 0.481960 0.063000
0.434949 0.481960 0.063000
0.492014 0.481960 0.063000
0.548267 0.481960 0.063000
0.603819 0.481960 0.063000
0.658756 0.481960 0.063000
0.713145 0.481960 0.063000
0.767042 0.481960 0.063000
0.820490 0.481960 0.063000
0.873529 0.481960 0.063000
0.926189 0.481960 0.063000
0.978500 0.481960 0.063000
0.051500 0.538346 0.063000
0.127949 0.538346 0.063000
0.194159 0.538346 0.063000
0.256985 0.538346 0.063000
0.317711 0.538346 0.063000
0.376920 0.538346 0.063000
0.434949 0.538346 0.063000
0.492014 0.538346 0.063000
0.548267 0.538346 0.063000
0.603819 0.538346 0.063000
0.658756 0.538346 0.063000
0.713145 0.538346 0.063000
0.767042 0.538346 0.063000
0.820490 0.538346 0.063000
0.873529 0.538346 0.063000
0.926189 0.538346 0.063000
0.978500 0.538346 0.063000
0.051500 0.594030 0.063000
0.127949 0.594030 0.063000
0.194159 0.594030 0.063000
0.256985 0.594030 0.063000
0.317711 0.594030 0.063000
0.376920 0.594030 0.063000
0.434949 0.594030 0.063000
0.492014 0.594030 0.063000
0.548267 0.594030 0.063000
0.603819 0.594030 0.063000
0.658756 0.594030 0.063000
0.713145 0.594030 0.063000
0.767042 0.594030 0.063000
0.820490 0.594030 0.063000
0.873529 0.594030 0.063000
0.926189 0.594030 0.063000
0.978500 0.594030 0.063000
0.051500 0.649097 0.063000
0.127949 0.649097 0.063000
0.194159 0.649097 0.063000
0.256985 0.649097 0.063000
0.317711 0.649097 0.063000
0.376920 0.649097 0.063000
0.434949 0.649097 0.063000
0.492014 0.649097 0.063000
0.548267 0.649097 0.063000
0.603819 0.649097 0.063000
0.658756 0.649097 0.063000
0.713145 0.649097 0.063000
0.767042 0.649097 0.063000
0.820490 0.649097 0.063000
0.873529 0.649097 0.063000
0.926189 0.649097 0.063000
0.978500 0.649097 0.063000
0.051500 0.703615 0.063000
0.127949 0.703615 0.063000
0.194159 0.703615 0.063000
0.256985 0.703615 0.063000
0.317711 0.703615 0.063000
0.376920 0.703615 0.063000
0.434949 0.703615 0.063000
0.492014 0.703615 0.063000
0.548267 0.703615 0.063000
0.603819 0.703615 0.063000
0.658756 0.703615 0.063000
0.713145 0.703615 0.063000
0.767042 0.703615 0.063000
0.820490 0.703615 0.063000
0.873529 0.703615 0.063000
0.926189 0.703615 0.063000
0.978500 0.703615 0.063000
0.051500 0.757640 0.063000
0.127949 0.757640 0.063000
0.194159 0.757640 0.063000
0.256985 0.757640 0.063000
0.317711 0.757640 0.063000
0.376920 0.757640 0.063000
0.434949 0.757640 0.063000
0.492014 0.757640 0.063000
0.548267 0.757640 0.063000
0.603819 0.757640 0.063000
0.658756 0.757640 0.063000
0.713145 0.757640 0.063000
0.767042 0.757640 0.063000
0.820490 0.757640 0.063000
0.873529 0.757640 0.063000
0.926189 0.757640 0.063000
0.978500 0.757640 0.063000
0.051500 0.811215 0.063000
0.127949 0.811215 0.063000
0.194159 0.811215 0.063000
0.256985 0.811215 0.063000
0.317711 0.811215 0.063000
0.376920 0.811215 0.063000
0.434949 0.811215 0.063000
0.492014 0.811215 0.063000
0.548267 0.811215 0.063000
0.603819 0.811215 0.063000
0.658756 0.811215 0.063000
0.713145 0.811215 0.063000
0.767042 0.811215 0.063000
0.820490 0.811215 0.063000
0.873529 0.811215 0.063000
0.926189 0.811215 0.063000
0.978500 0.811215 0.063000
0.051500 0.864380 0.063000
0.127949 0.864380 0.063000
0.194159 0.864380 0.063000
0.256985 0.864380 0.063000
0.317711 0.864380 0.063000
0.376920 0.864380 0.063000
0.434949 0.864380 0.063000
0.492014 0.864380 0.063000
0.548267 0.864380 0.063000
0.603819 0.864380 0.063000
0.658756 0.864380 0.063000
0.713145 0.864380 0.063000
0.767042 0.864380 0.063000
0.820490 0.864380 0.063000
0.873529 0.864380 0.063000
0.926189 0.864380 0.063000
0.978500 0.864380 0.063000
0.051500 0.917165 0.063000
0.127949 0.917165 0.063000
0.194159 0.917165 0.063000
0.256985 0.917165 0.063000
0.317711 0.917165 0.063000
0.376920 0.917165 0.063000
0.434949 0.917165 0.063000
0.492014 0.917165 0.063000
0.548267 0.917165 0.063000
0.603819 0.917165 0.063000
0.658756 0.917165 0.063000
0.713145 0.917165 0.063000
0.767042 0.917165 0.063000
0.820490 0.917165 0.063000
0.873529 0.917165 0.063000
0.926189 0.917165 0.063000
0.978500 0.917165 0.063000
0.051500 0.969600 0.063000
0.127949 0.969600 0.063000
0.194159 0.969600 0.063000
0.256985 0.969600 0.063000
0.317711 0.969600 0.063000
0.376920 0.969600 0.063000
0.434949 0.969600 0.063000
0.492014 0.969600 0.063000
0.548267 0.969600 0.063000
0.603819 0.969600 0.063000
0.658756 0.969600 0.063000
0.713145 0.969600 0.063000
0.767042 0.969600 0.063000
0.820490 0.969600 0.063000
0.873529 0.969600 0.063000
0.926189 0.969600 0.063000
0.978500 0.969600 0.063000
0.051500 0.040400 0.140933
0.127949 0.040400 0.140933
0.194159 0.040400 0.140933
0.256985 0.040400 0.140933
0.317711 0.040400 0.140933
0.376920 0.040400 0.140933
0.434949 0.040400 0.140933
0.492014 0.040400 0.140933
0.548267 0.040400 0.140933
0.603819 0.040400 0.140933
0.658756 0.040400 0.140933
0.713145 0.040400 0.140933
0.767042 0.040400 0.140933
0.820490 0.040400 0.140933
0.873529 0.040400 0.140933
0.926189 0.040400 0.140933
0.978500 0.040400 0.140933
0.051500 0.117030 0.140933
0.127949 0.117030 0.140933
0.194159 0.117030 0.140933
0.256985 0.117030 0.140933
0.317711 0.117030 0.140933
0.376920 0.117030 0.140933
0.434949 0.117030 0.140933
0.492014 0.117030 0.140933
0.548267 0.117030 0.140933
0.603819 0.117030 0.140933
0.658756 0.117030 0.140933
0.713145 0.117030 0.140933
0.767042 0.117030 0.140933
0.820490 0.117030 0.140933
0.873529 0.117030 0.140933
0.926189 0.117030 0.140933
0.978500 0.117030 0.140933
0.051500 0.183397 0.140933
0.127949 0.183397 0.140933
0.194159 0.183397 0.140933
0.256985 0.183397 0.140933
0.317711 0.183397 0.140933
0.376920 0.183397 0.140933
0.434949 0.183397 0.140933
0.492014 0.183397 0.140933
0.548267 0.183397 0.140933
0.603819 0.183397 0.140933
0.658756 0.183397 0.140933
0.713145 0.183397 0.140933
0.767042 0.183397 0.140933
0.820490 0.183397 0.140933
0.873529 0.183397 0.140933
0.926189 0.183397 0.140933
0.978500 0.183397 0.140933
0.051500 0.246373 0.140933
0.127949 0.246373 0.140933
0.194159 0.246373 0.140933
0.256985 0.246373 0.140933
0.317711 0.246373 0.140933
0.376920 0.246373 0.140933
0.434949 0.246373 0.140933
0.492014 0.246373 0.140933
0.548267 0.246373 0.140933
0.603819 0.246373 0.140933
0.658756 0.246373 0.140933
0.713145 0.246373 0.140933
0.767042 0.246373 0.140933
0.820490 0.246373 0.140933
0.873529 0.246373 0.140933
0.926189 0.246373 0.140933
0.978500 0.246373 0.140933
0.051500 0.307243 0.140933
0.127949 0.307243 0.140933
0.194159 0.307243 0.140933
0.256985 0.307243 0.140933
0.317711 0.307243 0.140933
0.376920 0.307243 0.140933
0.434949 0.307243 0.140933
0.492014 0.307243 0.140933
0.548267 0.307243 0.140933
0.603819 0.307243 0.140933
0.658756 0.307243 0.140933
0.713145 0.307243 0.140933
0.767042 0.307243 0.140933
0.820490 0.307243 0.140933
0.873529 0.307243 0.140933
0.926189 0.307243 0.140933
0.978500 0.307243 0.140933
0.051500 0.366593 0.140933
0.127949 0.366593 0.140933
0.194159 0.366593 0.140933
0.256985 0.366593 0.140933
0.317711 0.366593 0.140933
0.376920 0.366593 0.140933
0.434949 0.366593 0.140933
0.492014 0.366593 0.140933
0.548267 0.366593 0.140933
0.603819 0.366593 0.140933
0.658756 0.366593 0.140933
0.713145 0.366593 0.140933
0.767042 0.366593 0.140933
0.820490 0.366593 0.140933
0.873529 0.366593 0.140933
0.926189 0.366593 0.140933
0.978500 0.366593 0.140933
0.051500 0.424759 0.140933
0.127949 0.424759 0.140933
0.194159 0.424759 0.140933
0.256985 0.424759 0.140933
0.317711 0.424759 0.140933
0.376920 0.424759 0.140933
0.434949 0.424759 0.140933
0.492014 0.424759 0.140933
0.548267 0.424759 0.140933
0.603819 0.424759 0.140933
0.658756 0.424759 0.140933
0.713145 0.424759 0.140933
0.767042 0.424759 0.140933
0.820490 0.424759 0.140933
0.873529 0.424759 0.140933
0.926189 0.424759 0.140933
0.978500 0.424759 0.140933
0.051500 0.481960 0.140933
0.127949 0.481960 0.140933
0.194159 0.481960 0.140933
0.256985 0.481960 0.140933
0.317711 0.481960 0.140933
0.376920 0.481960 0.140933
0.434949 0.481960 0.140933
0.492014 0.481960 0.140933
0.548267 0.481960 0.140933
0.603819 0.481960 0.140933
0.658756 0.481960 0.140933
0.713145 0.481960 0.140933
0.767042 0.481960 0.140933
0.820490 0.481960 0.140933
0.873529 0.481960 0.140933
0.926189 0.481960 0.140933
0.978500 0.481960 0.140933
0.051500 0.538346 0.140933
0.127949 0.538346 0.140933
0.194159 0.538346 0.140933
0.256985 0.538346 0.140933
0.317711 0.538346 0.140933
0.376920 0.538346 0.140933
0.434949 0.538346 0.140933
0.492014 0.538346 0.140933
0.548267 0.538346 0.140933
0.603819 0.538346 0.140933
0.658756 0.538346 0.140933
0.713145 0.538346 0.140933
0.767042 0.538346 0.140933
0.820490 0.538346 0.140933
0.873529 0.538346 0.140933
0.926189 0.538346 0.140933
0.978500 0.538346 0.140933
0.051500 0.594030 0.140933
0.127949 0.594030 0.140933
0.194159 0.594030 0.140933
0.256985 0.594030 0.140933
0.317711 0.594030 0.140933
0.376920 0.594030 0.140933
0.434949 0.594030 0.140933
0.492014 0.594030 0.140933
0.548267 0.594030 0.140933
0.603819 0.594030 0.140933
0.658756 0.594030 0.140933
0.713145 0.594030 0.140933
0.767042 0.594030 0.140933
0.820490 0.594030 0.140933
0.873529 0.594030 0.140933
0.926189 0.594030 0.140933
0.978500 0.594030 0.140933
0.051500 0.649097 0.140933
0.127949 0.649097 0.140933
0.194159 0.649097 0.140933
0.256985 0.649097 0.140933
0.317711 0.649097 0.140933
0.376920 0.649097 0.140933
0.434949 0.649097 0.140933
0.492014 0.649097 0.140933
0.548267 0.649097 0.140933
0.603819 0.649097 0.140933
0.658756 0.649097 0.140933
0.713145 0.649097 0.140933
0.767042 0.649097 0.140933
0.820490 0.649097 0.140933
0.873529 0.649097 0.140933
0.926189 0.649097 0.140933
0.978500 0.649097 0.140933
0.051500 0.703615 0.140933
0.127949 0.703615 0.140933
0.194159 0.703615 0.140933
0.256985 0.703615 0.140933
0.317711 0.703615 0.140933
0.376920 0.703615 0.140933
0.434949 0.703615 0.140933
0.492014 0.703615 0.140933
0.548267 0.703615 0.140933
0.603819 0.703615 0.140933
0.658756 0.703615 0.140933
0.713145 0.703615 0.140933
0.767042 0.703615 0.140933
0.820490 0.703615 0.140933
0.873529 0.703615 0.140933
0.926189 0.703615 0.140933
0.978500 0.703615 0.140933
0.051500 0.757640 0.140933
0.127949 0.757640 0.140933
0.194159 0.757640 0.140933
0.256985 0.757640 0.140933
0.317711 0.757640 0.140933
0.376920 0.757640 0.140933
0.434949 0.757640 0.140933
0.492014 0.757640 0.140933
0.548267 0.757640 0.140933
0.603819 0.757640 0.140933
0.658756 0.757640 0.140933
0.713145 0.757640 0.140933
0.767042 0.757640 0.140933
0.820490 0.757640 0.140933
0.873529 0.757640 0.140933
0.926189 0.757640 0.140933
0.978500 0.757640 0.140933
0.051500 0.811215 0.140933
0.127949 0.811215 0.140933
0.194159 0.811215 0.140933
0.256985 0.811215 0.140933
0.317711 0.811215 0.140933
0.376920 0.811215 0.140933
0.434949 0.811215 0.140933
0.492014 0.811215 0.140933
0.548267 0.811215 0.140933
0.603819 0.811215 0.140933
0.658756 0.811215 0.140933
0.713145 0.811215 0.140933
0.767042 0.811215 0.140933
0.820490 0.811215 0.140933
0.873529 0.811215 0.140933
0.926189 0.811215 0.140933
0.978500 0.811215 0.140933
0.051500 0.864380 0.140933
0.127949 0.864380 0.140933
0.194159 0.864380 0.140933
0.256985 0.864380 0.140933
0.317711 0.864380 0.140933
0.376920 0.864380 0.140933
0.434949 0.864380 0.140933
0.492014 0.864380 0.140933
0.548267 0.864380 0.140933
0.603819 0.864380 0.140933
0.658756 0.864380 0.140933
0.713145 0.864380 0.140933
0.767042 0.864380 0.140933
0.820490 0.864380 0.140933
0.873529 0.864380 0.140933
0.926189 0.864380 0.140933
0.978500 0.864380 0.140933
0.051500 0.917165 0.140933
0.127949 0.917165 0.140933
0.194159 0.917165 0.140933
0.256985 0.917165 0.140933
0.317711 0.917165 0.140933
0.376920 0.917165 0.140933
0.434949 0.917165 0.140933
0.492014 0.917165 0.140933
0.548267 0.917165 0.140933
0.603819 0.917165 0.140933
0.658756 0.917165 0.140933
0.713145 0.917165 0.140933
0.767042 0.917165 0.140933
0.820490 0.917165 0.140933
0.873529 0.917165 0.140933
0.926189 0.917165 0.140933
0.978500 0.917165 0.140933
0.051500 0.969600 0.140933
0.127949 0.969600 0.140933
0.194159 0.969600 0.140933
0.256985 0.969600 0.140933
0.317711 0.969600 0.140933
0.376920 0.969600 0.140933
0.434949 0.969600 0.140933
0.492014 0.969600 0.140933
0.548267 0.969600 0.140933
0.603819 0.969600 0.140933
0.658756 0.969600 0.140933
0.713145 0.969600 0.140933
0.767042 0.969600 0.140933
0.820490 0.969600 0.140933
0.873529 0.969600 0.140933
0.926189 0.969600 0.140933
0.978500 0.969600 0.140933
0.051500 0.040400 0.208429
0.127949 0.040400 0.208429
0.194159 0.040400 0.208429
0.256985 0.040400 0.208429
0.317711 0.040400 0.208429
0.376920 0.040400 0.208429
0.434949 0.040400 0.208429
0.492014 0.040400 0.208429
0.548267 0.040400 0.208429
0.603819 0.040400 0.208429
0.658756 0.040400 0.208429
0.713145 0.040400 0.208429
0.767042 0.040400 0.208429
0.820490 0.040400 0.208429
0.873529 0.040400 0.208429
0.926189 0.040400 0.208429
0.978500 0.040400 0.208429
0.051500 0.117030 0.208429
0.127949 0.117030 0.208429
0.194159 0.117030 0.208429
0.256985 0.117030 0.208429
0.317711 0.117030 0.208429
0.376920 0.117030 0.208429
0.434949 0.117030 0.208429
0.492014 0.117030 0.208429
0.548267 0.117030 0.208429
0.603819 0.117030 0.208429
0.658756 0.117030 0.208429
0.713145 0.117030 0.208429
0.767042 0.117030 0.208429
0.820490 0.117030 0.208429
0.873529 0.117030 0.208429
0.926189 0.117030 0.208429
0.978500 0.117030 0.208429
0.051500 0.183397 0.208429
0.127949 0.183397 0.208429
0.194159 0.183397 0.208429
0.256985 0.183397 0.208429
0.317711 0.183397 0.208429
0.376920 0.183397 0.208429
0.434949 0.183397 0.208429
0.492014 0.183397 0.208429
0.548267 0.183397 0.208429
0.603819 0.183397 0.208429
0.658756 0.183397 0.208429
0.713145 0.183397 0.208429
0.767042 0.183397 0.208429
0.820490 0.183397 0.208429
0.873529 0.183397 0.208429
0.926189 0.183397 0.208429
0.978500 0.183397 0.208429
0.051500 0.246373 0.208429
0.127949 0.246373 0.208429
0.194159 0.246373 0.208429
0.256985 0.246373 0.208429
0.317711 0.246373 0.208429
0.376920 0.246373 0.208429
0.434949 0.246373 0.208429
0.492014 0.246373 0.208429
0.548267 0.246373 0.208429
0.603819 0.246373 0.208429
0.658756 0.246373 0.208429
0.713145 0.246373 0.208429
0.767042 0.246373 0.208429
0.820490 0.246373 0.208429
0.873529 0.246373 0.208429
0.926189 0.246373 0.208429
0.978500 0.246373 0.208429
0.051500 0.307243 0.208429
0.127949 0.307243 0.208429
0.194159 0.307243 0.208429
0.256985 0.307243 0.208429
0.317711 0.307243 0.208429
0.376920 0.307243 0.208429
0.434949 0.307243 0.208429
0.492014 0.307243 0.208429
0.548267 0.307243 0.208429
0.603819 0.307243 0.208429
0.658756 0.307243 0.208429
0.713145 0.307243 0.208429
0.767042 0.307243 0.208429
0.820490 0.307243 0.208429
0.873529 0.307243 0.208429
0.926189 0.307243 0.208429
0.978500 0.307243 0.208429
0.051500 0.366593 0.208429
0.127949 0.366593 0.208429
0.194159 0.366593 0.208429
0.256985 0.366593 0.208429
0.317711 0.366593 0.208429
0.376920 0.366593 0.208429
0.434949 0.366593 0.208429
0.492014 0.366593 0.208429
0.548267 0.366593 0.208429
0.603819 0.366593 0.208429
0.658756 0.366593 0.208429
0.713145 0.366593 0.208429
0.767042 0.366593 0.208429
0.820490 0.366593 0.208429
0.873529 0.366593 0.208429
0.926189 0.366593 0.208429
0.978500 0.366593 0.208429
0.051500 0.424759 0.208429
0.127949 0.424759 0.208429
0.194159 0.424759 0.208429
0.256985 0.424759 0.208429
0.317711 0.424759 0.208429
0.376920 0.424759 0.208429
0.434949 0.424759 0.208429
0.492014 0.424759 0.208429
0.548267 0.424759 0.208429
0.603819 0.424759 0.208429
0.658756 0.424759 0.208429
0.713145 0.424759 0.208429
0.767042 0.424759 0.208429
0.820490 0.424759 0.208429
0.873529 0.424759 0.208429
0.926189 0.424759 0.208429
0.978500 0.424759 0.208429
0.051500 0.481960 0.208429
0.127949 0.481960 0.208429
0.194159 0.481960 0.208429
0.256985 0.481960 0.208429
0.317711 0.481960 0.208429
0.376920 0.481960 0.208429
0.434949 0.481960 0.208429
0.492014 0.481960 0.208429
0.548267 0.481960 0.208429
0.603819 0.481960 0.208429
0.658756 0.481960 0.208429
0.713145 0.481960 0.208429
0.767042 0.481960 0.208429
0.820490 0.481960 0.208429
0.873529 0.481960 0.208429
0.926189 0.481960 0.208429
0.978500 0.481960 0.208429
0.051500 0.538346 0.208429
0.127949 0.538346 0.208429
0.194159 0.538346 0.208429
0.256985 0.538346 0.208429
0.317711 0.538346 0.208429
0.376920 0.538346 0.208429
0.434949 0.538346 0.208429
0.492014 0.538346 0.208429
0.548267 0.538346 0.208429
0.603819 0.538346 0.208429
0.658756 0.538346 0.208429
0.713145 0.538346 0.208429
0.767042 0.538346 0.208429
0.820490 0.538346 0.208429
0.873529 0.538346 0.208429
0.926189 0.538346 0.208429
0.978500 0.538346 0.208429
0.051500 0.594030 0.208429
0.127949 0.594030 0.208429
0.194159 0.594030 0.208429
0.256985 0.594030 0.208429
0.317711 0.594030 0.208429
0.376920 0.594030 0.208429
0.434949 0.594030 0.208429
0.492014 0.594030 0.208429
0.548267 0.594030 0.208429
0.603819 0.594030 0.208429
0.658756 0.594030 0.208429
0.713145 0.594030 0.208429
0.767042 0.594030 0.208429
0.820490 0.594030 0.208429
0.873529 0.594030 0.208429
0.926189 0.594030 0.208429
0.978500 0.594030 0.208429
0.051500 0.649097 0.208429
0.127949 0.649097 0.208429
0.194159 0.649097 0.208429
0.256985 0.649097 0.208429
0.317711 0.649097 0.208429
0.376920 0.649097 0.208429
0.434949 0.649097 0.208429
0.492014 0.649097 0.208429
0.548267 0.649097 0.208429
0.603819 0.649097 0.208429
0.658756 0.649097 0.208429
0.713145 0.649097 0.208429
0.767042 0.649097 0.208429
0.820490 0.649097 0.208429
0.873529 0.649097 0.208429
0.926189 0.649097 0.208429
0.978500 0.649097 0.208429
0.051500 0.703615 0.208429
0.127949 0.703615 0.208429
0.194159 0.703615 0.208429
0.256985 0.703615 0.208429
0.317711 0.703615 0.208429
0.376920 0.703615 0.208429
0.434949 0.703615 0.208429
0.492014 0.703615 0.208429
0.548267 0.703615 0.208429
0.603819 0.703615 0.208429
0.658756 0.703615 0.208429
0.713145 0.703615 0.208429
0.767042 0.703615 0.208429
0.820490 0.703615 0.208429
0.873529 0.703615 0.208429
0.926189 0.703615 0.208429
0.978500 0.703615 0.208429
0.051500 0.757640 0.208429
0.127949 0.757640 0.208429
0.194159 0.757640 0.208429
0.256985 0.757640 0.208429
0.317711 0.757640 0.208429
0.376920 0.757640 0.208429
0.434949 0.757640 0.208429
0.492014 0.757640 0.208429
0.548267 0.757640 0.208429
0.603819 0.757640 0.208429
0.658756 0.757640 0.208429
0.713145 0.757640 0.208429
0.767042 0.757640 0.208429
0.820490 0.757640 0.208429
0.873529 0.757640 0.208429
0.926189 0.757640 0.208429
0.978500 0.757640 0.208429
0.051500 0.811215 0.208429
0.127949 0.811215 0.208429
0.194159 0.811215 0.208429
0.256985 0.811215 0.208429
0.317711 0.811215 0.208429
0.376920 0.811215 0.208429
0.434949 0.811215 0.208429
0.492014 0.811215 0.208429
0.548267 0.811215 0.208429
0.603819 0.811215 0.208429
0.658756 0.811215 0.208429
0.713145 0.811215 0.208429
0.767042 0.811215 0.208429
0.820490 0.811215 0.208429
0.873529 0.811215 0.208429
0.926189 0.811215 0.208429
0.978500 0.811215 0.208429
0.051500 0.864380 0.208429
0.127949 0.864380 0.208429
0.194159 0.864380 0.208429
0.256985 0.864380 0.208429
0.317711 0.864380 0.208429
0.376920 0.864380 0.208429
0.434949 0.864380 0.208429
0.492014 0.864380 0.208429
0.548267 0.864380 0.208429
0.603819 0.864380 0.208429
0.658756 0.864380 0.208429
0.713145 0.864380 0.208429
0.767042 0.864380 0.208429
0.820490 0.864380 0.208429
0.873529 0.864380 0.208429
0.926189 0.864380 0.208429
0.978500 0.864380 0.208429
0.051500 0.917165 0.208429
0.127949 0.917165 0.208429
0.194159 0.917165 0.208429
0.256985 0.917165 0.208429
0.317711 0.917165 0.208429
0.376920 0.917165 0.208429
0.434949 0.917165 0.208429
0.492014 0.917165 0.208429
0.548267 0.917165 0.208429
0.603819 0.917165 0.208429
0.658756 0.917165 0.208429
0.713145 0.917165 0.208429
0.767042 0.917165 0.208429
0.820490 0.917165 0.208429
0.873529 0.917165 0.208429
0.926189 0.917165 0.208429
0.978500 0.917165 0.208429
0.051500 0.969600 0.208429
0.127949 0.969600 0.208429
0.194159 0.969600 0.208429
0.256985 0.969600 0.208429
0.317711 0.969600 0.208429
0.376920 0.969600 0.208429
0.434949 0.969600 0.208429
0.492014 0.969600 0.208429
0.548267 0.969600 0.208429
0.603819 0.969600 0.208429
0.658756 0.969600 0.208429
0.713145 0.969600 0.208429
0.767042 0.969600 0.208429
0.820490 0.969600 0.208429
0.873529 0.969600 0.208429
0.926189 0.969600 0.208429
0.978500 0.969600 0.208429
0.051500 0.040400 0.272475
0.127949 0.040400 0.272475
0.194159 0.040400 0.272475
0.256985 0.040400 0.272475
0.317711 0.040400 0.272475
0.376920 0.040400 0.272475
0.434949 0.040400 0.272475
0.492014 0.040400 0.272475
0.548267 0.040400 0.272475
0.603819 0.040400 0.272475
0.658756 0.040400 0.272475
0.713145 0.040400 0.272475
0.767042 0.040400 0.272475
0.820490 0.040400 0.272475
0.873529 0.040400 0.272475
0.926189 0.040400 0.272475
