04-EFFECTS-AND-FILTERS/3d-luts-cube-files/sunset_golden_hour.cube
# Generated by Video Auto-Editor Pipeline
TITLE "Sunset Golden Hour"
LUT_3D_SIZE 17
DOMAIN_MIN 0.0 0.0 0.0
DOMAIN_MAX 1.0 1.0 1.0
0.000000 0.000000 0.000000
0.086722 0.000000 0.000000
0.167535 0.000000 0.000000
0.246260 0.000000 0.000000
0.323657 0.000000 0.000000
0.400082 0.000000 0.000000
0.475742 0.000000 0.000000
0.550771 0.000000 0.000000
0.625264 0.000000 0.000000
0.699291 0.000000 0.000000
0.772908 0.000000 0.000000
0.846157 0.000000 0.000000
0.919073 0.000000 0.000000
0.991686 0.000000 0.000000
1.000000 0.000000 0.000000
1.000000 0.000000 0.000000
1.000000 0.000000 0.000000
0.000000 0.068652 0.000000
0.086722 0.068652 0.000000
0.167535 0.068652 0.000000
0.246260 0.068652 0.000000
0.323657 0.068652 0.000000
0.400082 0.068652 0.000000
0.475742 0.068652 0.000000
0.550771 0.068652 0.000000
0.625264 0.068652 0.000000
0.699291 0.068652 0.000000
0.772908 0.068652 0.000000
0.846157 0.068652 0.000000
0.919073 0.068652 0.000000
0.991686 0.068652 0.000000
1.000000 0.068652 0.000000
1.000000 0.068652 0.000000
1.000000 0.068652 0.000000
0.000000 0.135414 0.000000
0.086722 0.135414 0.000000
0.167535 0.135414 0.000000
0.246260 0.135414 0.000000
0.323657 0.135414 0.000000
0.400082 0.135414 0.000000
0.475742 0.135414 0.000000
0.550771 0.135414 0.000000
0.625264 0.135414 0.000000
0.699291 0.135414 0.000000
0.772908 0.135414 0.000000
0.846157 0.135414 0.000000
0.919073 0.135414 0.000000
0.991686 0.135414 0.000000
1.000000 0.135414 0.000000
1.000000 0.135414 0.000000
1.000000 0.135414 0.000000
0.000000 0.201481 0.000000
0.086722 0.201481 0.000000
0.167535 0.201481 0.000000
0.246260 0.201481 0.000000
0.323657 0.201481 0.000000
0.400082 0.201481 0.000000
0.475742 0.201481 0.000000
0.550771 0.201481 0.000000
0.625264 0.201481 0.000000
0.699291 0.201481 0.000000
0.772908 0.201481 0.000000
0.846157 0.201481 0.000000
0.919073 0.201481 0.000000
0.991686 0.201481 0.000000
1.000000 0.201481 0.000000
1.000000 0.201481 0.000000
1.000000 0.201481 0.000000
0.000000 0.267100 0.000000
0.086722 0.267100 0.000000
0.167535 0.267100 0.000000
0.246260 0.267100 0.000000
0.323657 0.267100 0.000000
0.400082 0.267100 0.000000
0.475742 0.267100 0.000000
0.550771 0.267100 0.000000
0.625264 0.267100 0.000000
0.699291 0.267100 0.000000
0.772908 0.267100 0.000000
0.846157 0.267100 0.000000
0.919073 0.267100 0.000000
0.991686 0.267100 0.000000
1.000000 0.267100 0.000000
1.000000 0.267100 0.000000
1.000000 0.267100 0.000000
0.000000 0.332388 0.000000
0.086722 0.332388 0.000000
0.167535 0.332388 0.000000
0.246260 0.332388 0.000000
0.323657 0.332388 0.000000
0.400082 0.332388 0.000000
0.475742 0.332388 0.000000
0.550771 0.332388 0.000000
0.625264 0.332388 0.000000
0.699291 0.332388 0.000000
0.772908 0.332388 0.000000
0.846157 0.332388 0.000000
0.919073 0.332388 0.000000
0.991686 0.332388 0.000000
1.000000 0.332388 0.000000
1.000000 0.332388 0.000000
1.000000 0.332388 0.000000
0.000000 0.397414 0.000000
0.086722 0.397414 0.000000
0.167535 0.397414 0.000000
0.246260 0.397414 0.000000
0.323657 0.397414 0.000000
0.400082 0.397414 0.000000
0.475742 0.397414 0.000000
0.550771 0.397414 0.000000
0.625264 0.397414 0.000000
0.699291 0.397414 0.000000
0.772908 0.397414 0.000000
0.846157 0.397414 0.000000
0.919073 0.397414 0.000000
0.991686 0.397414 0.000000
1.000000 0.397414 0.000000
1.000000 0.397414 0.000000
1.000000 0.397414 0.000000
0.000000 0.462223 0.000000
0.086722 0.462223 0.000000
0.167535 0.462223 0.000000
0.246260 0.462223 0.000000
0.323657 0.462223 0.000000
0.400082 0.462223 0.000000
0.475742 0.462223 0.000000
0.550771 0.462223 0.000000
0.625264 0.462223 0.000000
0.699291 0.462223 0.000000
0.772908 0.462223 0.000000
0.846157 0.462223 0.000000
0.919073 0.462223 0.000000
0.991686 0.462223 0.000000
1.000000 0.462223 0.000000
1.000000 0.462223 0.000000
1.000000 0.462223 0.000000
0.000000 0.526846 0.000000
0.086722 0.526846 0.000000
0.167535 0.526846 0.000000
0.246260 0.526846 0.000000
0.323657 0.526846 0.000000
0.400082 0.526846 0.000000
0.475742 0.526846 0.000000
0.550771 0.526846 0.000000
0.625264 0.526846 0.000000
0.699291 0.526846 0.000000
0.772908 0.526846 0.000000
0.846157 0.526846 0.000000
0.919073 0.526846 0.000000
0.991686 0.526846 0.000000
1.000000 0.526846 0.000000
1.000000 0.526846 0.000000
1.000000 0.526846 0.000000
0.000000 0.591307 0.000000
0.086722 0.591307 0.000000
0.167535 0.591307 0.000000
0.246260 0.591307 0.000000
0.323657 0.591307 0.000000
0.400082 0.591307 0.000000
0.475742 0.591307 0.000000
0.550771 0.591307 0.000000
0.625264 0.591307 0.000000
0.699291 0.591307 0.000000
0.772908 0.591307 0.000000
0.846157 0.591307 0.000000
0.919073 0.591307 0.000000
0.991686 0.591307 0.000000
1.000000 0.591307 0.000000
1.000000 0.591307 0.000000
1.000000 0.591307 0.000000
0.000000 0.655624 0.000000
0.086722 0.655624 0.000000
0.167535 0.655624 0.000000
0.246260 0.655624 0.000000
0.323657 0.655624 0.000000
0.400082 0.655624 0.000000
0.475742 0.655624 0.000000
0.550771 0.655624 0.000000
0.625264 0.655624 0.000000
0.699291 0.655624 0.000000
0.772908 0.655624 0.000000
0.846157 0.655624 0.000000
0.919073 0.655624 0.000000
0.991686 0.655624 0.000000
1.000000 0.655624 0.000000
1.000000 0.655624 0.000000
1.000000 0.655624 0.000000
0.000000 0.719813 0.000000
0.086722 0.719813 0.000000
0.167535 0.719813 0.000000
0.246260 0.719813 0.000000
0.323657 0.719813 0.000000
0.400082 0.719813 0.000000
0.475742 0.719813 0.000000
0.550771 0.719813 0.000000
0.625264 0.719813 0.000000
0.699291 0.719813 0.000000
0.772908 0.719813 0.000000
0.846157 0.719813 0.000000
0.919073 0.719813 0.000000
0.991686 0.719813 0.000000
1.000000 0.719813 0.000000
1.000000 0.719813 0.000000
1.000000 0.719813 0.000000
0.000000 0.783886 0.000000
0.086722 0.783886 0.000000
0.167535 0.783886 0.000000
0.246260 0.783886 0.000000
0.323657 0.783886 0.000000
0.400082 0.783886 0.000000
0.475742 0.783886 0.000000
0.550771 0.783886 0.000000
0.625264 0.783886 0.000000
0.699291 0.783886 0.000000
0.772908 0.783886 0.000000
0.846157 0.783886 0.000000
0.919073 0.783886 0.000000
0.991686 0.783886 0.000000
1.000000 0.783886 0.000000
1.000000 0.783886 0.000000
1.000000 0.783886 0.000000
0.000000 0.847851 0.000000
0.086722 0.847851 0.000000
0.167535 0.847851 0.000000
0.246260 0.847851 0.000000
0.323657 0.847851 0.000000
0.400082 0.847851 0.000000
0.475742 0.847851 0.000000
0.550771 0.847851 0.000000
0.625264 0.847851 0.000000
0.699291 0.847851 0.000000
0.772908 0.847851 0.000000
0.846157 0.847851 0.000000
0.919073 0.847851 0.000000
0.991686 0.847851 0.000000
1.000000 0.847851 0.000000
1.000000 0.847851 0.000000
1.000000 0.847851 0.000000
0.000000 0.911718 0.000000
0.086722 0.911718 0.000000
0.167535 0.911718 0.000000
0.246260 0.911718 0.000000
0.323657 0.911718 0.000000
0.400082 0.911718 0.000000
0.475742 0.911718 0.000000
0.550771 0.911718 0.000000
0.625264 0.911718 0.000000
0.699291 0.911718 0.000000
0.772908 0.911718 0.000000
0.846157 0.911718 0.000000
0.919073 0.911718 0.000000
0.991686 0.911718 0.000000
1.000000 0.911718 0.000000
1.000000 0.911718 0.000000
1.000000 0.911718 0.000000
0.000000 0.975494 0.000000
0.086722 0.975494 0.000000
0.167535 0.975494 0.000000
0.246260 0.975494 0.000000
0.323657 0.975494 0.000000
0.400082 0.975494 0.000000
0.475742 0.975494 0.000000
0.550771 0.975494 0.000000
0.625264 0.975494 0.000000
0.699291 0.975494 0.000000
0.772908 0.975494 0.000000
0.846157 0.975494 0.000000
0.919073 0.975494 0.000000
0.991686 0.975494 0.000000
1.000000 0.975494 0.000000
1.000000 0.975494 0.000000
1.000000 0.975494 0.000000
0.000000 1.000000 0.000000
0.086722 1.000000 0.000000
0.167535 1.000000 0.000000
0.246260 1.000000 0.000000
0.323657 1.000000 0.000000
0.400082 1.000000 0.000000
0.475742 1.000000 0.000000
0.550771 1.000000 0.000000
0.625264 1.000000 0.000000
0.699291 1.000000 0.000000
0.772908 1.000000 0.000000
0.846157 1.000000 0.000000
0.919073 1.000000 0.000000
0.991686 1.000000 0.000000
1.000000 1.000000 0.000000
1.000000 1.000000 0.000000
1.000000 1.000000 0.000000
0.000000 0.000000 0.041915
0.086722 0.000000 0.041915
0.167535 0.000000 0.041915
0.246260 0.000000 0.041915
0.323657 0.000000 0.041915
0.400082 0.000000 0.041915
0.475742 0.000000 0.041915
0.550771 0.000000 0.041915
0.625264 0.000000 0.041915
0.699291 0.000000 0.041915
0.772908 0.000000 0.041915
0.846157 0.000000 0.041915
0.919073 0.000000 0.041915
0.991686 0.000000 0.041915
1.000000 0.000000 0.041915
1.000000 0.000000 0.041915
1.000000 0.000000 0.041915
0.000000 0.068652 0.041915
0.086722 0.068652 0.041915
0.167535 0.068652 0.041915
0.246260 0.068652 0.041915
0.323657 0.068652 0.041915
0.400082 0.068652 0.041915
0.475742 0.068652 0.041915
0.550771 0.068652 0.041915
0.625264 0.068652 0.041915
0.699291 0.068652 0.041915
0.772908 0.068652 0.041915
0.846157 0.068652 0.041915
0.919073 0.068652 0.041915
0.991686 0.068652 0.041915
1.000000 0.068652 0.041915
1.000000 0.068652 0.041915
1.000000 0.068652 0.041915
0.000000 0.135414 0.041915
0.086722 0.135414 0.041915
0.167535 0.135414 0.041915
0.246260 0.135414 0.041915
0.323657 0.135414 0.041915
0.400082 0.135414 0.041915
0.475742 0.135414 0.041915
0.550771 0.135414 0.041915
0.625264 0.135414 0.041915
0.699291 0.135414 0.041915
0.772908 0.135414 0.041915
0.846157 0.135414 0.041915
0.919073 0.135414 0.041915
0.991686 0.135414 0.041915
1.000000 0.135414 0.041915
1.000000 0.135414 0.041915
1.000000 0.135414 0.041915
0.000000 0.201481 0.041915
0.086722 0.201481 0.041915
0.167535 0.201481 0.041915
0.246260 0.201481 0.041915
0.323657 0.201481 0.041915
0.400082 0.201481 0.041915
0.475742 0.201481 0.041915
0.550771 0.201481 0.041915
0.625264 0.201481 0.041915
0.699291 0.201481 0.041915
0.772908 0.201481 0.041915
0.846157 0.201481 0.041915
0.919073 0.201481 0.041915
0.991686 0.201481 0.041915
1.000000 0.201481 0.041915
1.000000 0.201481 0.041915
1.000000 0.201481 0.041915
0.000000 0.267100 0.041915
0.086722 0.267100 0.041915
0.167535 0.267100 0.041915
0.246260 0.267100 0.041915
0.323657 0.267100 0.041915
0.400082 0.267100 0.041915
0.475742 0.267100 0.041915
0.550771 0.267100 0.041915
0.625264 0.267100 0.041915
0.699291 0.267100 0.041915
0.772908 0.267100 0.041915
0.846157 0.267100 0.041915
0.919073 0.267100 0.041915
0.991686 0.267100 0.041915
1.000000 0.267100 0.041915
1.000000 0.267100 0.041915
1.000000 0.267100 0.041915
0.000000 0.332388 0.041915
0.086722 0.332388 0.041915
0.167535 0.332388 0.041915
0.246260 0.332388 0.041915
0.323657 0.332388 0.041915
0.400082 0.332388 0.041915
0.475742 0.332388 0.041915
0.550771 0.332388 0.041915
0.625264 0.332388 0.041915
0.699291 0.332388 0.041915
0.772908 0.332388 0.041915
0.846157 0.332388 0.041915
0.919073 0.332388 0.041915
0.991686 0.332388 0.041915
1.000000 0.332388 0.041915
1.000000 0.332388 0.041915
1.000000 0.332388 0.041915
0.000000 0.397414 0.041915
0.086722 0.397414 0.041915
0.167535 0.397414 0.041915
0.246260 0.397414 0.041915
0.323657 0.397414 0.041915
0.400082 0.397414 0.041915
0.475742 0.397414 0.041915
0.550771 0.397414 0.041915
0.625264 0.397414 0.041915
0.699291 0.397414 0.041915
0.772908 0.397414 0.041915
0.846157 0.397414 0.041915
0.919073 0.397414 0.041915
0.991686 0.397414 0.041915
1.000000 0.397414 0.041915
1.000000 0.397414 0.041915
1.000000 0.397414 0.041915
0.000000 0.462223 0.041915
0.086722 0.462223 0.041915
0.167535 0.462223 0.041915
0.246260 0.462223 0.041915
0.323657 0.462223 0.041915
0.400082 0.462223 0.041915
0.475742 0.462223 0.041915
0.550771 0.462223 0.041915
0.625264 0.462223 0.041915
0.699291 0.462223 0.041915
0.772908 0.462223 0.041915
0.846157 0.462223 0.041915
0.919073 0.462223 0.041915
0.991686 0.462223 0.041915
1.000000 0.462223 0.041915
1.000000 0.462223 0.041915
1.000000 0.462223 0.041915
0.000000 0.526846 0.041915
0.086722 0.526846 0.041915
0.167535 0.526846 0.041915
0.246260 0.526846 0.041915
0.323657 0.526846 0.041915
0.400082 0.526846 0.041915
0.475742 0.526846 0.041915
0.550771 0.526846 0.041915
0.625264 0.526846 0.041915
0.699291 0.526846 0.041915
0.772908 0.526846 0.041915
0.846157 0.526846 0.041915
0.919073 0.526846 0.041915
0.991686 0.526846 0.041915
1.000000 0.526846 0.041915
1.000000 0.526846 0.041915
1.000000 0.526846 0.041915
0.000000 0.591307 0.041915
0.086722 0.591307 0.041915
0.167535 0.591307 0.041915
0.246260 0.591307 0.041915
0.323657 0.591307 0.041915
0.400082 0.591307 0.041915
0.475742 0.591307 0.041915
0.550771 0.591307 0.041915
0.625264 0.591307 0.041915
0.699291 0.591307 0.041915
0.772908 0.591307 0.041915
0.846157 0.591307 0.041915
0.919073 0.591307 0.041915
0.991686 0.591307 0.041915
1.000000 0.591307 0.041915
1.000000 0.591307 0.041915
1.000000 0.591307 0.041915
0.000000 0.655624 0.041915
0.086722 0.655624 0.041915
0.167535 0.655624 0.041915
0.246260 0.655624 0.041915
0.323657 0.655624 0.041915
0.400082 0.655624 0.041915
0.475742 0.655624 0.041915
0.550771 0.655624 0.041915
0.625264 0.655624 0.041915
0.699291 0.655624 0.041915
0.772908 0.655624 0.041915
0.846157 0.655624 0.041915
0.919073 0.655624 0.041915
0.991686 0.655624 0.041915
1.000000 0.655624 0.041915
1.000000 0.655624 0.041915
1.000000 0.655624 0.041915
0.000000 0.719813 0.041915
0.086722 0.719813 0.041915
0.167535 0.719813 0.041915
0.246260 0.719813 0.041915
0.323657 0.719813 0.041915
0.400082 0.719813 0.041915
0.475742 0.719813 0.041915
0.550771 0.719813 0.041915
0.625264 0.719813 0.041915
0.699291 0.719813 0.041915
0.772908 0.719813 0.041915
0.846157 0.719813 0.041915
0.919073 0.719813 0.041915
0.991686 0.719813 0.041915
1.000000 0.719813 0.041915
1.000000 0.719813 0.041915
1.000000 0.719813 0.041915
0.000000 0.783886 0.041915
0.086722 0.783886 0.041915
0.167535 0.783886 0.041915
0.246260 0.783886 0.041915
0.323657 0.783886 0.041915
0.400082 0.783886 0.041915
0.475742 0.783886 0.041915
0.550771 0.783886 0.041915
0.625264 0.783886 0.041915
0.699291 0.783886 0.041915
0.772908 0.783886 0.041915
0.846157 0.783886 0.041915
0.919073 0.783886 0.041915
0.991686 0.783886 0.041915
1.000000 0.783886 0.041915
1.000000 0.783886 0.041915
1.000000 0.783886 0.041915
0.000000 0.847851 0.041915
0.086722 0.847851 0.041915
0.167535 0.847851 0.041915
0.246260 0.847851 0.041915
0.323657 0.847851 0.041915
0.400082 0.847851 0.041915
0.475742 0.847851 0.041915
0.550771 0.847851 0.041915
0.625264 0.847851 0.041915
0.699291 0.847851 0.041915
0.772908 0.847851 0.041915
0.846157 0.847851 0.041915
0.919073 0.847851 0.041915
0.991686 0.847851 0.041915
1.000000 0.847851 0.041915
1.000000 0.847851 0.041915
1.000000 0.847851 0.041915
0.000000 0.911718 0.041915
0.086722 0.911718 0.041915
0.167535 0.911718 0.041915
0.246260 0.911718 0.041915
0.323657 0.911718 0.041915
0.400082 0.911718 0.041915
0.475742 0.911718 0.041915
0.550771 0.911718 0.041915
0.625264 0.911718 0.041915
0.699291 0.911718 0.041915
0.772908 0.911718 0.041915
0.846157 0.911718 0.041915
0.919073 0.911718 0.041915
0.991686 0.911718 0.041915
1.000000 0.911718 0.041915
1.000000 0.911718 0.041915
1.000000 0.911718 0.041915
0.000000 0.975494 0.041915
0.086722 0.975494 0.041915
0.167535 0.975494 0.041915
0.246260 0.975494 0.041915
0.323657 0.975494 0.041915
0.400082 0.975494 0.041915
0.475742 0.975494 0.041915
0.550771 0.975494 0.041915
0.625264 0.975494 0.041915
0.699291 0.975494 0.041915
0.772908 0.975494 0.041915
0.846157 0.975494 0.041915
0.919073 0.975494 0.041915
0.991686 0.975494 0.041915
1.000000 0.975494 0.041915
1.000000 0.975494 0.041915
1.000000 0.975494 0.041915
0.000000 1.000000 0.041915
0.086722 1.000000 0.041915
0.167535 1.000000 0.041915
0.246260 1.000000 0.041915
0.323657 1.000000 0.041915
0.400082 1.000000 0.041915
0.475742 1.000000 0.041915
0.550771 1.000000 0.041915
0.625264 1.000000 0.041915
0.699291 1.000000 0.041915
0.772908 1.000000 0.041915
0.846157 1.000000 0.041915
0.919073 1.000000 0.041915
0.991686 1.000000 0.041915
1.000000 1.000000 0.041915
1.000000 1.000000 0.041915
1.000000 1.000000 0.041915
0.000000 0.000000 0.086787
0.086722 0.000000 0.086787
0.167535 0.000000 0.086787
0.246260 0.000000 0.086787
0.323657 0.000000 0.086787
0.400082 0.000000 0.086787
0.475742 0.000000 0.086787
0.550771 0.000000 0.086787
0.625264 0.000000 0.086787
0.699291 0.000000 0.086787
0.772908 0.000000 0.086787
0.846157 0.000000 0.086787
0.919073 0.000000 0.086787
0.991686 0.000000 0.086787
1.000000 0.000000 0.086787
1.000000 0.000000 0.086787
1.000000 0.000000 0.086787
0.000000 0.068652 0.086787
0.086722 0.068652 0.086787
0.167535 0.068652 0.086787
0.246260 0.068652 0.086787
0.323657 0.068652 0.086787
0.400082 0.068652 0.086787
0.475742 0.068652 0.086787
0.550771 0.068652 0.086787
0.625264 0.068652 0.086787
0.699291 0.068652 0.086787
0.772908 0.068652 0.086787
0.846157 0.068652 0.086787
0.919073 0.068652 0.086787
0.991686 0.068652 0.086787
1.000000 0.068652 0.086787
1.000000 0.068652 0.086787
1.000000 0.068652 0.086787
0.000000 0.135414 0.086787
0.086722 0.135414 0.086787
0.167535 0.135414 0.086787
0.246260 0.135414 0.086787
0.323657 0.135414 0.086787
0.400082 0.135414 0.086787
0.475742 0.135414 0.086787
0.550771 0.135414 0.086787
0.625264 0.135414 0.086787
0.699291 0.135414 0.086787
0.772908 0.135414 0.086787
0.846157 0.135414 0.086787
0.919073 0.135414 0.086787
0.991686 0.135414 0.086787
1.000000 0.135414 0.086787
1.000000 0.135414 0.086787
1.000000 0.135414 0.086787
0.000000 0.201481 0.086787
0.086722 0.201481 0.086787
0.167535 0.201481 0.086787
0.246260 0.201481 0.086787
0.323657 0.201481 0.086787
0.400082 0.201481 0.086787
0.475742 0.201481 0.086787
0.550771 0.201481 0.086787
0.625264 0.201481 0.086787
0.699291 0.201481 0.086787
0.772908 0.201481 0.086787
0.846157 0.201481 0.086787
0.919073 0.201481 0.086787
0.991686 0.201481 0.086787
1.000000 0.201481 0.086787
1.000000 0.201481 0.086787
1.000000 0.201481 0.086787
0.000000 0.267100 0.086787
0.086722 0.267100 0.086787
0.167535 0.267100 0.086787
0.246260 0.267100 0.086787
0.323657 0.267100 0.086787
0.400082 0.267100 0.086787
0.475742 0.267100 0.086787
0.550771 0.267100 0.086787
0.625264 0.267100 0.086787
0.699291 0.267100 0.086787
0.772908 0.267100 0.086787
0.846157 0.267100 0.086787
0.919073 0.267100 0.086787
0.991686 0.267100 0.086787
1.000000 0.267100 0.086787
1.000000 0.267100 0.086787
1.000000 0.267100 0.086787
0.000000 0.332388 0.086787
0.086722 0.332388 0.086787
0.167535 0.332388 0.086787
0.246260 0.332388 0.086787
0.323657 0.332388 0.086787
0.400082 0.332388 0.086787
0.475742 0.332388 0.086787
0.550771 0.332388 0.086787
0.625264 0.332388 0.086787
0.699291 0.332388 0.086787
0.772908 0.332388 0.086787
0.846157 0.332388 0.086787
0.919073 0.332388 0.086787
0.991686 0.332388 0.086787
1.000000 0.332388 0.086787
1.000000 0.332388 0.086787
1.000000 0.332388 0.086787
0.000000 0.397414 0.086787
0.086722 0.397414 0.086787
0.167535 0.397414 0.086787
0.246260 0.397414 0.086787
0.323657 0.397414 0.086787
0.400082 0.397414 0.086787
0.475742 0.397414 0.086787
0.550771 0.397414 0.086787
0.625264 0.397414 0.086787
0.699291 0.397414 0.086787
0.772908 0.397414 0.086787
0.846157 0.397414 0.086787
0.919073 0.397414 0.086787
0.991686 0.397414 0.086787
1.000000 0.397414 0.086787
1.000000 0.397414 0.086787
1.000000 0.397414 0.086787
0.000000 0.462223 0.086787
0.086722 0.462223 0.086787
0.167535 0.462223 0.086787
0.246260 0.462223 0.086787
0.323657 0.462223 0.086787
0.400082 0.462223 0.086787
0.475742 0.462223 0.086787
0.550771 0.462223 0.086787
0.625264 0.462223 0.086787
0.699291 0.462223 0.086787
0.772908 0.462223 0.086787
0.846157 0.462223 0.086787
0.919073 0.462223 0.086787
0.991686 0.462223 0.086787
1.000000 0.462223 0.086787
1.000000 0.462223 0.086787
1.000000 0.462223 0.086787
0.000000 0.526846 0.086787
0.086722 0.526846 0.086787
0.167535 0.526846 0.086787
0.246260 0.526846 0.086787
0.323657 0.526846 0.086787
0.400082 0.526846 0.086787
0.475742 0.526846 0.086787
0.550771 0.526846 0.086787
0.625264 0.526846 0.086787
0.699291 0.526846 0.086787
0.772908 0.526846 0.086787
0.846157 0.526846 0.086787
0.919073 0.526846 0.086787
0.991686 0.526846 0.086787
1.000000 0.526846 0.086787
1.000000 0.526846 0.086787
1.000000 0.526846 0.086787
0.000000 0.591307 0.086787
0.086722 0.591307 0.086787
0.167535 0.591307 0.086787
0.246260 0.591307 0.086787
0.323657 0.591307 0.086787
0.400082 0.591307 0.086787
0.475742 0.591307 0.086787
0.550771 0.591307 0.086787
0.625264 0.591307 0.086787
0.699291 0.591307 0.086787
0.772908 0.591307 0.086787
0.846157 0.591307 0.086787
0.919073 0.591307 0.086787
0.991686 0.591307 0.086787
1.000000 0.591307 0.086787
1.000000 0.591307 0.086787
1.000000 0.591307 0.086787
0.000000 0.655624 0.086787
0.086722 0.655624 0.086787
0.167535 0.655624 0.086787
0.246260 0.655624 0.086787
0.323657 0.655624 0.086787
0.400082 0.655624 0.086787
0.475742 0.655624 0.086787
0.550771 0.655624 0.086787
0.625264 0.655624 0.086787
0.699291 0.655624 0.086787
0.772908 0.655624 0.086787
0.846157 0.655624 0.086787
0.919073 0.655624 0.086787
0.991686 0.655624 0.086787
1.000000 0.655624 0.086787
1.000000 0.655624 0.086787
1.000000 0.655624 0.086787
0.000000 0.719813 0.086787
0.086722 0.719813 0.086787
0.167535 0.719813 0.086787
0.246260 0.719813 0.086787
0.323657 0.719813 0.086787
0.400082 0.719813 0.086787
0.475742 0.719813 0.086787
0.550771 0.719813 0.086787
0.625264 0.719813 0.086787
0.699291 0.719813 0.086787
0.772908 0.719813 0.086787
0.846157 0.719813 0.086787
0.919073 0.719813 0.086787
0.991686 0.719813 0.086787
1.000000 0.719813 0.086787
1.000000 0.719813 0.086787
1.000000 0.719813 0.086787
0.000000 0.783886 0.086787
0.086722 0.783886 0.086787
0.167535 0.783886 0.086787
0.246260 0.783886 0.086787
0.323657 0.783886 0.086787
0.400082 0.783886 0.086787
0.475742 0.783886 0.086787
0.550771 0.783886 0.086787
0.625264 0.783886 0.086787
0.699291 0.783886 0.086787
0.772908 0.783886 0.086787
0.846157 0.783886 0.086787
0.919073 0.783886 0.086787
0.991686 0.783886 0.086787
1.000000 0.783886 0.086787
1.000000 0.783886 0.086787
1.000000 0.783886 0.086787
0.000000 0.847851 0.086787
0.086722 0.847851 0.086787
0.167535 0.847851 0.086787
0.246260 0.847851 0.086787
0.323657 0.847851 0.086787
0.400082 0.847851 0.086787
0.475742 0.847851 0.086787
0.550771 0.847851 0.086787
0.625264 0.847851 0.086787
0.699291 0.847851 0.086787
0.772908 0.847851 0.086787
0.846157 0.847851 0.086787
0.919073 0.847851 0.086787
0.991686 0.847851 0.086787
1.000000 0.847851 0.086787
1.000000 0.847851 0.086787
1.000000 0.847851 0.086787
0.000000 0.911718 0.086787
0.086722 0.911718 0.086787
0.167535 0.911718 0.086787
0.246260 0.911718 0.086787
0.323657 0.911718 0.086787
0.400082 0.911718 0.086787
0.475742 0.911718 0.086787
0.550771 0.911718 0.086787
0.625264 0.911718 0.086787
0.699291 0.911718 0.086787
0.772908 0.911718 0.086787
0.846157 0.911718 0.086787
0.919073 0.911718 0.086787
0.991686 0.911718 0.086787
1.000000 0.911718 0.086787
1.000000 0.911718 0.086787
1.000000 0.911718 0.086787
0.000000 0.975494 0.086787
0.086722 0.975494 0.086787
0.167535 0.975494 0.086787
0.246260 0.975494 0.086787
0.323657 0.975494 0.086787
0.400082 0.975494 0.086787
0.475742 0.975494 0.086787
0.550771 0.975494 0.086787
0.625264 0.975494 0.086787
0.699291 0.975494 0.086787
0.772908 0.975494 0.086787
0.846157 0.975494 0.086787
0.919073 0.975494 0.086787
0.991686 0.975494 0.086787
1.000000 0.975494 0.086787
1.000000 0.975494 0.086787
1.000000 0.975494 0.086787
0.000000 1.000000 0.086787
0.086722 1.000000 0.086787
0.167535 1.000000 0.086787
0.246260 1.000000 0.086787
0.323657 1.000000 0.086787
0.400082 1.000000 0.086787
0.475742 1.000000 0.086787
0.550771 1.000000 0.086787
0.625264 1.000000 0.086787
0.699291 1.000000 0.086787
0.772908 1.000000 0.086787
0.846157 1.000000 0.086787
0.919073 1.000000 0.086787
0.991686 1.000000 0.086787
1.000000 1.000000 0.086787
1.000000 1.000000 0.086787
1.000000 1.000000 0.086787
0.000000 0.000000 0.132847
0.086722 0.000000 0.132847
0.167535 0.000000 0.132847
0.246260 0.000000 0.132847
0.323657 0.000000 0.132847
0.400082 0.000000 0.132847
0.475742 0.000000 0.132847
0.550771 0.000000 0.132847
0.625264 0.000000 0.132847
0.699291 0.000000 0.132847
0.772908 0.000000 0.132847
0.846157 0.000000 0.132847
0.919073 0.000000 0.132847
0.991686 0.000000 0.132847
1.000000 0.000000 0.132847
1.000000 0.000000 0.132847
1.000000 0.000000 0.132847
