04-EFFECTS-AND-FILTERS/3d-luts-cube-files/sunset_golden_hour.cube
# Generated by Video Auto-Editor Pipeline
TITLE "Sunset Golden Hour"
LUT_3D_SIZE 5
DOMAIN_MIN 0.0 0.0 0.0
DOMAIN_MAX 1.0 1.0 1.0
0.000000 0.000000 0.000000
0.323657 0.000000 0.000000
0.625264 0.000000 0.000000
0.919073 0.000000 0.000000
1.000000 0.000000 0.000000
0.000000 0.267100 0.000000
0.323657 0.267100 0.000000
0.625264 0.267100 0.000000
0.919073 0.267100 0.000000
1.000000 0.267100 0.000000
0.000000 0.526846 0.000000
0.323657 0.526846 0.000000
0.625264 0.526846 0.000000
0.919073 0.526846 0.000000
1.000000 0.526846 0.000000
0.000000 0.783886 0.000000
0.323657 0.783886 0.000000
0.625264 0.783886 0.000000
0.919073 0.783886 0.000000
1.000000 0.783886 0.000000
0.000000 1.000000 0.000000
0.323657 1.000000 0.000000
0.625264 1.000000 0.000000
0.919073 1.000000 0.000000
1.000000 1.000000 0.000000
0.000000 0.000000 0.179695
0.323657 0.000000 0.179695
0.625264 0.000000 0.179695
0.919073 0.000000 0.179695
1.000000 0.000000 0.179695
0.000000 0.267100 0.179695
0.323657 0.267100 0.179695
0.625264 0.267100 0.179695
0.919073 0.267100 0.179695
1.000000 0.267100 0.179695
0.000000 0.526846 0.179695
0.323657 0.526846 0.179695
0.625264 0.526846 0.179695
0.919073 0.526846 0.179695
1.000000 0.526846 0.179695
0.000000 0.783886 0.179695
0.323657 0.783886 0.179695
0.625264 0.783886 0.179695
0.919073 0.783886 0.179695
1.000000 0.783886 0.179695
0.000000 1.000000 0.179695
0.323657 1.000000 0.179695
0.625264 1.000000 0.179695
0.919073 1.000000 0.179695
1.000000 1.000000 0.179695
0.000000 0.000000 0.372064
0.323657 0.000000 0.372064
0.625264 0.000000 0.372064
0.919073 0.000000 0.372064
1.000000 0.000000 0.372064
0.000000 0.267100 0.372064
0.323657 0.267100 0.372064
0.625264 0.267100 0.372064
0.919073 0.267100 0.372064
1.000000 0.267100 0.372064
0.000000 0.526846 0.372064
0.323657 0.526846 0.372064
0.625264 0.526846 0.372064
0.919073 0.526846 0.372064
1.000000 0.526846 0.372064
0.000000 0.783886 0.372064
0.323657 0.783886 0.372064
0.625264 0.783886 0.372064
0.919073 0.783886 0.372064
1.000000 0.783886 0.372064
0.000000 1.000000 0.372064
0.323657 1.000000 0.372064
0.625264 1.000000 0.372064
0.919073 1.000000 0.372064
1.000000 1.000000 0.372064
0.000000 0.000000 0.569526
0.323657 0.000000 0.569526
0.625264 0.000000 0.569526
0.919073 0.000000 0.569526
1.000000 0.000000 0.569526
0.000000 0.267100 0.569526
0.323657 0.267100 0.569526
0.625264 0.267100 0.569526
0.919073 0.267100 0.569526
1.000000 0.267100 0.569526
0.000000 0.526846 0.569526
0.323657 0.526846 0.569526
0.625264 0.526846 0.569526
0.919073 0.526846 0.569526
1.000000 0.526846 0.569526
0.000000 0.783886 0.569526
0.323657 0.783886 0.569526
0.625264 0.783886 0.569526
0.919073 0.783886 0.569526
1.000000 0.783886 0.569526
0.000000 1.000000 0.569526
0.323657 1.000000 0.569526
0.625264 1.000000 0.569526
0.919073 1.000000 0.569526
1.000000 1.000000 0.569526
0.000000 0.000000 0.770370
0.323657 0.000000 0.770370
0.625264 0.000000 0.770370
0.919073 0.000000 0.770370
1.000000 0.000000 0.770370
0.000000 0.267100 0.770370
0.323657 0.267100 0.770370
0.625264 0.267100 0.770370
0.919073 0.267100 0.770370
1.000000 0.267100 0.770370
0.000000 0.526846 0.770370
0.323657 0.526846 0.770370
0.625264 0.526846 0.770370
0.919073 0.526846 0.770370
1.000000 0.526846 0.770370
0.000000 0.783886 0.770370
0.323657 0.783886 0.770370
0.625264 0.783886 0.770370
0.919073 0.783886 0.770370
1.000000 0.783886 0.770370
0.000000 1.000000 0.770370
0.323657 1.000000 0.770370
0.625264 1.000000 0.770370
0.919073 1.000000 0.770370
1.000000 1.000000 0.770370
