04-EFFECTS-AND-FILTERS/3d-luts-cube-files/sunset_golden_hour.cube
# Generated by Video Auto-Editor Pipeline
TITLE "Sunset Golden Hour"
LUT_3D_SIZE 9
DOMAIN_MIN 0.0 0.0 0.0
DOMAIN_MAX 1.0 1.0 1.0
0.000000 0.000000 0.000000
0.167535 0.000000 0.000000
0.323657 0.000000 0.000000
0.475742 0.000000 0.000000
0.625264 0.000000 0.000000
0.772908 0.000000 0.000000
0.919073 0.000000 0.000000
1.000000 0.000000 0.000000
1.000000 0.000000 0.000000
0.000000 0.135414 0.000000
0.167535 0.135414 0.000000
0.323657 0.135414 0.000000
0.475742 0.135414 0.000000
0.625264 0.135414 0.000000
0.772908 0.135414 0.000000
0.919073 0.135414 0.000000
1.000000 0.135414 0.000000
1.000000 0.135414 0.000000
0.000000 0.267100 0.000000
0.167535 0.267100 0.000000
0.323657 0.267100 0.000000
0.475742 0.267100 0.000000
0.625264 0.267100 0.000000
0.772908 0.267100 0.000000
0.919073 0.267100 0.000000
1.000000 0.267100 0.000000
1.000000 0.267100 0.000000
0.000000 0.397414 0.000000
0.167535 0.397414 0.000000
0.323657 0.397414 0.000000
0.475742 0.397414 0.000000
0.625264 0.397414 0.000000
0.772908 0.397414 0.000000
0.919073 0.397414 0.000000
1.000000 0.397414 0.000000
1.000000 0.397414 0.000000
0.000000 0.526846 0.000000
0.167535 0.526846 0.000000
0.323657 0.526846 0.000000
0.475742 0.526846 0.000000
0.625264 0.526846 0.000000
0.772908 0.526846 0.000000
0.919073 0.526846 0.000000
1.000000 0.526846 0.000000
1.000000 0.526846 0.000000
0.000000 0.655624 0.000000
0.167535 0.655624 0.000000
0.323657 0.655624 0.000000
0.475742 0.655624 0.000000
0.625264 0.655624 0.000000
0.772908 0.655624 0.000000
0.919073 0.655624 0.000000
1.000000 0.655624 0.000000
1.000000 0.655624 0.000000
0.000000 0.783886 0.000000
0.167535 0.783886 0.000000
0.323657 0.783886 0.000000
0.475742 0.783886 0.000000
0.625264 0.783886 0.000000
0.772908 0.783886 0.000000
0.919073 0.783886 0.000000
1.000000 0.783886 0.000000
1.000000 0.783886 0.000000
0.000000 0.911718 0.000000
0.167535 0.911718 0.000000
0.323657 0.911718 0.000000
0.475742 0.911718 0.000000
0.625264 0.911718 0.000000
0.772908 0.911718 0.000000
0.919073 0.911718 0.000000
1.000000 0.911718 0.000000
1.000000 0.911718 0.000000
0.000000 1.000000 0.000000
0.167535 1.000000 0.000000
0.323657 1.000000 0.000000
0.475742 1.000000 0.000000
0.625264 1.000000 0.000000
0.772908 1.000000 0.000000
0.919073 1.000000 0.000000
1.000000 1.000000 0.000000
1.000000 1.000000 0.000000
0.000000 0.000000 0.086787
0.167535 0.000000 0.086787
0.323657 0.000000 0.086787
0.475742 0.000000 0.086787
0.625264 0.000000 0.086787
0.772908 0.000000 0.086787
0.919073 0.000000 0.086787
1.000000 0.000000 0.086787
1.000000 0.000000 0.086787
0.000000 0.135414 0.086787
0.167535 0.135414 0.086787
0.323657 0.135414 0.086787
0.475742 0.135414 0.086787
0.625264 0.135414 0.086787
0.772908 0.135414 0.086787
0.919073 0.135414 0.086787
1.000000 0.135414 0.086787
1.000000 0.135414 0.086787
0.000000 0.267100 0.086787
0.167535 0.267100 0.086787
0.323657 0.267100 0.086787
0.475742 0.267100 0.086787
0.625264 0.267100 0.086787
0.772908 0.267100 0.086787
0.919073 0.267100 0.086787
1.000000 0.267100 0.086787
1.000000 0.267100 0.086787
0.000000 0.397414 0.086787
0.167535 0.397414 0.086787
0.323657 0.397414 0.086787
0.475742 0.397414 0.086787
0.625264 0.397414 0.086787
0.772908 0.397414 0.086787
0.919073 0.397414 0.086787
1.000000 0.397414 0.086787
1.000000 0.397414 0.086787
0.000000 0.526846 0.086787
0.167535 0.526846 0.086787
0.323657 0.526846 0.086787
0.475742 0.526846 0.086787
0.625264 0.526846 0.086787
0.772908 0.526846 0.086787
0.919073 0.526846 0.086787
1.000000 0.526846 0.086787
1.000000 0.526846 0.086787
0.000000 0.655624 0.086787
0.167535 0.655624 0.086787
0.323657 0.655624 0.086787
0.475742 0.655624 0.086787
0.625264 0.655624 0.086787
0.772908 0.655624 0.086787
0.919073 0.655624 0.086787
1.000000 0.655624 0.086787
1.000000 0.655624 0.086787
0.000000 0.783886 0.086787
0.167535 0.783886 0.086787
0.323657 0.783886 0.086787
0.475742 0.783886 0.086787
0.625264 0.783886 0.086787
0.772908 0.783886 0.086787
0.919073 0.783886 0.086787
1.000000 0.783886 0.086787
1.000000 0.783886 0.086787
0.000000 0.911718 0.086787
0.167535 0.911718 0.086787
0.323657 0.911718 0.086787
0.475742 0.911718 0.086787
0.625264 0.911718 0.086787
0.772908 0.911718 0.086787
0.919073 0.911718 0.086787
1.000000 0.911718 0.086787
1.000000 0.911718 0.086787
0.000000 1.000000 0.086787
0.167535 1.000000 0.086787
0.323657 1.000000 0.086787
0.475742 1.000000 0.086787
0.625264 1.000000 0.086787
0.772908 1.000000 0.086787
0.919073 1.000000 0.086787
1.000000 1.000000 0.086787
1.000000 1.000000 0.086787
0.000000 0.000000 0.179695
0.167535 0.000000 0.179695
0.323657 0.000000 0.179695
0.475742 0.000000 0.179695
0.625264 0.000000 0.179695
0.772908 0.000000 0.179695
0.919073 0.000000 0.179695
1.000000 0.000000 0.179695
1.000000 0.000000 0.179695
0.000000 0.135414 0.179695
0.167535 0.135414 0.179695
0.323657 0.135414 0.179695
0.475742 0.135414 0.179695
0.625264 0.135414 0.179695
0.772908 0.135414 0.179695
0.919073 0.135414 0.179695
1.000000 0.135414 0.179695
1.000000 0.135414 0.179695
0.000000 0.267100 0.179695
0.167535 0.267100 0.179695
0.323657 0.267100 0.179695
0.475742 0.267100 0.179695
0.625264 0.267100 0.179695
0.772908 0.267100 0.179695
0.919073 0.267100 0.179695
1.000000 0.267100 0.179695
1.000000 0.267100 0.179695
0.000000 0.397414 0.179695
0.167535 0.397414 0.179695
0.323657 0.397414 0.179695
0.475742 0.397414 0.179695
0.625264 0.397414 0.179695
0.772908 0.397414 0.179695
0.919073 0.397414 0.179695
1.000000 0.397414 0.179695
1.000000 0.397414 0.179695
0.000000 0.526846 0.179695
0.167535 0.526846 0.179695
0.323657 0.526846 0.179695
0.475742 0.526846 0.179695
0.625264 0.526846 0.179695
0.772908 0.526846 0.179695
0.919073 0.526846 0.179695
1.000000 0.526846 0.179695
1.000000 0.526846 0.179695
0.000000 0.655624 0.179695
0.167535 0.655624 0.179695
0.323657 0.655624 0.179695
0.475742 0.655624 0.179695
0.625264 0.655624 0.179695
0.772908 0.655624 0.179695
0.919073 0.655624 0.179695
1.000000 0.655624 0.179695
1.000000 0.655624 0.179695
0.000000 0.783886 0.179695
0.167535 0.783886 0.179695
0.323657 0.783886 0.179695
0.475742 0.783886 0.179695
0.625264 0.783886 0.179695
0.772908 0.783886 0.179695
0.919073 0.783886 0.179695
1.000000 0.783886 0.179695
1.000000 0.783886 0.179695
0.000000 0.911718 0.179695
0.167535 0.911718 0.179695
0.323657 0.911718 0.179695
0.475742 0.911718 0.179695
0.625264 0.911718 0.179695
0.772908 0.911718 0.179695
0.919073 0.911718 0.179695
1.000000 0.911718 0.179695
1.000000 0.911718 0.179695
0.000000 1.000000 0.179695
0.167535 1.000000 0.179695
0.323657 1.000000 0.179695
0.475742 1.000000 0.179695
0.625264 1.000000 0.179695
0.772908 1.000000 0.179695
0.919073 1.000000 0.179695
1.000000 1.000000 0.179695
1.000000 1.000000 0.179695
0.000000 0.000000 0.275063
0.167535 0.000000 0.275063
0.323657 0.000000 0.275063
0.475742 0.000000 0.275063
0.625264 0.000000 0.275063
0.772908 0.000000 0.275063
0.919073 0.000000 0.275063
1.000000 0.000000 0.275063
1.000000 0.000000 0.275063
0.000000 0.135414 0.275063
0.167535 0.135414 0.275063
0.323657 0.135414 0.275063
0.475742 0.135414 0.275063
0.625264 0.135414 0.275063
0.772908 0.135414 0.275063
0.919073 0.135414 0.275063
1.000000 0.135414 0.275063
1.000000 0.135414 0.275063
0.000000 0.267100 0.275063
0.167535 0.267100 0.275063
0.323657 0.267100 0.275063
0.475742 0.267100 0.275063
0.625264 0.267100 0.275063
0.772908 0.267100 0.275063
0.919073 0.267100 0.275063
1.000000 0.267100 0.275063
1.000000 0.267100 0.275063
0.000000 0.397414 0.275063
0.167535 0.397414 0.275063
0.323657 0.397414 0.275063
0.475742 0.397414 0.275063
0.625264 0.397414 0.275063
0.772908 0.397414 0.275063
0.919073 0.397414 0.275063
1.000000 0.397414 0.275063
1.000000 0.397414 0.275063
0.000000 0.526846 0.275063
0.167535 0.526846 0.275063
0.323657 0.526846 0.275063
0.475742 0.526846 0.275063
0.625264 0.526846 0.275063
0.772908 0.526846 0.275063
0.919073 0.526846 0.275063
1.000000 0.526846 0.275063
1.000000 0.526846 0.275063
0.000000 0.655624 0.275063
0.167535 0.655624 0.275063
0.323657 0.655624 0.275063
0.475742 0.655624 0.275063
0.625264 0.655624 0.275063
0.772908 0.655624 0.275063
0.919073 0.655624 0.275063
1.000000 0.655624 0.275063
1.000000 0.655624 0.275063
0.000000 0.783886 0.275063
0.167535 0.783886 0.275063
0.323657 0.783886 0.275063
0.475742 0.783886 0.275063
0.625264 0.783886 0.275063
0.772908 0.783886 0.275063
0.919073 0.783886 0.275063
1.000000 0.783886 0.275063
1.000000 0.783886 0.275063
0.000000 0.911718 0.275063
0.167535 0.911718 0.275063
0.323657 0.911718 0.275063
0.475742 0.911718 0.275063
0.625264 0.911718 0.275063
0.772908 0.911718 0.275063
0.919073 0.911718 0.275063
1.000000 0.911718 0.275063
1.000000 0.911718 0.275063
0.000000 1.000000 0.275063
0.167535 1.000000 0.275063
0.323657 1.000000 0.275063
0.475742 1.000000 0.275063
0.625264 1.000000 0.275063
0.772908 1.000000 0.275063
0.919073 1.000000 0.275063
1.000000 1.000000 0.275063
1.000000 1.000000 0.275063
0.000000 0.000000 0.372064
0.167535 0.000000 0.372064
0.323657 0.000000 0.372064
0.475742 0.000000 0.372064
0.625264 0.000000 0.372064
0.772908 0.000000 0.372064
0.919073 0.000000 0.372064
1.000000 0.000000 0.372064
1.000000 0.000000 0.372064
0.000000 0.135414 0.372064
0.167535 0.135414 0.372064
0.323657 0.135414 0.372064
0.475742 0.135414 0.372064
0.625264 0.135414 0.372064
0.772908 0.135414 0.372064
0.919073 0.135414 0.372064
1.000000 0.135414 0.372064
1.000000 0.135414 0.372064
0.000000 0.267100 0.372064
0.167535 0.267100 0.372064
0.323657 0.267100 0.372064
0.475742 0.267100 0.372064
0.625264 0.267100 0.372064
0.772908 0.267100 0.372064
0.919073 0.267100 0.372064
1.000000 0.267100 0.372064
1.000000 0.267100 0.372064
0.000000 0.397414 0.372064
0.167535 0.397414 0.372064
0.323657 0.397414 0.372064
0.475742 0.397414 0.372064
0.625264 0.397414 0.372064
0.772908 0.397414 0.372064
0.919073 0.397414 0.372064
1.000000 0.397414 0.372064
1.000000 0.397414 0.372064
0.000000 0.526846 0.372064
0.167535 0.526846 0.372064
0.323657 0.526846 0.372064
0.475742 0.526846 0.372064
0.625264 0.526846 0.372064
0.772908 0.526846 0.372064
0.919073 0.526846 0.372064
1.000000 0.526846 0.372064
1.000000 0.526846 0.372064
0.000000 0.655624 0.372064
0.167535 0.655624 0.372064
0.323657 0.655624 0.372064
0.475742 0.655624 0.372064
0.625264 0.655624 0.372064
0.772908 0.655624 0.372064
0.919073 0.655624 0.372064
1.000000 0.655624 0.372064
1.000000 0.655624 0.372064
0.000000 0.783886 0.372064
0.167535 0.783886 0.372064
0.323657 0.783886 0.372064
0.475742 0.783886 0.372064
0.625264 0.783886 0.372064
0.772908 0.783886 0.372064
0.919073 0.783886 0.372064
1.000000 0.783886 0.372064
1.000000 0.783886 0.372064
0.000000 0.911718 0.372064
0.167535 0.911718 0.372064
0.323657 0.911718 0.372064
0.475742 0.911718 0.372064
0.625264 0.911718 0.372064
0.772908 0.911718 0.372064
0.919073 0.911718 0.372064
1.000000 0.911718 0.372064
1.000000 0.911718 0.372064
0.000000 1.000000 0.372064
0.167535 1.000000 0.372064
0.323657 1.000000 0.372064
0.475742 1.000000 0.372064
0.625264 1.000000 0.372064
0.772908 1.000000 0.372064
0.919073 1.000000 0.372064
1.000000 1.000000 0.372064
1.000000 1.000000 0.372064
0.000000 0.000000 0.470298
0.167535 0.000000 0.470298
0.323657 0.000000 0.470298
0.475742 0.000000 0.470298
0.625264 0.000000 0.470298
0.772908 0.000000 0.470298
0.919073 0.000000 0.470298
1.000000 0.000000 0.470298
1.000000 0.000000 0.470298
0.000000 0.135414 0.470298
0.167535 0.135414 0.470298
0.323657 0.135414 0.470298
0.475742 0.135414 0.470298
0.625264 0.135414 0.470298
0.772908 0.135414 0.470298
0.919073 0.135414 0.470298
1.000000 0.135414 0.470298
1.000000 0.135414 0.470298
0.000000 0.267100 0.470298
0.167535 0.267100 0.470298
0.323657 0.267100 0.470298
0.475742 0.267100 0.470298
0.625264 0.267100 0.470298
0.772908 0.267100 0.470298
0.919073 0.267100 0.470298
1.000000 0.267100 0.470298
1.000000 0.267100 0.470298
0.000000 0.397414 0.470298
0.167535 0.397414 0.470298
0.323657 0.397414 0.470298
0.475742 0.397414 0.470298
0.625264 0.397414 0.470298
0.772908 0.397414 0.470298
0.919073 0.397414 0.470298
1.000000 0.397414 0.470298
1.000000 0.397414 0.470298
0.000000 0.526846 0.470298
0.167535 0.526846 0.470298
0.323657 0.526846 0.470298
0.475742 0.526846 0.470298
0.625264 0.526846 0.470298
0.772908 0.526846 0.470298
0.919073 0.526846 0.470298
1.000000 0.526846 0.470298
1.000000 0.526846 0.470298
0.000000 0.655624 0.470298
0.167535 0.655624 0.470298
0.323657 0.655624 0.470298
0.475742 0.655624 0.470298
0.625264 0.655624 0.470298
0.772908 0.655624 0.470298
0.919073 0.655624 0.470298
1.000000 0.655624 0.470298
1.000000 0.655624 0.470298
0.000000 0.783886 0.470298
0.167535 0.783886 0.470298
0.323657 0.783886 0.470298
0.475742 0.783886 0.470298
0.625264 0.783886 0.470298
0.772908 0.783886 0.470298
0.919073 0.783886 0.470298
1.000000 0.783886 0.470298
1.000000 0.783886 0.470298
0.000000 0.911718 0.470298
0.167535 0.911718 0.470298
0.323657 0.911718 0.470298
0.475742 0.911718 0.470298
0.625264 0.911718 0.470298
0.772908 0.911718 0.470298
0.919073 0.911718 0.470298
1.000000 0.911718 0.470298
1.000000 0.911718 0.470298
0.000000 1.000000 0.470298
0.167535 1.000000 0.470298
0.323657 1.000000 0.470298
0.475742 1.000000 0.470298
0.625264 1.000000 0.470298
0.772908 1.000000 0.470298
0.919073 1.000000 0.470298
1.000000 1.000000 0.470298
1.000000 1.000000 0.470298
0.000000 0.000000 0.569526
0.167535 0.000000 0.569526
0.323657 0.000000 0.569526
0.475742 0.000000 0.569526
0.625264 0.000000 0.569526
0.772908 0.000000 0.569526
0.919073 0.000000 0.569526
1.000000 0.000000 0.569526
1.000000 0.000000 0.569526
0.000000 0.135414 0.569526
0.167535 0.135414 0.569526
0.323657 0.135414 0.569526
0.475742 0.135414 0.569526
0.625264 0.135414 0.569526
0.772908 0.135414 0.569526
0.919073 0.135414 0.569526
1.000000 0.135414 0.569526
1.000000 0.135414 0.569526
0.000000 0.267100 0.569526
0.167535 0.267100 0.569526
0.323657 0.267100 0.569526
0.475742 0.267100 0.569526
0.625264 0.267100 0.569526
0.772908 0.267100 0.569526
0.919073 0.267100 0.569526
1.000000 0.267100 0.569526
1.000000 0.267100 0.569526
0.000000 0.397414 0.569526
0.167535 0.397414 0.569526
0.323657 0.397414 0.569526
0.475742 0.397414 0.569526
0.625264 0.397414 0.569526
0.772908 0.397414 0.569526
0.919073 0.397414 0.569526
1.000000 0.397414 0.569526
1.000000 0.397414 0.569526
0.000000 0.526846 0.569526
0.167535 0.526846 0.569526
0.323657 0.526846 0.569526
0.475742 0.526846 0.569526
0.625264 0.526846 0.569526
0.772908 0.526846 0.569526
0.919073 0.526846 0.569526
1.000000 0.526846 0.569526
1.000000 0.526846 0.569526
0.000000 0.655624 0.569526
0.167535 0.655624 0.569526
0.323657 0.655624 0.569526
0.475742 0.655624 0.569526
0.625264 0.655624 0.569526
0.772908 0.655624 0.569526
0.919073 0.655624 0.569526
1.000000 0.655624 0.569526
1.000000 0.655624 0.569526
0.000000 0.783886 0.569526
0.167535 0.783886 0.569526
0.323657 0.783886 0.569526
0.475742 0.783886 0.569526
0.625264 0.783886 0.569526
0.772908 0.783886 0.569526
0.919073 0.783886 0.569526
1.000000 0.783886 0.569526
1.000000 0.783886 0.569526
0.000000 0.911718 0.569526
0.167535 0.911718 0.569526
0.323657 0.911718 0.569526
0.475742 0.911718 0.569526
0.625264 0.911718 0.569526
0.772908 0.911718 0.569526
0.919073 0.911718 0.569526
1.000000 0.911718 0.569526
1.000000 0.911718 0.569526
0.000000 1.000000 0.569526
0.167535 1.000000 0.569526
0.323657 1.000000 0.569526
0.475742 1.000000 0.569526
0.625264 1.000000 0.569526
0.772908 1.000000 0.569526
0.919073 1.000000 0.569526
1.000000 1.000000 0.569526
1.000000 1.000000 0.569526
0.000000 0.000000 0.669588
0.167535 0.000000 0.669588
0.323657 0.000000 0.669588
0.475742 0.000000 0.669588
0.625264 0.000000 0.669588
0.772908 0.000000 0.669588
0.919073 0.000000 0.669588
1.000000 0.000000 0.669588
1.000000 0.000000 0.669588
0.000000 0.135414 0.669588
0.167535 0.135414 0.669588
0.323657 0.135414 0.669588
0.475742 0.135414 0.669588
0.625264 0.135414 0.669588
0.772908 0.135414 0.669588
0.919073 0.135414 0.669588
1.000000 0.135414 0.669588
1.000000 0.135414 0.669588
0.000000 0.267100 0.669588
0.167535 0.267100 0.669588
0.323657 0.267100 0.669588
0.475742 0.267100 0.669588
0.625264 0.267100 0.669588
0.772908 0.267100 0.669588
0.919073 0.267100 0.669588
1.000000 0.267100 0.669588
1.000000 0.267100 0.669588
0.000000 0.397414 0.669588
0.167535 0.397414 0.669588
0.323657 0.397414 0.669588
0.475742 0.397414 0.669588
0.625264 0.397414 0.669588
0.772908 0.397414 0.669588
0.919073 0.397414 0.669588
1.000000 0.397414 0.669588
1.000000 0.397414 0.669588
0.000000 0.526846 0.669588
0.167535 0.526846 0.669588
0.323657 0.526846 0.669588
0.475742 0.526846 0.669588
0.625264 0.526846 0.669588
0.772908 0.526846 0.669588
0.919073 0.526846 0.669588
1.000000 0.526846 0.669588
1.000000 0.526846 0.669588
0.000000 0.655624 0.669588
0.167535 0.655624 0.669588
0.323657 0.655624 0.669588
0.475742 0.655624 0.669588
0.625264 0.655624 0.669588
0.772908 0.655624 0.669588
0.919073 0.655624 0.669588
1.000000 0.655624 0.669588
1.000000 0.655624 0.669588
0.000000 0.783886 0.669588
0.167535 0.783886 0.669588
0.323657 0.783886 0.669588
0.475742 0.783886 0.669588
0.625264 0.783886 0.669588
0.772908 0.783886 0.669588
0.919073 0.783886 0.669588
1.000000 0.783886 0.669588
1.000000 0.783886 0.669588
0.000000 0.911718 0.669588
0.167535 0.911718 0.669588
0.323657 0.911718 0.669588
0.475742 0.911718 0.669588
0.625264 0.911718 0.669588
0.772908 0.911718 0.669588
0.919073 0.911718 0.669588
1.000000 0.911718 0.669588
1.000000 0.911718 0.669588
0.000000 1.000000 0.669588
0.167535 1.000000 0.669588
0.323657 1.000000 0.669588
0.475742 1.000000 0.669588
0.625264 1.000000 0.669588
0.772908 1.000000 0.669588
0.919073 1.000000 0.669588
1.000000 1.000000 0.669588
1.000000 1.000000 0.669588
0.000000 0.000000 0.770370
0.167535 0.000000 0.770370
0.323657 0.000000 0.770370
0.475742 0.000000 0.770370
0.625264 0.000000 0.770370
0.772908 0.000000 0.770370
0.919073 0.000000 0.770370
1.000000 0.000000 0.770370
1.000000 0.000000 0.770370
0.000000 0.135414 0.770370
0.167535 0.135414 0.770370
0.323657 0.135414 0.770370
0.475742 0.135414 0.770370
0.625264 0.135414 0.770370
0.772908 0.135414 0.770370
0.919073 0.135414 0.770370
1.000000 0.135414 0.770370
1.000000 0.135414 0.770370
0.000000 0.267100 0.770370
0.167535 0.267100 0.770370
0.323657 0.267100 0.770370
0.475742 0.267100 0.770370
0.625264 0.267100 0.770370
0.772908 0.267100 0.770370
0.919073 0.267100 0.770370
1.000000 0.267100 0.770370
1.000000 0.267100 0.770370
0.000000 0.397414 0.770370
0.167535 0.397414 0.770370
0.323657 0.397414 0.770370
0.475742 0.397414 0.770370
0.625264 0.397414 0.770370
0.772908 0.397414 0.770370
0.919073 0.397414 0.770370
1.000000 0.397414 0.770370
1.000000 0.397414 0.770370
0.000000 0.526846 0.770370
0.167535 0.526846 0.770370
0.323657 0.526846 0.770370
0.475742 0.526846 0.770370
0.625264 0.526846 0.770370
0.772908 0.526846 0.770370
0.919073 0.526846 0.770370
1.000000 0.526846 0.770370
1.000000 0.526846 0.770370
0.000000 0.655624 0.770370
0.167535 0.655624 0.770370
0.323657 0.655624 0.770370
0.475742 0.655624 0.770370
0.625264 0.655624 0.770370
0.772908 0.655624 0.770370
0.919073 0.655624 0.770370
1.000000 0.655624 0.770370
1.000000 0.655624 0.770370
0.000000 0.783886 0.770370
0.167535 0.783886 0.770370
0.323657 0.783886 0.770370
0.475742 0.783886 0.770370
0.625264 0.783886 0.770370
0.772908 0.783886 0.770370
0.919073 0.783886 0.770370
1.000000 0.783886 0.770370
1.000000 0.783886 0.770370
0.000000 0.911718 0.770370
0.167535 0.911718 0.770370
0.323657 0.911718 0.770370
0.475742 0.911718 0.770370
0.625264 0.911718 0.770370
0.772908 0.911718 0.770370
0.919073 0.911718 0.770370
1.000000 0.911718 0.770370
1.000000 0.911718 0.770370
0.000000 1.000000 0.770370
0.167535 1.000000 0.770370
0.323657 1.000000 0.770370
0.475742 1.000000 0.770370
0.625264 1.000000 0.770370
0.772908 1.000000 0.770370
0.919073 1.000000 0.770370
1.000000 1.000000 0.770370
1.000000 1.000000 0.770370
