04-EFFECTS-AND-FILTERS/3d-luts-cube-files/vintage_vhs_retro.cube
# Generated by Video Auto-Editor Pipeline
TITLE "Vintage VHS Retro"
LUT_3D_SIZE 5
DOMAIN_MIN 0.0 0.0 0.0
DOMAIN_MAX 1.0 1.0 1.0
0.063000 0.054000 0.073600
0.309750 0.054000 0.073600
0.556500 0.054000 0.073600
0.803250 0.054000 0.073600
1.000000 0.054000 0.073600
0.063000 0.307800 0.073600
0.309750 0.307800 0.073600
0.556500 0.307800 0.073600
0.803250 0.307800 0.073600
1.000000 0.307800 0.073600
0.063000 0.561600 0.073600
0.309750 0.561600 0.073600
0.556500 0.561600 0.073600
0.803250 0.561600 0.073600
1.000000 0.561600 0.073600
0.063000 0.815400 0.073600
0.309750 0.815400 0.073600
0.556500 0.815400 0.073600
0.803250 0.815400 0.073600
1.000000 0.815400 0.073600
0.063000 1.000000 0.073600
0.309750 1.000000 0.073600
0.556500 1.000000 0.073600
0.803250 1.000000 0.073600
1.000000 1.000000 0.073600
0.063000 0.054000 0.285200
0.309750 0.054000 0.285200
0.556500 0.054000 0.285200
0.803250 0.054000 0.285200
1.000000 0.054000 0.285200
0.063000 0.307800 0.285200
0.309750 0.307800 0.285200
0.556500 0.307800 0.285200
0.803250 0.307800 0.285200
1.000000 0.307800 0.285200
0.063000 0.561600 0.285200
0.309750 0.561600 0.285200
0.556500 0.561600 0.285200
0.803250 0.561600 0.285200
1.000000 0.561600 0.285200
0.063000 0.815400 0.285200
0.309750 0.815400 0.285200
0.556500 0.815400 0.285200
0.803250 0.815400 0.285200
1.000000 0.815400 0.285200
0.063000 1.000000 0.285200
0.309750 1.000000 0.285200
0.556500 1.000000 0.285200
0.803250 1.000000 0.285200
1.000000 1.000000 0.285200
0.063000 0.054000 0.496800
0.309750 0.054000 0.496800
0.556500 0.054000 0.496800
0.803250 0.054000 0.496800
1.000000 0.054000 0.496800
0.063000 0.307800 0.496800
0.309750 0.307800 0.496800
0.556500 0.307800 0.496800
0.803250 0.307800 0.496800
1.000000 0.307800 0.496800
0.063000 0.561600 0.496800
0.309750 0.561600 0.496800
0.556500 0.561600 0.496800
0.803250 0.561600 0.496800
1.000000 0.561600 0.496800
0.063000 0.815400 0.496800
0.309750 0.815400 0.496800
0.556500 0.815400 0.496800
0.803250 0.815400 0.496800
1.000000 0.815400 0.496800
0.063000 1.000000 0.496800
0.309750 1.000000 0.496800
0.556500 1.000000 0.496800
0.803250 1.000000 0.496800
1.000000 1.000000 0.496800
0.063000 0.054000 0.708400
0.309750 0.054000 0.708400
0.556500 0.054000 0.708400
0.803250 0.054000 0.708400
1.000000 0.054000 0.708400
0.063000 0.307800 0.708400
0.309750 0.307800 0.708400
0.556500 0.307800 0.708400
0.803250 0.307800 0.708400
1.000000 0.307800 0.708400
0.063000 0.561600 0.708400
0.309750 0.561600 0.708400
0.556500 0.561600 0.708400
0.803250 0.561600 0.708400
1.000000 0.561600 0.708400
0.063000 0.815400 0.708400
0.309750 0.815400 0.708400
0.556500 0.815400 0.708400
0.803250 0.815400 0.708400
1.000000 0.815400 0.708400
0.063000 1.000000 0.708400
0.309750 1.000000 0.708400
0.556500 1.000000 0.708400
0.803250 1.000000 0.708400
1.000000 1.000000 0.708400
0.063000 0.054000 0.920000
0.309750 0.054000 0.920000
0.556500 0.054000 0.920000
0.803250 0.054000 0.920000
1.000000 0.054000 0.920000
0.063000 0.307800 0.920000
0.309750 0.307800 0.920000
0.556500 0.307800 0.920000
0.803250 0.307800 0.920000
1.000000 0.307800 0.920000
0.063000 0.561600 0.920000
0.309750 0.561600 0.920000
0.556500 0.561600 0.920000
0.803250 0.561600 0.920000
1.000000 0.561600 0.920000
0.063000 0.815400 0.920000
0.309750 0.815400 0.920000
0.556500 0.815400 0.920000
0.803250 0.815400 0.920000
1.000000 0.815400 0.920000
0.063000 1.000000 0.920000
0.309750 1.000000 0.920000
0.556500 1.000000 0.920000
0.803250 1.000000 0.920000
1.000000 1.000000 0.920000
