04-EFFECTS-AND-FILTERS/3d-luts-cube-files/vintage_vhs_retro.cube
# Generated by Video Auto-Editor Pipeline
TITLE "Vintage VHS Retro"
LUT_3D_SIZE 9
DOMAIN_MIN 0.0 0.0 0.0
DOMAIN_MAX 1.0 1.0 1.0
0.063000 0.054000 0.073600
0.186375 0.054000 0.073600
0.309750 0.054000 0.073600
0.433125 0.054000 0.073600
0.556500 0.054000 0.073600
0.679875 0.054000 0.073600
0.803250 0.054000 0.073600
0.926625 0.054000 0.073600
1.000000 0.054000 0.073600
0.063000 0.180900 0.073600
0.186375 0.180900 0.073600
0.309750 0.180900 0.073600
0.433125 0.180900 0.073600
0.556500 0.180900 0.073600
0.679875 0.180900 0.073600
0.803250 0.180900 0.073600
0.926625 0.180900 0.073600
1.000000 0.180900 0.073600
0.063000 0.307800 0.073600
0.186375 0.307800 0.073600
0.309750 0.307800 0.073600
0.433125 0.307800 0.073600
0.556500 0.307800 0.073600
0.679875 0.307800 0.073600
0.803250 0.307800 0.073600
0.926625 0.307800 0.073600
1.000000 0.307800 0.073600
0.063000 0.434700 0.073600
0.186375 0.434700 0.073600
0.309750 0.434700 0.073600
0.433125 0.434700 0.073600
0.556500 0.434700 0.073600
0.679875 0.434700 0.073600
0.803250 0.434700 0.073600
0.926625 0.434700 0.073600
1.000000 0.434700 0.073600
0.063000 0.561600 0.073600
0.186375 0.561600 0.073600
0.309750 0.561600 0.073600
0.433125 0.561600 0.073600
0.556500 0.561600 0.073600
0.679875 0.561600 0.073600
0.803250 0.561600 0.073600
0.926625 0.561600 0.073600
1.000000 0.561600 0.073600
0.063000 0.688500 0.073600
0.186375 0.688500 0.073600
0.309750 0.688500 0.073600
0.433125 0.688500 0.073600
0.556500 0.688500 0.073600
0.679875 0.688500 0.073600
0.803250 0.688500 0.073600
0.926625 0.688500 0.073600
1.000000 0.688500 0.073600
0.063000 0.815400 0.073600
0.186375 0.815400 0.073600
0.309750 0.815400 0.073600
0.433125 0.815400 0.073600
0.556500 0.815400 0.073600
0.679875 0.815400 0.073600
0.803250 0.815400 0.073600
0.926625 0.815400 0.073600
1.000000 0.815400 0.073600
0.063000 0.942300 0.073600
0.186375 0.942300 0.073600
0.309750 0.942300 0.073600
0.433125 0.942300 0.073600
0.556500 0.942300 0.073600
0.679875 0.942300 0.073600
0.803250 0.942300 0.073600
0.926625 0.942300 0.073600
1.000000 0.942300 0.073600
0.063000 1.000000 0.073600
0.186375 1.000000 0.073600
0.309750 1.000000 0.073600
0.433125 1.000000 0.073600
0.556500 1.000000 0.073600
0.679875 1.000000 0.073600
0.803250 1.000000 0.073600
0.926625 1.000000 0.073600
1.000000 1.000000 0.073600
0.063000 0.054000 0.179400
0.186375 0.054000 0.179400
0.309750 0.054000 0.179400
0.433125 0.054000 0.179400
0.556500 0.054000 0.179400
0.679875 0.054000 0.179400
0.803250 0.054000 0.179400
0.926625 0.054000 0.179400
1.000000 0.054000 0.179400
0.063000 0.180900 0.179400
0.186375 0.180900 0.179400
0.309750 0.180900 0.179400
0.433125 0.180900 0.179400
0.556500 0.180900 0.179400
0.679875 0.180900 0.179400
0.803250 0.180900 0.179400
0.926625 0.180900 0.179400
1.000000 0.180900 0.179400
0.063000 0.307800 0.179400
0.186375 0.307800 0.179400
0.309750 0.307800 0.179400
0.433125 0.307800 0.179400
0.556500 0.307800 0.179400
0.679875 0.307800 0.179400
0.803250 0.307800 0.179400
0.926625 0.307800 0.179400
1.000000 0.307800 0.179400
0.063000 0.434700 0.179400
0.186375 0.434700 0.179400
0.309750 0.434700 0.179400
0.433125 0.434700 0.179400
0.556500 0.434700 0.179400
0.679875 0.434700 0.179400
0.803250 0.434700 0.179400
0.926625 0.434700 0.179400
1.000000 0.434700 0.179400
0.063000 0.561600 0.179400
0.186375 0.561600 0.179400
0.309750 0.561600 0.179400
0.433125 0.561600 0.179400
0.556500 0.561600 0.179400
0.679875 0.561600 0.179400
0.803250 0.561600 0.179400
0.926625 0.561600 0.179400
1.000000 0.561600 0.179400
0.063000 0.688500 0.179400
0.186375 0.688500 0.179400
0.309750 0.688500 0.179400
0.433125 0.688500 0.179400
0.556500 0.688500 0.179400
0.679875 0.688500 0.179400
0.803250 0.688500 0.179400
0.926625 0.688500 0.179400
1.000000 0.688500 0.179400
0.063000 0.815400 0.179400
0.186375 0.815400 0.179400
0.309750 0.815400 0.179400
0.433125 0.815400 0.179400
0.556500 0.815400 0.179400
0.679875 0.815400 0.179400
0.803250 0.815400 0.179400
0.926625 0.815400 0.179400
1.000000 0.815400 0.179400
0.063000 0.942300 0.179400
0.186375 0.942300 0.179400
0.309750 0.942300 0.179400
0.433125 0.942300 0.179400
0.556500 0.942300 0.179400
0.679875 0.942300 0.179400
0.803250 0.942300 0.179400
0.926625 0.942300 0.179400
1.000000 0.942300 0.179400
0.063000 1.000000 0.179400
0.186375 1.000000 0.179400
0.309750 1.000000 0.179400
0.433125 1.000000 0.179400
0.556500 1.000000 0.179400
0.679875 1.000000 0.179400
0.803250 1.000000 0.179400
0.926625 1.000000 0.179400
1.000000 1.000000 0.179400
0.063000 0.054000 0.285200
0.186375 0.054000 0.285200
0.309750 0.054000 0.285200
0.433125 0.054000 0.285200
0.556500 0.054000 0.285200
0.679875 0.054000 0.285200
0.803250 0.054000 0.285200
0.926625 0.054000 0.285200
1.000000 0.054000 0.285200
0.063000 0.180900 0.285200
0.186375 0.180900 0.285200
0.309750 0.180900 0.285200
0.433125 0.180900 0.285200
0.556500 0.180900 0.285200
0.679875 0.180900 0.285200
0.803250 0.180900 0.285200
0.926625 0.180900 0.285200
1.000000 0.180900 0.285200
0.063000 0.307800 0.285200
0.186375 0.307800 0.285200
0.309750 0.307800 0.285200
0.433125 0.307800 0.285200
0.556500 0.307800 0.285200
0.679875 0.307800 0.285200
0.803250 0.307800 0.285200
0.926625 0.307800 0.285200
1.000000 0.307800 0.285200
0.063000 0.434700 0.285200
0.186375 0.434700 0.285200
0.309750 0.434700 0.285200
0.433125 0.434700 0.285200
0.556500 0.434700 0.285200
0.679875 0.434700 0.285200
0.803250 0.434700 0.285200
0.926625 0.434700 0.285200
1.000000 0.434700 0.285200
0.063000 0.561600 0.285200
0.186375 0.561600 0.285200
0.309750 0.561600 0.285200
0.433125 0.561600 0.285200
0.556500 0.561600 0.285200
0.679875 0.561600 0.285200
0.803250 0.561600 0.285200
0.926625 0.561600 0.285200
1.000000 0.561600 0.285200
0.063000 0.688500 0.285200
0.186375 0.688500 0.285200
0.309750 0.688500 0.285200
0.433125 0.688500 0.285200
0.556500 0.688500 0.285200
0.679875 0.688500 0.285200
0.803250 0.688500 0.285200
0.926625 0.688500 0.285200
1.000000 0.688500 0.285200
0.063000 0.815400 0.285200
0.186375 0.815400 0.285200
0.309750 0.815400 0.285200
0.433125 0.815400 0.285200
0.556500 0.815400 0.285200
0.679875 0.815400 0.285200
0.803250 0.815400 0.285200
0.926625 0.815400 0.285200
1.000000 0.815400 0.285200
0.063000 0.942300 0.285200
0.186375 0.942300 0.285200
0.309750 0.942300 0.285200
0.433125 0.942300 0.285200
0.556500 0.942300 0.285200
0.679875 0.942300 0.285200
0.803250 0.942300 0.285200
0.926625 0.942300 0.285200
1.000000 0.942300 0.285200
0.063000 1.000000 0.285200
0.186375 1.000000 0.285200
0.309750 1.000000 0.285200
0.433125 1.000000 0.285200
0.556500 1.000000 0.285200
0.679875 1.000000 0.285200
0.803250 1.000000 0.285200
0.926625 1.000000 0.285200
1.000000 1.000000 0.285200
0.063000 0.054000 0.391000
0.186375 0.054000 0.391000
0.309750 0.054000 0.391000
0.433125 0.054000 0.391000
0.556500 0.054000 0.391000
0.679875 0.054000 0.391000
0.803250 0.054000 0.391000
0.926625 0.054000 0.391000
1.000000 0.054000 0.391000
0.063000 0.180900 0.391000
0.186375 0.180900 0.391000
0.309750 0.180900 0.391000
0.433125 0.180900 0.391000
0.556500 0.180900 0.391000
0.679875 0.180900 0.391000
0.803250 0.180900 0.391000
0.926625 0.180900 0.391000
1.000000 0.180900 0.391000
0.063000 0.307800 0.391000
0.186375 0.307800 0.391000
0.309750 0.307800 0.391000
0.433125 0.307800 0.391000
0.556500 0.307800 0.391000
0.679875 0.307800 0.391000
0.803250 0.307800 0.391000
0.926625 0.307800 0.391000
1.000000 0.307800 0.391000
0.063000 0.434700 0.391000
0.186375 0.434700 0.391000
0.309750 0.434700 0.391000
0.433125 0.434700 0.391000
0.556500 0.434700 0.391000
0.679875 0.434700 0.391000
0.803250 0.434700 0.391000
0.926625 0.434700 0.391000
1.000000 0.434700 0.391000
0.063000 0.561600 0.391000
0.186375 0.561600 0.391000
0.309750 0.561600 0.391000
0.433125 0.561600 0.391000
0.556500 0.561600 0.391000
0.679875 0.561600 0.391000
0.803250 0.561600 0.391000
0.926625 0.561600 0.391000
1.000000 0.561600 0.391000
0.063000 0.688500 0.391000
0.186375 0.688500 0.391000
0.309750 0.688500 0.391000
0.433125 0.688500 0.391000
0.556500 0.688500 0.391000
0.679875 0.688500 0.391000
0.803250 0.688500 0.391000
0.926625 0.688500 0.391000
1.000000 0.688500 0.391000
0.063000 0.815400 0.391000
0.186375 0.815400 0.391000
0.309750 0.815400 0.391000
0.433125 0.815400 0.391000
0.556500 0.815400 0.391000
0.679875 0.815400 0.391000
0.803250 0.815400 0.391000
0.926625 0.815400 0.391000
1.000000 0.815400 0.391000
0.063000 0.942300 0.391000
0.186375 0.942300 0.391000
0.309750 0.942300 0.391000
0.433125 0.942300 0.391000
0.556500 0.942300 0.391000
0.679875 0.942300 0.391000
0.803250 0.942300 0.391000
0.926625 0.942300 0.391000
1.000000 0.942300 0.391000
0.063000 1.000000 0.391000
0.186375 1.000000 0.391000
0.309750 1.000000 0.391000
0.433125 1.000000 0.391000
0.556500 1.000000 0.391000
0.679875 1.000000 0.391000
0.803250 1.000000 0.391000
0.926625 1.000000 0.391000
1.000000 1.000000 0.391000
0.063000 0.054000 0.496800
0.186375 0.054000 0.496800
0.309750 0.054000 0.496800
0.433125 0.054000 0.496800
0.556500 0.054000 0.496800
0.679875 0.054000 0.496800
0.803250 0.054000 0.496800
0.926625 0.054000 0.496800
1.000000 0.054000 0.496800
0.063000 0.180900 0.496800
0.186375 0.180900 0.496800
0.309750 0.180900 0.496800
0.433125 0.180900 0.496800
0.556500 0.180900 0.496800
0.679875 0.180900 0.496800
0.803250 0.180900 0.496800
0.926625 0.180900 0.496800
1.000000 0.180900 0.496800
0.063000 0.307800 0.496800
0.186375 0.307800 0.496800
0.309750 0.307800 0.496800
0.433125 0.307800 0.496800
0.556500 0.307800 0.496800
0.679875 0.307800 0.496800
0.803250 0.307800 0.496800
0.926625 0.307800 0.496800
1.000000 0.307800 0.496800
0.063000 0.434700 0.496800
0.186375 0.434700 0.496800
0.309750 0.434700 0.496800
0.433125 0.434700 0.496800
0.556500 0.434700 0.496800
0.679875 0.434700 0.496800
0.803250 0.434700 0.496800
0.926625 0.434700 0.496800
1.000000 0.434700 0.496800
0.063000 0.561600 0.496800
0.186375 0.561600 0.496800
0.309750 0.561600 0.496800
0.433125 0.561600 0.496800
0.556500 0.561600 0.496800
0.679875 0.561600 0.496800
0.803250 0.561600 0.496800
0.926625 0.561600 0.496800
1.000000 0.561600 0.496800
0.063000 0.688500 0.496800
0.186375 0.688500 0.496800
0.309750 0.688500 0.496800
0.433125 0.688500 0.496800
0.556500 0.688500 0.496800
0.679875 0.688500 0.496800
0.803250 0.688500 0.496800
0.926625 0.688500 0.496800
1.000000 0.688500 0.496800
0.063000 0.815400 0.496800
0.186375 0.815400 0.496800
0.309750 0.815400 0.496800
0.433125 0.815400 0.496800
0.556500 0.815400 0.496800
0.679875 0.815400 0.496800
0.803250 0.815400 0.496800
0.926625 0.815400 0.496800
1.000000 0.815400 0.496800
0.063000 0.942300 0.496800
0.186375 0.942300 0.496800
0.309750 0.942300 0.496800
0.433125 0.942300 0.496800
0.556500 0.942300 0.496800
0.679875 0.942300 0.496800
0.803250 0.942300 0.496800
0.926625 0.942300 0.496800
1.000000 0.942300 0.496800
0.063000 1.000000 0.496800
0.186375 1.000000 0.496800
0.309750 1.000000 0.496800
0.433125 1.000000 0.496800
0.556500 1.000000 0.496800
0.679875 1.000000 0.496800
0.803250 1.000000 0.496800
0.926625 1.000000 0.496800
1.000000 1.000000 0.496800
0.063000 0.054000 0.602600
0.186375 0.054000 0.602600
0.309750 0.054000 0.602600
0.433125 0.054000 0.602600
0.556500 0.054000 0.602600
0.679875 0.054000 0.602600
0.803250 0.054000 0.602600
0.926625 0.054000 0.602600
1.000000 0.054000 0.602600
0.063000 0.180900 0.602600
0.186375 0.180900 0.602600
0.309750 0.180900 0.602600
0.433125 0.180900 0.602600
0.556500 0.180900 0.602600
0.679875 0.180900 0.602600
0.803250 0.180900 0.602600
0.926625 0.180900 0.602600
1.000000 0.180900 0.602600
0.063000 0.307800 0.602600
0.186375 0.307800 0.602600
0.309750 0.307800 0.602600
0.433125 0.307800 0.602600
0.556500 0.307800 0.602600
0.679875 0.307800 0.602600
0.803250 0.307800 0.602600
0.926625 0.307800 0.602600
1.000000 0.307800 0.602600
0.063000 0.434700 0.602600
0.186375 0.434700 0.602600
0.309750 0.434700 0.602600
0.433125 0.434700 0.602600
0.556500 0.434700 0.602600
0.679875 0.434700 0.602600
0.803250 0.434700 0.602600
0.926625 0.434700 0.602600
1.000000 0.434700 0.602600
0.063000 0.561600 0.602600
0.186375 0.561600 0.602600
0.309750 0.561600 0.602600
0.433125 0.561600 0.602600
0.556500 0.561600 0.602600
0.679875 0.561600 0.602600
0.803250 0.561600 0.602600
0.926625 0.561600 0.602600
1.000000 0.561600 0.602600
0.063000 0.688500 0.602600
0.186375 0.688500 0.602600
0.309750 0.688500 0.602600
0.433125 0.688500 0.602600
0.556500 0.688500 0.602600
0.679875 0.688500 0.602600
0.803250 0.688500 0.602600
0.926625 0.688500 0.602600
1.000000 0.688500 0.602600
0.063000 0.815400 0.602600
0.186375 0.815400 0.602600
0.309750 0.815400 0.602600
0.433125 0.815400 0.602600
0.556500 0.815400 0.602600
0.679875 0.815400 0.602600
0.803250 0.815400 0.602600
0.926625 0.815400 0.602600
1.000000 0.815400 0.602600
0.063000 0.942300 0.602600
0.186375 0.942300 0.602600
0.309750 0.942300 0.602600
0.433125 0.942300 0.602600
0.556500 0.942300 0.602600
0.679875 0.942300 0.602600
0.803250 0.942300 0.602600
0.926625 0.942300 0.602600
1.000000 0.942300 0.602600
0.063000 1.000000 0.602600
0.186375 1.000000 0.602600
0.309750 1.000000 0.602600
0.433125 1.000000 0.602600
0.556500 1.000000 0.602600
0.679875 1.000000 0.602600
0.803250 1.000000 0.602600
0.926625 1.000000 0.602600
1.000000 1.000000 0.602600
0.063000 0.054000 0.708400
0.186375 0.054000 0.708400
0.309750 0.054000 0.708400
0.433125 0.054000 0.708400
0.556500 0.054000 0.708400
0.679875 0.054000 0.708400
0.803250 0.054000 0.708400
0.926625 0.054000 0.708400
1.000000 0.054000 0.708400
0.063000 0.180900 0.708400
0.186375 0.180900 0.708400
0.309750 0.180900 0.708400
0.433125 0.180900 0.708400
0.556500 0.180900 0.708400
0.679875 0.180900 0.708400
0.803250 0.180900 0.708400
0.926625 0.180900 0.708400
1.000000 0.180900 0.708400
0.063000 0.307800 0.708400
0.186375 0.307800 0.708400
0.309750 0.307800 0.708400
0.433125 0.307800 0.708400
0.556500 0.307800 0.708400
0.679875 0.307800 0.708400
0.803250 0.307800 0.708400
0.926625 0.307800 0.708400
1.000000 0.307800 0.708400
0.063000 0.434700 0.708400
0.186375 0.434700 0.708400
0.309750 0.434700 0.708400
0.433125 0.434700 0.708400
0.556500 0.434700 0.708400
0.679875 0.434700 0.708400
0.803250 0.434700 0.708400
0.926625 0.434700 0.708400
1.000000 0.434700 0.708400
0.063000 0.561600 0.708400
0.186375 0.561600 0.708400
0.309750 0.561600 0.708400
0.433125 0.561600 0.708400
0.556500 0.561600 0.708400
0.679875 0.561600 0.708400
0.803250 0.561600 0.708400
0.926625 0.561600 0.708400
1.000000 0.561600 0.708400
0.063000 0.688500 0.708400
0.186375 0.688500 0.708400
0.309750 0.688500 0.708400
0.433125 0.688500 0.708400
0.556500 0.688500 0.708400
0.679875 0.688500 0.708400
0.803250 0.688500 0.708400
0.926625 0.688500 0.708400
1.000000 0.688500 0.708400
0.063000 0.815400 0.708400
0.186375 0.815400 0.708400
0.309750 0.815400 0.708400
0.433125 0.815400 0.708400
0.556500 0.815400 0.708400
0.679875 0.815400 0.708400
0.803250 0.815400 0.708400
0.926625 0.815400 0.708400
1.000000 0.815400 0.708400
0.063000 0.942300 0.708400
0.186375 0.942300 0.708400
0.309750 0.942300 0.708400
0.433125 0.942300 0.708400
0.556500 0.942300 0.708400
0.679875 0.942300 0.708400
0.803250 0.942300 0.708400
0.926625 0.942300 0.708400
1.000000 0.942300 0.708400
0.063000 1.000000 0.708400
0.186375 1.000000 0.708400
0.309750 1.000000 0.708400
0.433125 1.000000 0.708400
0.556500 1.000000 0.708400
0.679875 1.000000 0.708400
0.803250 1.000000 0.708400
0.926625 1.000000 0.708400
1.000000 1.000000 0.708400
0.063000 0.054000 0.814200
0.186375 0.054000 0.814200
0.309750 0.054000 0.814200
0.433125 0.054000 0.814200
0.556500 0.054000 0.814200
0.679875 0.054000 0.814200
0.803250 0.054000 0.814200
0.926625 0.054000 0.814200
1.000000 0.054000 0.814200
0.063000 0.180900 0.814200
0.186375 0.180900 0.814200
0.309750 0.180900 0.814200
0.433125 0.180900 0.814200
0.556500 0.180900 0.814200
0.679875 0.180900 0.814200
0.803250 0.180900 0.814200
0.926625 0.180900 0.814200
1.000000 0.180900 0.814200
0.063000 0.307800 0.814200
0.186375 0.307800 0.814200
0.309750 0.307800 0.814200
0.433125 0.307800 0.814200
0.556500 0.307800 0.814200
0.679875 0.307800 0.814200
0.803250 0.307800 0.814200
0.926625 0.307800 0.814200
1.000000 0.307800 0.814200
0.063000 0.434700 0.814200
0.186375 0.434700 0.814200
0.309750 0.434700 0.814200
0.433125 0.434700 0.814200
0.556500 0.434700 0.814200
0.679875 0.434700 0.814200
0.803250 0.434700 0.814200
0.926625 0.434700 0.814200
1.000000 0.434700 0.814200
0.063000 0.561600 0.814200
0.186375 0.561600 0.814200
0.309750 0.561600 0.814200
0.433125 0.561600 0.814200
0.556500 0.561600 0.814200
0.679875 0.561600 0.814200
0.803250 0.561600 0.814200
0.926625 0.561600 0.814200
1.000000 0.561600 0.814200
0.063000 0.688500 0.814200
0.186375 0.688500 0.814200
0.309750 0.688500 0.814200
0.433125 0.688500 0.814200
0.556500 0.688500 0.814200
0.679875 0.688500 0.814200
0.803250 0.688500 0.814200
0.926625 0.688500 0.814200
1.000000 0.688500 0.814200
0.063000 0.815400 0.814200
0.186375 0.815400 0.814200
0.309750 0.815400 0.814200
0.433125 0.815400 0.814200
0.556500 0.815400 0.814200
0.679875 0.815400 0.814200
0.803250 0.815400 0.814200
0.926625 0.815400 0.814200
1.000000 0.815400 0.814200
0.063000 0.942300 0.814200
0.186375 0.942300 0.814200
0.309750 0.942300 0.814200
0.433125 0.942300 0.814200
0.556500 0.942300 0.814200
0.679875 0.942300 0.814200
0.803250 0.942300 0.814200
0.926625 0.942300 0.814200
1.000000 0.942300 0.814200
0.063000 1.000000 0.814200
0.186375 1.000000 0.814200
0.309750 1.000000 0.814200
0.433125 1.000000 0.814200
0.556500 1.000000 0.814200
0.679875 1.000000 0.814200
0.803250 1.000000 0.814200
0.926625 1.000000 0.814200
1.000000 1.000000 0.814200
0.063000 0.054000 0.920000
0.186375 0.054000 0.920000
0.309750 0.054000 0.920000
0.433125 0.054000 0.920000
0.556500 0.054000 0.920000
0.679875 0.054000 0.920000
0.803250 0.054000 0.920000
0.926625 0.054000 0.920000
1.000000 0.054000 0.920000
0.063000 0.180900 0.920000
0.186375 0.180900 0.920000
0.309750 0.180900 0.920000
0.433125 0.180900 0.920000
0.556500 0.180900 0.920000
0.679875 0.180900 0.920000
0.803250 0.180900 0.920000
0.926625 0.180900 0.920000
1.000000 0.180900 0.920000
0.063000 0.307800 0.920000
0.186375 0.307800 0.920000
0.309750 0.307800 0.920000
0.433125 0.307800 0.920000
0.556500 0.307800 0.920000
0.679875 0.307800 0.920000
0.803250 0.307800 0.920000
0.926625 0.307800 0.920000
1.000000 0.307800 0.920000
0.063000 0.434700 0.920000
0.186375 0.434700 0.920000
0.309750 0.434700 0.920000
0.433125 0.434700 0.920000
0.556500 0.434700 0.920000
0.679875 0.434700 0.920000
0.803250 0.434700 0.920000
0.926625 0.434700 0.920000
1.000000 0.434700 0.920000
0.063000 0.561600 0.920000
0.186375 0.561600 0.920000
0.309750 0.561600 0.920000
0.433125 0.561600 0.920000
0.556500 0.561600 0.920000
0.679875 0.561600 0.920000
0.803250 0.561600 0.920000
0.926625 0.561600 0.920000
1.000000 0.561600 0.920000
0.063000 0.688500 0.920000
0.186375 0.688500 0.920000
0.309750 0.688500 0.920000
0.433125 0.688500 0.920000
0.556500 0.688500 0.920000
0.679875 0.688500 0.920000
0.803250 0.688500 0.920000
0.926625 0.688500 0.920000
1.000000 0.688500 0.920000
0.063000 0.815400 0.920000
0.186375 0.815400 0.920000
0.309750 0.815400 0.920000
0.433125 0.815400 0.920000
0.556500 0.815400 0.920000
0.679875 0.815400 0.920000
0.803250 0.815400 0.920000
0.926625 0.815400 0.920000
1.000000 0.815400 0.920000
0.063000 0.942300 0.920000
0.186375 0.942300 0.920000
0.309750 0.942300 0.920000
0.433125 0.942300 0.920000
0.556500 0.942300 0.920000
0.679875 0.942300 0.920000
0.803250 0.942300 0.920000
0.926625 0.942300 0.920000
1.000000 0.942300 0.920000
0.063000 1.000000 0.920000
0.186375 1.000000 0.920000
0.309750 1.000000 0.920000
0.433125 1.000000 0.920000
0.556500 1.000000 0.920000
0.679875 1.000000 0.920000
0.803250 1.000000 0.920000
0.926625 1.000000 0.920000
1.000000 1.000000 0.920000
