04-EFFECTS-AND-FILTERS/3d-luts-cube-files/vintage_vhs_retro.cube
# Generated by Video Auto-Editor Pipeline
TITLE "Vintage VHS Retro"
LUT_3D_SIZE 17
DOMAIN_MIN 0.0 0.0 0.0
DOMAIN_MAX 1.0 1.0 1.0
0.063000 0.054000 0.073600
0.124687 0.054000 0.073600
0.186375 0.054000 0.073600
0.248062 0.054000 0.073600
0.309750 0.054000 0.073600
0.371437 0.054000 0.073600
0.433125 0.054000 0.073600
0.494813 0.054000 0.073600
0.556500 0.054000 0.073600
0.618187 0.054000 0.073600
0.679875 0.054000 0.073600
0.741563 0.054000 0.073600
0.803250 0.054000 0.073600
0.864938 0.054000 0.073600
0.926625 0.054000 0.073600
0.988312 0.054000 0.073600
1.000000 0.054000 0.073600
0.063000 0.117450 0.073600
0.124687 0.117450 0.073600
0.186375 0.117450 0.073600
0.248062 0.117450 0.073600
0.309750 0.117450 0.073600
0.371437 0.117450 0.073600
0.433125 0.117450 0.073600
0.494813 0.117450 0.073600
0.556500 0.117450 0.073600
0.618187 0.117450 0.073600
0.679875 0.117450 0.073600
0.741563 0.117450 0.073600
0.803250 0.117450 0.073600
0.864938 0.117450 0.073600
0.926625 0.117450 0.073600
0.988312 0.117450 0.073600
1.000000 0.117450 0.073600
0.063000 0.180900 0.073600
0.124687 0.180900 0.073600
0.186375 0.180900 0.073600
0.248062 0.180900 0.073600
0.309750 0.180900 0.073600
0.371437 0.180900 0.073600
0.433125 0.180900 0.073600
0.494813 0.180900 0.073600
0.556500 0.180900 0.073600
0.618187 0.180900 0.073600
0.679875 0.180900 0.073600
0.741563 0.180900 0.073600
0.803250 0.180900 0.073600
0.864938 0.180900 0.073600
0.926625 0.180900 0.073600
0.988312 0.180900 0.073600
1.000000 0.180900 0.073600
0.063000 0.244350 0.073600
0.124687 0.244350 0.073600
0.186375 0.244350 0.073600
0.248062 0.244350 0.073600
0.309750 0.244350 0.073600
0.371437 0.244350 0.073600
0.433125 0.244350 0.073600
0.494813 0.244350 0.073600
0.556500 0.244350 0.073600
0.618187 0.244350 0.073600
0.679875 0.244350 0.073600
0.741563 0.244350 0.073600
0.803250 0.244350 0.073600
0.864938 0.244350 0.073600
0.926625 0.244350 0.073600
0.988312 0.244350 0.073600
1.000000 0.244350 0.073600
0.063000 0.307800 0.073600
0.124687 0.307800 0.073600
0.186375 0.307800 0.073600
0.248062 0.307800 0.073600
0.309750 0.307800 0.073600
0.371437 0.307800 0.073600
0.433125 0.307800 0.073600
0.494813 0.307800 0.073600
0.556500 0.307800 0.073600
0.618187 0.307800 0.073600
0.679875 0.307800 0.073600
0.741563 0.307800 0.073600
0.803250 0.307800 0.073600
0.864938 0.307800 0.073600
0.926625 0.307800 0.073600
0.988312 0.307800 0.073600
1.000000 0.307800 0.073600
0.063000 0.371250 0.073600
0.124687 0.371250 0.073600
0.186375 0.371250 0.073600
0.248062 0.371250 0.073600
0.309750 0.371250 0.073600
0.371437 0.371250 0.073600
0.433125 0.371250 0.073600
0.494813 0.371250 0.073600
0.556500 0.371250 0.073600
0.618187 0.371250 0.073600
0.679875 0.371250 0.073600
0.741563 0.371250 0.073600
0.803250 0.371250 0.073600
0.864938 0.371250 0.073600
0.926625 0.371250 0.073600
0.988312 0.371250 0.073600
1.000000 0.371250 0.073600
0.063000 0.434700 0.073600
0.124687 0.434700 0.073600
0.186375 0.434700 0.073600
0.248062 0.434700 0.073600
0.309750 0.434700 0.073600
0.371437 0.434700 0.073600
0.433125 0.434700 0.073600
0.494813 0.434700 0.073600
0.556500 0.434700 0.073600
0.618187 0.434700 0.073600
0.679875 0.434700 0.073600
0.741563 0.434700 0.073600
0.803250 0.434700 0.073600
0.864938 0.434700 0.073600
0.926625 0.434700 0.073600
0.988312 0.434700 0.073600
1.000000 0.434700 0.073600
0.063000 0.498150 0.073600
0.124687 0.498150 0.073600
0.186375 0.498150 0.073600
0.248062 0.498150 0.073600
0.309750 0.498150 0.073600
0.371437 0.498150 0.073600
0.433125 0.498150 0.073600
0.494813 0.498150 0.073600
0.556500 0.498150 0.073600
0.618187 0.498150 0.073600
0.679875 0.498150 0.073600
0.741563 0.498150 0.073600
0.803250 0.498150 0.073600
0.864938 0.498150 0.073600
0.926625 0.498150 0.073600
0.988312 0.498150 0.073600
1.000000 0.498150 0.073600
0.063000 0.561600 0.073600
0.124687 0.561600 0.073600
0.186375 0.561600 0.073600
0.248062 0.561600 0.073600
0.309750 0.561600 0.073600
0.371437 0.561600 0.073600
0.433125 0.561600 0.073600
0.494813 0.561600 0.073600
0.556500 0.561600 0.073600
0.618187 0.561600 0.073600
0.679875 0.561600 0.073600
0.741563 0.561600 0.073600
0.803250 0.561600 0.073600
0.864938 0.561600 0.073600
0.926625 0.561600 0.073600
0.988312 0.561600 0.073600
1.000000 0.561600 0.073600
0.063000 0.625050 0.073600
0.124687 0.625050 0.073600
0.186375 0.625050 0.073600
0.248062 0.625050 0.073600
0.309750 0.625050 0.073600
0.371437 0.625050 0.073600
0.433125 0.625050 0.073600
0.494813 0.625050 0.073600
0.556500 0.625050 0.073600
0.618187 0.625050 0.073600
0.679875 0.625050 0.073600
0.741563 0.625050 0.073600
0.803250 0.625050 0.073600
0.864938 0.625050 0.073600
0.926625 0.625050 0.073600
0.988312 0.625050 0.073600
1.000000 0.625050 0.073600
0.063000 0.688500 0.073600
0.124687 0.688500 0.073600
0.186375 0.688500 0.073600
0.248062 0.688500 0.073600
0.309750 0.688500 0.073600
0.371437 0.688500 0.073600
0.433125 0.688500 0.073600
0.494813 0.688500 0.073600
0.556500 0.688500 0.073600
0.618187 0.688500 0.073600
0.679875 0.688500 0.073600
0.741563 0.688500 0.073600
0.803250 0.688500 0.073600
0.864938 0.688500 0.073600
0.926625 0.688500 0.073600
0.988312 0.688500 0.073600
1.000000 0.688500 0.073600
0.063000 0.751950 0.073600
0.124687 0.751950 0.073600
0.186375 0.751950 0.073600
0.248062 0.751950 0.073600
0.309750 0.751950 0.073600
0.371437 0.751950 0.073600
0.433125 0.751950 0.073600
0.494813 0.751950 0.073600
0.556500 0.751950 0.073600
0.618187 0.751950 0.073600
0.679875 0.751950 0.073600
0.741563 0.751950 0.073600
0.803250 0.751950 0.073600
0.864938 0.751950 0.073600
0.926625 0.751950 0.073600
0.988312 0.751950 0.073600
1.000000 0.751950 0.073600
0.063000 0.815400 0.073600
0.124687 0.815400 0.073600
0.186375 0.815400 0.073600
0.248062 0.815400 0.073600
0.309750 0.815400 0.073600
0.371437 0.815400 0.073600
0.433125 0.815400 0.073600
0.494813 0.815400 0.073600
0.556500 0.815400 0.073600
0.618187 0.815400 0.073600
0.679875 0.815400 0.073600
0.741563 0.815400 0.073600
0.803250 0.815400 0.073600
0.864938 0.815400 0.073600
0.926625 0.815400 0.073600
0.988312 0.815400 0.073600
1.000000 0.815400 0.073600
0.063000 0.878850 0.073600
0.124687 0.878850 0.073600
0.186375 0.878850 0.073600
0.248062 0.878850 0.073600
0.309750 0.878850 0.073600
0.371437 0.878850 0.073600
0.433125 0.878850 0.073600
0.494813 0.878850 0.073600
0.556500 0.878850 0.073600
0.618187 0.878850 0.073600
0.679875 0.878850 0.073600
0.741563 0.878850 0.073600
0.803250 0.878850 0.073600
0.864938 0.878850 0.073600
0.926625 0.878850 0.073600
0.988312 0.878850 0.073600
1.000000 0.878850 0.073600
0.063000 0.942300 0.073600
0.124687 0.942300 0.073600
0.186375 0.942300 0.073600
0.248062 0.942300 0.073600
0.309750 0.942300 0.073600
0.371437 0.942300 0.073600
0.433125 0.942300 0.073600
0.494813 0.942300 0.073600
0.556500 0.942300 0.073600
0.618187 0.942300 0.073600
0.679875 0.942300 0.073600
0.741563 0.942300 0.073600
0.803250 0.942300 0.073600
0.864938 0.942300 0.073600
0.926625 0.942300 0.073600
0.988312 0.942300 0.073600
1.000000 0.942300 0.073600
0.063000 1.000000 0.073600
0.124687 1.000000 0.073600
0.186375 1.000000 0.073600
0.248062 1.000000 0.073600
0.309750 1.000000 0.073600
0.371437 1.000000 0.073600
0.433125 1.000000 0.073600
0.494813 1.000000 0.073600
0.556500 1.000000 0.073600
0.618187 1.000000 0.073600
0.679875 1.000000 0.073600
0.741563 1.000000 0.073600
0.803250 1.000000 0.073600
0.864938 1.000000 0.073600
0.926625 1.000000 0.073600
0.988312 1.000000 0.073600
1.000000 1.000000 0.073600
0.063000 1.000000 0.073600
0.124687 1.000000 0.073600
0.186375 1.000000 0.073600
0.248062 1.000000 0.073600
0.309750 1.000000 0.073600
0.371437 1.000000 0.073600
0.433125 1.000000 0.073600
0.494813 1.000000 0.073600
0.556500 1.000000 0.073600
0.618187 1.000000 0.073600
0.679875 1.000000 0.073600
0.741563 1.000000 0.073600
0.803250 1.000000 0.073600
0.864938 1.000000 0.073600
0.926625 1.000000 0.073600
0.988312 1.000000 0.073600
1.000000 1.000000 0.073600
0.063000 0.054000 0.126500
0.124687 0.054000 0.126500
0.186375 0.054000 0.126500
0.248062 0.054000 0.126500
0.309750 0.054000 0.126500
0.371437 0.054000 0.126500
0.433125 0.054000 0.126500
0.494813 0.054000 0.126500
0.556500 0.054000 0.126500
0.618187 0.054000 0.126500
0.679875 0.054000 0.126500
0.741563 0.054000 0.126500
0.803250 0.054000 0.126500
0.864938 0.054000 0.126500
0.926625 0.054000 0.126500
0.988312 0.054000 0.126500
1.000000 0.054000 0.126500
0.063000 0.117450 0.126500
0.124687 0.117450 0.126500
0.186375 0.117450 0.126500
0.248062 0.117450 0.126500
0.309750 0.117450 0.126500
0.371437 0.117450 0.126500
0.433125 0.117450 0.126500
0.494813 0.117450 0.126500
0.556500 0.117450 0.126500
0.618187 0.117450 0.126500
0.679875 0.117450 0.126500
0.741563 0.117450 0.126500
0.803250 0.117450 0.126500
0.864938 0.117450 0.126500
0.926625 0.117450 0.126500
0.988312 0.117450 0.126500
1.000000 0.117450 0.126500
0.063000 0.180900 0.126500
0.124687 0.180900 0.126500
0.186375 0.180900 0.126500
0.248062 0.180900 0.126500
0.309750 0.180900 0.126500
0.371437 0.180900 0.126500
0.433125 0.180900 0.126500
0.494813 0.180900 0.126500
0.556500 0.180900 0.126500
0.618187 0.180900 0.126500
0.679875 0.180900 0.126500
0.741563 0.180900 0.126500
0.803250 0.180900 0.126500
0.864938 0.180900 0.126500
0.926625 0.180900 0.126500
0.988312 0.180900 0.126500
1.000000 0.180900 0.126500
0.063000 0.244350 0.126500
0.124687 0.244350 0.126500
0.186375 0.244350 0.126500
0.248062 0.244350 0.126500
0.309750 0.244350 0.126500
0.371437 0.244350 0.126500
0.433125 0.244350 0.126500
0.494813 0.244350 0.126500
0.556500 0.244350 0.126500
0.618187 0.244350 0.126500
0.679875 0.244350 0.126500
0.741563 0.244350 0.126500
0.803250 0.244350 0.126500
0.864938 0.244350 0.126500
0.926625 0.244350 0.126500
0.988312 0.244350 0.126500
1.000000 0.244350 0.126500
0.063000 0.307800 0.126500
0.124687 0.307800 0.126500
0.186375 0.307800 0.126500
0.248062 0.307800 0.126500
0.309750 0.307800 0.126500
0.371437 0.307800 0.126500
0.433125 0.307800 0.126500
0.494813 0.307800 0.126500
0.556500 0.307800 0.126500
0.618187 0.307800 0.126500
0.679875 0.307800 0.126500
0.741563 0.307800 0.126500
0.803250 0.307800 0.126500
0.864938 0.307800 0.126500
0.926625 0.307800 0.126500
0.988312 0.307800 0.126500
1.000000 0.307800 0.126500
0.063000 0.371250 0.126500
0.124687 0.371250 0.126500
0.186375 0.371250 0.126500
0.248062 0.371250 0.126500
0.309750 0.371250 0.126500
0.371437 0.371250 0.126500
0.433125 0.371250 0.126500
0.494813 0.371250 0.126500
0.556500 0.371250 0.126500
0.618187 0.371250 0.126500
0.679875 0.371250 0.126500
0.741563 0.371250 0.126500
0.803250 0.371250 0.126500
0.864938 0.371250 0.126500
0.926625 0.371250 0.126500
0.988312 0.371250 0.126500
1.000000 0.371250 0.126500
0.063000 0.434700 0.126500
0.124687 0.434700 0.126500
0.186375 0.434700 0.126500
0.248062 0.434700 0.126500
0.309750 0.434700 0.126500
0.371437 0.434700 0.126500
0.433125 0.434700 0.126500
0.494813 0.434700 0.126500
0.556500 0.434700 0.126500
0.618187 0.434700 0.126500
0.679875 0.434700 0.126500
0.741563 0.434700 0.126500
0.803250 0.434700 0.126500
0.864938 0.434700 0.126500
0.926625 0.434700 0.126500
0.988312 0.434700 0.126500
1.000000 0.434700 0.126500
0.063000 0.498150 0.126500
0.124687 0.498150 0.126500
0.186375 0.498150 0.126500
0.248062 0.498150 0.126500
0.309750 0.498150 0.126500
0.371437 0.498150 0.126500
0.433125 0.498150 0.126500
0.494813 0.498150 0.126500
0.556500 0.498150 0.126500
0.618187 0.498150 0.126500
0.679875 0.498150 0.126500
0.741563 0.498150 0.126500
0.803250 0.498150 0.126500
0.864938 0.498150 0.126500
0.926625 0.498150 0.126500
0.988312 0.498150 0.126500
1.000000 0.498150 0.126500
0.063000 0.561600 0.126500
0.124687 0.561600 0.126500
0.186375 0.561600 0.126500
0.248062 0.561600 0.126500
0.309750 0.561600 0.126500
0.371437 0.561600 0.126500
0.433125 0.561600 0.126500
0.494813 0.561600 0.126500
0.556500 0.561600 0.126500
0.618187 0.561600 0.126500
0.679875 0.561600 0.126500
0.741563 0.561600 0.126500
0.803250 0.561600 0.126500
0.864938 0.561600 0.126500
0.926625 0.561600 0.126500
0.988312 0.561600 0.126500
1.000000 0.561600 0.126500
0.063000 0.625050 0.126500
0.124687 0.625050 0.126500
0.186375 0.625050 0.126500
0.248062 0.625050 0.126500
0.309750 0.625050 0.126500
0.371437 0.625050 0.126500
0.433125 0.625050 0.126500
0.494813 0.625050 0.126500
0.556500 0.625050 0.126500
0.618187 0.625050 0.126500
0.679875 0.625050 0.126500
0.741563 0.625050 0.126500
0.803250 0.625050 0.126500
0.864938 0.625050 0.126500
0.926625 0.625050 0.126500
0.988312 0.625050 0.126500
1.000000 0.625050 0.126500
0.063000 0.688500 0.126500
0.124687 0.688500 0.126500
0.186375 0.688500 0.126500
0.248062 0.688500 0.126500
0.309750 0.688500 0.126500
0.371437 0.688500 0.126500
0.433125 0.688500 0.126500
0.494813 0.688500 0.126500
0.556500 0.688500 0.126500
0.618187 0.688500 0.126500
0.679875 0.688500 0.126500
0.741563 0.688500 0.126500
0.803250 0.688500 0.126500
0.864938 0.688500 0.126500
0.926625 0.688500 0.126500
0.988312 0.688500 0.126500
1.000000 0.688500 0.126500
0.063000 0.751950 0.126500
0.124687 0.751950 0.126500
0.186375 0.751950 0.126500
0.248062 0.751950 0.126500
0.309750 0.751950 0.126500
0.371437 0.751950 0.126500
0.433125 0.751950 0.126500
0.494813 0.751950 0.126500
0.556500 0.751950 0.126500
0.618187 0.751950 0.126500
0.679875 0.751950 0.126500
0.741563 0.751950 0.126500
0.803250 0.751950 0.126500
0.864938 0.751950 0.126500
0.926625 0.751950 0.126500
0.988312 0.751950 0.126500
1.000000 0.751950 0.126500
0.063000 0.815400 0.126500
0.124687 0.815400 0.126500
0.186375 0.815400 0.126500
0.248062 0.815400 0.126500
0.309750 0.815400 0.126500
0.371437 0.815400 0.126500
0.433125 0.815400 0.126500
0.494813 0.815400 0.126500
0.556500 0.815400 0.126500
0.618187 0.815400 0.126500
0.679875 0.815400 0.126500
0.741563 0.815400 0.126500
0.803250 0.815400 0.126500
0.864938 0.815400 0.126500
0.926625 0.815400 0.126500
0.988312 0.815400 0.126500
1.000000 0.815400 0.126500
0.063000 0.878850 0.126500
0.124687 0.878850 0.126500
0.186375 0.878850 0.126500
0.248062 0.878850 0.126500
0.309750 0.878850 0.126500
0.371437 0.878850 0.126500
0.433125 0.878850 0.126500
0.494813 0.878850 0.126500
0.556500 0.878850 0.126500
0.618187 0.878850 0.126500
0.679875 0.878850 0.126500
0.741563 0.878850 0.126500
0.803250 0.878850 0.126500
0.864938 0.878850 0.126500
0.926625 0.878850 0.126500
0.988312 0.878850 0.126500
1.000000 0.878850 0.126500
0.063000 0.942300 0.126500
0.124687 0.942300 0.126500
0.186375 0.942300 0.126500
0.248062 0.942300 0.126500
0.309750 0.942300 0.126500
0.371437 0.942300 0.126500
0.433125 0.942300 0.126500
0.494813 0.942300 0.126500
0.556500 0.942300 0.126500
0.618187 0.942300 0.126500
0.679875 0.942300 0.126500
0.741563 0.942300 0.126500
0.803250 0.942300 0.126500
0.864938 0.942300 0.126500
0.926625 0.942300 0.126500
0.988312 0.942300 0.126500
1.000000 0.942300 0.126500
0.063000 1.000000 0.126500
0.124687 1.000000 0.126500
0.186375 1.000000 0.126500
0.248062 1.000000 0.126500
0.309750 1.000000 0.126500
0.371437 1.000000 0.126500
0.433125 1.000000 0.126500
0.494813 1.000000 0.126500
0.556500 1.000000 0.126500
0.618187 1.000000 0.126500
0.679875 1.000000 0.126500
0.741563 1.000000 0.126500
0.803250 1.000000 0.126500
0.864938 1.000000 0.126500
0.926625 1.000000 0.126500
0.988312 1.000000 0.126500
1.000000 1.000000 0.126500
0.063000 1.000000 0.126500
0.124687 1.000000 0.126500
0.186375 1.000000 0.126500
0.248062 1.000000 0.126500
0.309750 1.000000 0.126500
0.371437 1.000000 0.126500
0.433125 1.000000 0.126500
0.494813 1.000000 0.126500
0.556500 1.000000 0.126500
0.618187 1.000000 0.126500
0.679875 1.000000 0.126500
0.741563 1.000000 0.126500
0.803250 1.000000 0.126500
0.864938 1.000000 0.126500
0.926625 1.000000 0.126500
0.988312 1.000000 0.126500
1.000000 1.000000 0.126500
0.063000 0.054000 0.179400
0.124687 0.054000 0.179400
0.186375 0.054000 0.179400
0.248062 0.054000 0.179400
0.309750 0.054000 0.179400
0.371437 0.054000 0.179400
0.433125 0.054000 0.179400
0.494813 0.054000 0.179400
0.556500 0.054000 0.179400
0.618187 0.054000 0.179400
0.679875 0.054000 0.179400
0.741563 0.054000 0.179400
0.803250 0.054000 0.179400
0.864938 0.054000 0.179400
0.926625 0.054000 0.179400
0.988312 0.054000 0.179400
1.000000 0.054000 0.179400
0.063000 0.117450 0.179400
0.124687 0.117450 0.179400
0.186375 0.117450 0.179400
0.248062 0.117450 0.179400
0.309750 0.117450 0.179400
0.371437 0.117450 0.179400
0.433125 0.117450 0.179400
0.494813 0.117450 0.179400
0.556500 0.117450 0.179400
0.618187 0.117450 0.179400
0.679875 0.117450 0.179400
0.741563 0.117450 0.179400
0.803250 0.117450 0.179400
0.864938 0.117450 0.179400
0.926625 0.117450 0.179400
0.988312 0.117450 0.179400
1.000000 0.117450 0.179400
0.063000 0.180900 0.179400
0.124687 0.180900 0.179400
0.186375 0.180900 0.179400
0.248062 0.180900 0.179400
0.309750 0.180900 0.179400
0.371437 0.180900 0.179400
0.433125 0.180900 0.179400
0.494813 0.180900 0.179400
0.556500 0.180900 0.179400
0.618187 0.180900 0.179400
0.679875 0.180900 0.179400
0.741563 0.180900 0.179400
0.803250 0.180900 0.179400
0.864938 0.180900 0.179400
0.926625 0.180900 0.179400
0.988312 0.180900 0.179400
1.000000 0.180900 0.179400
0.063000 0.244350 0.179400
0.124687 0.244350 0.179400
0.186375 0.244350 0.179400
0.248062 0.244350 0.179400
0.309750 0.244350 0.179400
0.371437 0.244350 0.179400
0.433125 0.244350 0.179400
0.494813 0.244350 0.179400
0.556500 0.244350 0.179400
0.618187 0.244350 0.179400
0.679875 0.244350 0.179400
0.741563 0.244350 0.179400
0.803250 0.244350 0.179400
0.864938 0.244350 0.179400
0.926625 0.244350 0.179400
0.988312 0.244350 0.179400
1.000000 0.244350 0.179400
0.063000 0.307800 0.179400
0.124687 0.307800 0.179400
0.186375 0.307800 0.179400
0.248062 0.307800 0.179400
0.309750 0.307800 0.179400
0.371437 0.307800 0.179400
0.433125 0.307800 0.179400
0.494813 0.307800 0.179400
0.556500 0.307800 0.179400
0.618187 0.307800 0.179400
0.679875 0.307800 0.179400
0.741563 0.307800 0.179400
0.803250 0.307800 0.179400
0.864938 0.307800 0.179400
0.926625 0.307800 0.179400
0.988312 0.307800 0.179400
1.000000 0.307800 0.179400
0.063000 0.371250 0.179400
0.124687 0.371250 0.179400
0.186375 0.371250 0.179400
0.248062 0.371250 0.179400
0.309750 0.371250 0.179400
0.371437 0.371250 0.179400
0.433125 0.371250 0.179400
0.494813 0.371250 0.179400
0.556500 0.371250 0.179400
0.618187 0.371250 0.179400
0.679875 0.371250 0.179400
0.741563 0.371250 0.179400
0.803250 0.371250 0.179400
0.864938 0.371250 0.179400
0.926625 0.371250 0.179400
0.988312 0.371250 0.179400
1.000000 0.371250 0.179400
0.063000 0.434700 0.179400
0.124687 0.434700 0.179400
0.186375 0.434700 0.179400
0.248062 0.434700 0.179400
0.309750 0.434700 0.179400
0.371437 0.434700 0.179400
0.433125 0.434700 0.179400
0.494813 0.434700 0.179400
0.556500 0.434700 0.179400
0.618187 0.434700 0.179400
0.679875 0.434700 0.179400
0.741563 0.434700 0.179400
0.803250 0.434700 0.179400
0.864938 0.434700 0.179400
0.926625 0.434700 0.179400
0.988312 0.434700 0.179400
1.000000 0.434700 0.179400
0.063000 0.498150 0.179400
0.124687 0.498150 0.179400
0.186375 0.498150 0.179400
0.248062 0.498150 0.179400
0.309750 0.498150 0.179400
0.371437 0.498150 0.179400
0.433125 0.498150 0.179400
0.494813 0.498150 0.179400
0.556500 0.498150 0.179400
0.618187 0.498150 0.179400
0.679875 0.498150 0.179400
0.741563 0.498150 0.179400
0.803250 0.498150 0.179400
0.864938 0.498150 0.179400
0.926625 0.498150 0.179400
0.988312 0.498150 0.179400
1.000000 0.498150 0.179400
0.063000 0.561600 0.179400
0.124687 0.561600 0.179400
0.186375 0.561600 0.179400
0.248062 0.561600 0.179400
0.309750 0.561600 0.179400
0.371437 0.561600 0.179400
0.433125 0.561600 0.179400
0.494813 0.561600 0.179400
0.556500 0.561600 0.179400
0.618187 0.561600 0.179400
0.679875 0.561600 0.179400
0.741563 0.561600 0.179400
0.803250 0.561600 0.179400
0.864938 0.561600 0.179400
0.926625 0.561600 0.179400
0.988312 0.561600 0.179400
1.000000 0.561600 0.179400
0.063000 0.625050 0.179400
0.124687 0.625050 0.179400
0.186375 0.625050 0.179400
0.248062 0.625050 0.179400
0.309750 0.625050 0.179400
0.371437 0.625050 0.179400
0.433125 0.625050 0.179400
0.494813 0.625050 0.179400
0.556500 0.625050 0.179400
0.618187 0.625050 0.179400
0.679875 0.625050 0.179400
0.741563 0.625050 0.179400
0.803250 0.625050 0.179400
0.864938 0.625050 0.179400
0.926625 0.625050 0.179400
0.988312 0.625050 0.179400
1.000000 0.625050 0.179400
0.063000 0.688500 0.179400
0.124687 0.688500 0.179400
0.186375 0.688500 0.179400
0.248062 0.688500 0.179400
0.309750 0.688500 0.179400
0.371437 0.688500 0.179400
0.433125 0.688500 0.179400
0.494813 0.688500 0.179400
0.556500 0.688500 0.179400
0.618187 0.688500 0.179400
0.679875 0.688500 0.179400
0.741563 0.688500 0.179400
0.803250 0.688500 0.179400
0.864938 0.688500 0.179400
0.926625 0.688500 0.179400
0.988312 0.688500 0.179400
1.000000 0.688500 0.179400
0.063000 0.751950 0.179400
0.124687 0.751950 0.179400
0.186375 0.751950 0.179400
0.248062 0.751950 0.179400
0.309750 0.751950 0.179400
0.371437 0.751950 0.179400
0.433125 0.751950 0.179400
0.494813 0.751950 0.179400
0.556500 0.751950 0.179400
0.618187 0.751950 0.179400
0.679875 0.751950 0.179400
0.741563 0.751950 0.179400
0.803250 0.751950 0.179400
0.864938 0.751950 0.179400
0.926625 0.751950 0.179400
0.988312 0.751950 0.179400
1.000000 0.751950 0.179400
0.063000 0.815400 0.179400
0.124687 0.815400 0.179400
0.186375 0.815400 0.179400
0.248062 0.815400 0.179400
0.309750 0.815400 0.179400
0.371437 0.815400 0.179400
0.433125 0.815400 0.179400
0.494813 0.815400 0.179400
0.556500 0.815400 0.179400
0.618187 0.815400 0.179400
0.679875 0.815400 0.179400
0.741563 0.815400 0.179400
0.803250 0.815400 0.179400
0.864938 0.815400 0.179400
0.926625 0.815400 0.179400
0.988312 0.815400 0.179400
1.000000 0.815400 0.179400
0.063000 0.878850 0.179400
0.124687 0.878850 0.179400
0.186375 0.878850 0.179400
0.248062 0.878850 0.179400
0.309750 0.878850 0.179400
0.371437 0.878850 0.179400
0.433125 0.878850 0.179400
0.494813 0.878850 0.179400
0.556500 0.878850 0.179400
0.618187 0.878850 0.179400
0.679875 0.878850 0.179400
0.741563 0.878850 0.179400
0.803250 0.878850 0.179400
0.864938 0.878850 0.179400
0.926625 0.878850 0.179400
0.988312 0.878850 0.179400
1.000000 0.878850 0.179400
0.063000 0.942300 0.179400
0.124687 0.942300 0.179400
0.186375 0.942300 0.179400
0.248062 0.942300 0.179400
0.309750 0.942300 0.179400
0.371437 0.942300 0.179400
0.433125 0.942300 0.179400
0.494813 0.942300 0.179400
0.556500 0.942300 0.179400
0.618187 0.942300 0.179400
0.679875 0.942300 0.179400
0.741563 0.942300 0.179400
0.803250 0.942300 0.179400
0.864938 0.942300 0.179400
0.926625 0.942300 0.179400
0.988312 0.942300 0.179400
1.000000 0.942300 0.179400
0.063000 1.000000 0.179400
0.124687 1.000000 0.179400
0.186375 1.000000 0.179400
0.248062 1.000000 0.179400
0.309750 1.000000 0.179400
0.371437 1.000000 0.179400
0.433125 1.000000 0.179400
0.494813 1.000000 0.179400
0.556500 1.000000 0.179400
0.618187 1.000000 0.179400
0.679875 1.000000 0.179400
0.741563 1.000000 0.179400
0.803250 1.000000 0.179400
0.864938 1.000000 0.179400
0.926625 1.000000 0.179400
0.988312 1.000000 0.179400
1.000000 1.000000 0.179400
0.063000 1.000000 0.179400
0.124687 1.000000 0.179400
0.186375 1.000000 0.179400
0.248062 1.000000 0.179400
0.309750 1.000000 0.179400
0.371437 1.000000 0.179400
0.433125 1.000000 0.179400
0.494813 1.000000 0.179400
0.556500 1.000000 0.179400
0.618187 1.000000 0.179400
0.679875 1.000000 0.179400
0.741563 1.000000 0.179400
0.803250 1.000000 0.179400
0.864938 1.000000 0.179400
0.926625 1.000000 0.179400
0.988312 1.000000 0.179400
1.000000 1.000000 0.179400
0.063000 0.054000 0.232300
0.124687 0.054000 0.232300
0.186375 0.054000 0.232300
0.248062 0.054000 0.232300
0.309750 0.054000 0.232300
0.371437 0.054000 0.232300
0.433125 0.054000 0.232300
0.494813 0.054000 0.232300
0.556500 0.054000 0.232300
0.618187 0.054000 0.232300
0.679875 0.054000 0.232300
0.741563 0.054000 0.232300
0.803250 0.054000 0.232300
0.864938 0.054000 0.232300
0.926625 0.054000 0.232300
0.988312 0.054000 0.232300
1.000000 0.054000 0.232300
