04-EFFECTS-AND-FILTERS/3d-luts-cube-files/youtube_vibrant_pop.cube
# Generated by Video Auto-Editor Pipeline
TITLE "YouTube Vibrant Pop"
LUT_3D_SIZE 17
DOMAIN_MIN 0.0 0.0 0.0
DOMAIN_MAX 1.0 1.0 1.0
0.000000 0.000000 0.000000
0.095472 0.000000 0.000000
0.180645 0.000000 0.000000
0.262319 0.000000 0.000000
0.341801 0.000000 0.000000
0.419691 0.000000 0.000000
0.496337 0.000000 0.000000
0.571963 0.000000 0.000000
0.646726 0.000000 0.000000
0.720744 0.000000 0.000000
0.794105 0.000000 0.000000
0.866880 0.000000 0.000000
0.939127 0.000000 0.000000
1.000000 0.000000 0.000000
1.000000 0.000000 0.000000
1.000000 0.000000 0.000000
1.000000 0.000000 0.000000
0.000000 0.088339 0.000000
0.080880 0.080880 0.000000
0.166889 0.073361 0.000000
0.249018 0.065773 0.000000
0.328810 0.058109 0.000000
0.406935 0.050355 0.000000
0.483768 0.042496 0.000000
0.559550 0.034508 0.000000
0.634446 0.026353 0.000000
0.708580 0.017969 0.000000
0.782044 0.009212 0.000000
0.854912 0.000000 0.000000
0.927243 0.000000 0.000000
0.999086 0.000000 0.000000
1.000000 0.000000 0.000000
1.000000 0.000000 0.000000
1.000000 0.000000 0.000000
0.000000 0.167148 0.000000
0.066054 0.160105 0.000000
0.153035 0.153035 0.000000
0.235655 0.145936 0.000000
0.315774 0.138807 0.000000
0.394143 0.131646 0.000000
0.471170 0.124451 0.000000
0.547113 0.117219 0.000000
0.622146 0.109949 0.000000
0.696398 0.102637 0.000000
0.769967 0.095278 0.000000
0.842929 0.087870 0.000000
0.915345 0.080408 0.000000
0.987265 0.072884 0.000000
1.000000 0.065292 0.000000
1.000000 0.057623 0.000000
1.000000 0.049863 0.000000
0.000000 0.242720 0.000000
0.050929 0.235906 0.000000
0.139070 0.229074 0.000000
0.222225 0.222225 0.000000
0.302691 0.215358 0.000000
0.381315 0.208471 0.000000
0.458543 0.201565 0.000000
0.534651 0.194638 0.000000
0.609824 0.187689 0.000000
0.684198 0.180718 0.000000
0.757874 0.173724 0.000000
0.830931 0.166705 0.000000
0.903433 0.159660 0.000000
0.975433 0.152588 0.000000
1.000000 0.145487 0.000000
1.000000 0.138356 0.000000
1.000000 0.131193 0.000000
0.000000 0.316263 0.000000
0.035397 0.309606 0.000000
0.124981 0.302937 0.000000
0.208725 0.296254 0.000000
0.289559 0.289559 0.000000
0.368449 0.282850 0.000000
0.445886 0.276127 0.000000
0.522163 0.269390 0.000000
0.597481 0.262638 0.000000
0.671979 0.255872 0.000000
0.745764 0.249089 0.000000
0.818919 0.242291 0.000000
0.891508 0.235475 0.000000
0.963587 0.228643 0.000000
1.000000 0.221793 0.000000
1.000000 0.214924 0.000000
1.000000 0.208036 0.000000
0.000000 0.388335 0.000000
0.019221 0.381796 0.000000
0.110753 0.375249 0.000000
0.195148 0.368691 0.000000
0.276375 0.362123 0.000000
0.355545 0.355545 0.000000
0.433197 0.348956 0.000000
0.509650 0.342356 0.000000
0.585115 0.335745 0.000000
0.659740 0.329123 0.000000
0.733637 0.322489 0.000000
0.806890 0.315844 0.000000
0.879569 0.309186 0.000000
0.951729 0.302516 0.000000
1.000000 0.295833 0.000000
1.000000 0.289136 0.000000
1.000000 0.282426 0.000000
0.000000 0.459254 0.000000
0.001400 0.452811 0.000000
0.096364 0.446361 0.000000
0.181489 0.439902 0.000000
0.263136 0.433435 0.000000
0.342599 0.426960 0.000000
0.420476 0.420476 0.000000
0.497110 0.413983 0.000000
0.572727 0.407482 0.000000
0.647482 0.400971 0.000000
0.721492 0.394452 0.000000
0.794847 0.387922 0.000000
0.867616 0.381384 0.000000
0.939859 0.374835 0.000000
1.000000 0.368277 0.000000
1.000000 0.361708 0.000000
1.000000 0.355130 0.000000
0.000000 0.529229 0.000000
0.000000 0.522866 0.000000
0.081785 0.516496 0.000000
0.167739 0.510120 0.000000
0.249838 0.503736 0.000000
0.329611 0.497346 0.000000
0.407721 0.490948 0.000000
0.484543 0.484543 0.000000
0.560315 0.478130 0.000000
0.635203 0.471710 0.000000
0.709330 0.465283 0.000000
0.782787 0.458848 0.000000
0.855649 0.452405 0.000000
0.927975 0.445954 0.000000
0.999813 0.439494 0.000000
1.000000 0.433027 0.000000
1.000000 0.426551 0.000000
0.000000 0.598407 0.000000
0.000000 0.592112 0.000000
0.066975 0.585811 0.000000
0.153891 0.579504 0.000000
0.236479 0.573191 0.000000
0.316578 0.566872 0.000000
0.394932 0.560548 0.000000
0.471947 0.554216 0.000000
0.547879 0.547879 0.000000
0.622904 0.541535 0.000000
0.697149 0.535185 0.000000
0.770711 0.528828 0.000000
0.843667 0.522465 0.000000
0.916078 0.516094 0.000000
0.987993 0.509717 0.000000
1.000000 0.503333 0.000000
1.000000 0.496942 0.000000
0.000000 0.666894 0.000000
0.000000 0.660658 0.000000
0.051871 0.654417 0.000000
0.139933 0.648171 0.000000
0.223054 0.641920 0.000000
0.303498 0.635664 0.000000
0.382106 0.629402 0.000000
0.459321 0.623134 0.000000
0.535419 0.616862 0.000000
0.610583 0.610583 0.000000
0.684950 0.604299 0.000000
0.758619 0.598010 0.000000
0.831670 0.591714 0.000000
0.904167 0.585413 0.000000
0.976161 0.579106 0.000000
1.000000 0.572793 0.000000
1.000000 0.566474 0.000000
0.000000 0.734774 0.000000
0.000000 0.728591 0.000000
0.036368 0.722403 0.000000
0.125853 0.716211 0.000000
0.209558 0.710014 0.000000
0.290369 0.703812 0.000000
0.369243 0.697606 0.000000
0.446666 0.691395 0.000000
0.522933 0.685179 0.000000
0.598241 0.678958 0.000000
0.672732 0.672732 0.000000
0.746510 0.666501 0.000000
0.819659 0.660265 0.000000
0.892243 0.654024 0.000000
0.964317 0.647777 0.000000
1.000000 0.641526 0.000000
1.000000 0.635269 0.000000
0.000000 0.802112 0.000000
0.000000 0.795976 0.000000
0.020244 0.789836 0.000000
0.111634 0.783692 0.000000
0.195986 0.777543 0.000000
0.277188 0.771391 0.000000
0.356340 0.765234 0.000000
0.433979 0.759073 0.000000
0.510421 0.752907 0.000000
0.585877 0.746737 0.000000
0.660494 0.740563 0.000000
0.734384 0.734384 0.000000
0.807631 0.728201 0.000000
0.880305 0.722013 0.000000
0.952460 0.715820 0.000000
1.000000 0.709623 0.000000
1.000000 0.703421 0.000000
0.000000 0.868961 0.000000
0.000000 0.862868 0.000000
0.002649 0.856771 0.000000
0.097255 0.850670 0.000000
0.182332 0.844566 0.000000
0.263953 0.838457 0.000000
0.343397 0.832345 0.000000
0.421260 0.826229 0.000000
0.497883 0.820109 0.000000
0.573490 0.813985 0.000000
0.648237 0.807857 0.000000
0.722240 0.801725 0.000000
0.795589 0.795589 0.000000
0.868353 0.789448 0.000000
0.940590 0.783304 0.000000
1.000000 0.777155 0.000000
1.000000 0.771002 0.000000
0.000000 0.935366 0.000000
0.000000 0.929312 0.000000
0.000000 0.923254 0.000000
0.082689 0.917193 0.000000
0.168588 0.911129 0.000000
0.250659 0.905060 0.000000
0.330412 0.898989 0.000000
0.408507 0.892914 0.000000
0.485317 0.886835 0.000000
0.561080 0.880753 0.000000
0.635960 0.874667 0.000000
0.710079 0.868577 0.000000
0.783530 0.862484 0.000000
0.856386 0.856386 0.000000
0.928707 0.850285 0.000000
1.000000 0.844181 0.000000
1.000000 0.838072 0.000000
0.000000 1.000000 0.000000
0.000000 0.995344 0.000000
0.000000 0.989323 0.000000
0.067894 0.983298 0.000000
0.154746 0.977271 0.000000
0.237304 0.971240 0.000000
0.317382 0.965205 0.000000
0.395720 0.959168 0.000000
0.472723 0.953127 0.000000
0.548645 0.947083 0.000000
0.623662 0.941035 0.000000
0.697899 0.934984 0.000000
0.771455 0.928930 0.000000
0.844405 0.922872 0.000000
0.916811 0.916811 0.000000
0.988722 0.910746 0.000000
1.000000 0.904678 0.000000
0.000000 1.000000 0.000000
0.000000 1.000000 0.000000
0.000000 1.000000 0.000000
0.052811 1.000000 0.000000
0.140796 1.000000 0.000000
0.223883 1.000000 0.000000
0.304305 1.000000 0.000000
0.382897 1.000000 0.000000
0.460100 1.000000 0.000000
0.536187 1.000000 0.000000
0.611343 1.000000 0.000000
0.685701 1.000000 0.000000
0.759364 0.994965 0.000000
0.832410 0.988943 0.000000
0.904901 0.982918 0.000000
0.976890 0.976890 0.000000
1.000000 0.970859 0.000000
0.000000 1.000000 0.000000
0.000000 1.000000 0.000000
0.000000 1.000000 0.000000
0.037337 1.000000 0.000000
0.126723 1.000000 0.000000
0.210391 1.000000 0.000000
0.291179 1.000000 0.000000
0.370036 1.000000 0.000000
0.447446 1.000000 0.000000
0.523703 1.000000 0.000000
0.599002 1.000000 0.000000
0.673485 1.000000 0.000000
0.747256 1.000000 0.000000
0.820399 1.000000 0.000000
0.892978 1.000000 0.000000
0.965047 1.000000 0.000000
1.000000 1.000000 0.000000
0.000000 0.000000 0.100030
0.092655 0.000000 0.092655
0.177981 0.000000 0.085228
0.259740 0.000000 0.077744
0.339281 0.000000 0.070197
0.417217 0.000000 0.062579
0.493898 0.000000 0.054879
0.569554 0.000000 0.047084
0.644343 0.000000 0.039174
0.718383 0.000000 0.031122
0.791764 0.000000 0.022881
0.864557 0.000000 0.014367
0.936820 0.000000 0.005348
1.000000 0.000000 0.000000
1.000000 0.000000 0.000000
1.000000 0.000000 0.000000
1.000000 0.000000 0.000000
0.000000 0.085502 0.085502
0.078021 0.078021 0.078021
0.164207 0.070476 0.070476
0.246427 0.062861 0.062861
0.326282 0.055164 0.055164
0.404453 0.047373 0.047373
0.481324 0.039467 0.039467
0.557136 0.031421 0.031421
0.632059 0.023189 0.023189
0.706216 0.014687 0.014687
0.779700 0.005696 0.005696
0.852586 0.000000 0.000000
0.924933 0.000000 0.000000
0.996791 0.000000 0.000000
1.000000 0.000000 0.000000
1.000000 0.000000 0.000000
1.000000 0.000000 0.000000
0.000000 0.164466 0.070755
0.063142 0.157412 0.063142
0.150331 0.150331 0.055449
0.233052 0.143221 0.047661
0.313237 0.136080 0.039760
0.391655 0.128907 0.031720
0.468720 0.121698 0.023495
0.544694 0.114452 0.015006
0.619755 0.107166 0.006042
0.694030 0.099837 0.000000
0.767620 0.092460 0.000000
0.840600 0.085032 0.000000
0.913033 0.077547 0.000000
0.984968 0.069998 0.000000
1.000000 0.062378 0.000000
1.000000 0.054676 0.000000
1.000000 0.046878 0.000000
0.000000 0.240124 0.055734
0.047949 0.233303 0.047949
0.136344 0.226465 0.040053
0.219609 0.219609 0.032018
0.300145 0.212734 0.023802
0.378819 0.205840 0.015325
0.456087 0.198926 0.006387
0.532228 0.191991 0.000000
0.607429 0.185034 0.000000
0.681826 0.178054 0.000000
0.755523 0.171050 0.000000
0.828599 0.164022 0.000000
0.901119 0.156967 0.000000
0.973133 0.149884 0.000000
1.000000 0.142772 0.000000
1.000000 0.135629 0.000000
1.000000 0.128453 0.000000
0.000000 0.313727 0.040346
0.032317 0.307065 0.032317
0.122230 0.300391 0.024108
0.206094 0.293703 0.015643
0.287003 0.287003 0.006730
0.365946 0.280289 0.000000
0.443424 0.273560 0.000000
0.519735 0.266818 0.000000
0.595081 0.260060 0.000000
0.669603 0.253287 0.000000
0.743410 0.246499 0.000000
0.816584 0.239694 0.000000
0.889191 0.232872 0.000000
0.961285 0.226033 0.000000
1.000000 0.219176 0.000000
1.000000 0.212300 0.000000
1.000000 0.205405 0.000000
0.000000 0.385843 0.024414
0.015960 0.379301 0.015960
0.107972 0.372750 0.007071
0.192502 0.366188 0.000000
0.273808 0.359616 0.000000
0.353034 0.353034 0.000000
0.430729 0.346441 0.000000
0.507217 0.339837 0.000000
0.582711 0.333222 0.000000
0.657361 0.326595 0.000000
0.731279 0.319957 0.000000
0.804553 0.313307 0.000000
0.877249 0.306644 0.000000
0.949425 0.299969 0.000000
1.000000 0.293281 0.000000
1.000000 0.286580 0.000000
1.000000 0.279865 0.000000
0.000000 0.456798 0.007411
0.000000 0.450353 0.000000
0.093549 0.443899 0.000000
0.178826 0.437437 0.000000
0.260558 0.430967 0.000000
0.340080 0.424489 0.000000
0.418001 0.418001 0.000000
0.494672 0.411505 0.000000
0.570318 0.405001 0.000000
0.645099 0.398487 0.000000
0.719131 0.391963 0.000000
0.792506 0.385431 0.000000
0.865293 0.378888 0.000000
0.937552 0.372336 0.000000
1.000000 0.365774 0.000000
1.000000 0.359201 0.000000
1.000000 0.352618 0.000000
0.000000 0.526804 0.000000
0.000000 0.520438 0.000000
0.078928 0.514066 0.000000
0.165058 0.507687 0.000000
0.247249 0.501300 0.000000
0.327083 0.494907 0.000000
0.405240 0.488507 0.000000
0.482099 0.482099 0.000000
0.557902 0.475683 0.000000
0.632816 0.469261 0.000000
0.706965 0.462830 0.000000
0.780443 0.456392 0.000000
0.853323 0.449946 0.000000
0.925665 0.443492 0.000000
0.997519 0.437029 0.000000
1.000000 0.430559 0.000000
1.000000 0.424080 0.000000
0.000000 0.596007 0.000000
0.000000 0.589710 0.000000
0.064067 0.583407 0.000000
0.151189 0.577098 0.000000
0.233877 0.570783 0.000000
0.314041 0.564462 0.000000
0.392444 0.558134 0.000000
0.469497 0.551801 0.000000
0.545461 0.545461 0.000000
0.620513 0.539115 0.000000
0.694781 0.532762 0.000000
0.768364 0.526403 0.000000
0.841338 0.520037 0.000000
0.913766 0.513664 0.000000
0.985697 0.507284 0.000000
1.000000 0.500897 0.000000
1.000000 0.494504 0.000000
0.000000 0.664517 0.000000
0.000000 0.658279 0.000000
0.048896 0.652037 0.000000
0.137208 0.645789 0.000000
0.220439 0.639535 0.000000
0.300952 0.633277 0.000000
0.379611 0.627013 0.000000
0.456866 0.620744 0.000000
0.532996 0.614469 0.000000
0.608188 0.608188 0.000000
0.682578 0.601902 0.000000
0.756269 0.595610 0.000000
0.829339 0.589313 0.000000
0.901853 0.583009 0.000000
0.973862 0.576700 0.000000
1.000000 0.570384 0.000000
1.000000 0.564063 0.000000
0.000000 0.732417 0.000000
0.000000 0.726232 0.000000
0.033296 0.720043 0.000000
0.123103 0.713849 0.000000
0.206929 0.707650 0.000000
0.287813 0.701446 0.000000
0.366740 0.695238 0.000000
0.444205 0.689025 0.000000
0.520505 0.682807 0.000000
0.595842 0.676584 0.000000
0.670357 0.670357 0.000000
0.744156 0.664124 0.000000
0.817324 0.657886 0.000000
0.889926 0.651643 0.000000
0.962015 0.645394 0.000000
1.000000 0.639141 0.000000
1.000000 0.632882 0.000000
0.000000 0.799773 0.000000
0.000000 0.793635 0.000000
0.017000 0.787494 0.000000
0.108855 0.781348 0.000000
0.193341 0.775198 0.000000
0.274622 0.769044 0.000000
0.353830 0.762885 0.000000
0.431512 0.756722 0.000000
0.507989 0.750555 0.000000
0.583473 0.744384 0.000000
0.658115 0.738207 0.000000
0.732027 0.732027 0.000000
0.805294 0.725842 0.000000
0.877985 0.719652 0.000000
0.950156 0.713458 0.000000
1.000000 0.707259 0.000000
1.000000 0.701055 0.000000
0.000000 0.866638 0.000000
0.000000 0.860544 0.000000
0.000000 0.854445 0.000000
0.094442 0.848343 0.000000
0.179670 0.842237 0.000000
0.261375 0.836128 0.000000
0.340879 0.830014 0.000000
0.418786 0.823896 0.000000
0.495445 0.817775 0.000000
0.571082 0.811649 0.000000
0.645854 0.805519 0.000000
0.719880 0.799386 0.000000
0.793248 0.793248 0.000000
0.866030 0.787106 0.000000
0.938283 0.780960 0.000000
1.000000 0.774810 0.000000
1.000000 0.768655 0.000000
0.000000 0.933058 0.000000
0.000000 0.927002 0.000000
0.000000 0.920944 0.000000
0.079835 0.914881 0.000000
0.165908 0.908815 0.000000
0.248070 0.902746 0.000000
0.327885 0.896673 0.000000
0.406027 0.890597 0.000000
0.482874 0.884516 0.000000
0.558667 0.878433 0.000000
0.633573 0.872345 0.000000
0.707715 0.866254 0.000000
0.781186 0.860159 0.000000
0.854061 0.854061 0.000000
0.926398 0.847958 0.000000
0.998246 0.841852 0.000000
1.000000 0.835742 0.000000
0.000000 0.999068 0.000000
0.000000 0.993049 0.000000
0.000000 0.987026 0.000000
0.064990 0.981001 0.000000
0.152046 0.974972 0.000000
0.234703 0.968939 0.000000
0.314846 0.962904 0.000000
0.393233 0.956865 0.000000
0.470274 0.950823 0.000000
0.546228 0.944777 0.000000
0.621271 0.938728 0.000000
0.695532 0.932676 0.000000
0.769108 0.926620 0.000000
0.842077 0.920561 0.000000
0.914499 0.914499 0.000000
0.986425 0.908433 0.000000
1.000000 0.902363 0.000000
0.000000 1.000000 0.000000
0.000000 1.000000 0.000000
0.000000 1.000000 0.000000
0.049841 1.000000 0.000000
0.138073 1.000000 0.000000
0.221268 1.000000 0.000000
0.301760 1.000000 0.000000
0.380402 1.000000 0.000000
0.457645 1.000000 0.000000
0.533764 1.000000 0.000000
0.608948 1.000000 0.000000
0.683330 0.998689 0.000000
0.757014 0.992669 0.000000
0.830078 0.986646 0.000000
0.902586 0.980620 0.000000
0.974591 0.974591 0.000000
1.000000 0.968559 0.000000
0.000000 1.000000 0.000000
0.000000 1.000000 0.000000
0.000000 1.000000 0.000000
0.034273 1.000000 0.000000
0.123975 1.000000 0.000000
0.207763 1.000000 0.000000
0.288624 1.000000 0.000000
0.367534 1.000000 0.000000
0.444985 1.000000 0.000000
0.521275 1.000000 0.000000
0.596603 1.000000 0.000000
0.671110 1.000000 0.000000
0.744903 1.000000 0.000000
0.818064 1.000000 0.000000
0.890660 1.000000 0.000000
0.962745 1.000000 0.000000
1.000000 1.000000 0.000000
0.000000 0.000000 0.189268
0.089829 0.000000 0.182302
0.175313 0.000000 0.175313
0.257160 0.000000 0.168300
0.336760 0.000000 0.161261
0.414741 0.000000 0.154195
0.491458 0.000000 0.147101
0.567144 0.000000 0.139977
0.641959 0.000000 0.132822
0.716021 0.000000 0.125632
0.789422 0.000000 0.118407
0.862233 0.000000 0.111143
0.934513 0.000000 0.103838
1.000000 0.000000 0.096488
1.000000 0.000000 0.089088
1.000000 0.000000 0.081635
1.000000 0.000000 0.074122
0.000000 0.082657 0.175571
0.075152 0.075152 0.168558
0.161520 0.067582 0.161520
0.243835 0.059937 0.154456
0.323752 0.052206 0.147363
0.401970 0.044373 0.140240
0.478878 0.036418 0.133085
0.554722 0.028307 0.125897
0.629671 0.019986 0.118674
0.703851 0.011340 0.111411
0.777355 0.001961 0.104107
0.850259 0.000000 0.096759
0.922623 0.000000 0.089361
0.994496 0.000000 0.081910
1.000000 0.000000 0.074399
1.000000 0.000000 0.066822
1.000000 0.000000 0.059169
0.000000 0.161780 0.161780
0.060219 0.154716 0.154716
0.147624 0.147624 0.147624
0.230447 0.140502 0.140502
0.310698 0.133349 0.133349
0.389165 0.126163 0.126163
0.466269 0.118940 0.118940
0.542275 0.111679 0.111679
0.617362 0.104377 0.104377
0.691662 0.097030 0.097030
0.765272 0.089634 0.089634
0.838271 0.082185 0.082185
0.910720 0.074677 0.074677
0.982671 0.067102 0.067102
1.000000 0.059452 0.059452
1.000000 0.051715 0.051715
1.000000 0.043875 0.043875
0.000000 0.237525 0.147886
0.044953 0.230698 0.140765
0.133613 0.223853 0.133613
0.216990 0.216990 0.126428
0.297596 0.210108 0.119206
0.376322 0.203207 0.111947
0.453630 0.196285 0.104646
0.529803 0.189341 0.097301
0.605032 0.182376 0.089907
0.679454 0.175387 0.082460
0.753172 0.168374 0.074954
0.826267 0.161335 0.067382
0.898803 0.154270 0.059735
0.970833 0.147176 0.052001
1.000000 0.140052 0.044166
1.000000 0.132897 0.036207
1.000000 0.125708 0.028092
0.000000 0.311188 0.133877
0.029211 0.304522 0.126693
0.119473 0.297842 0.119473
0.203461 0.291150 0.112215
0.284444 0.284444 0.104916
0.363442 0.277725 0.097572
0.440961 0.270991 0.090180
0.517306 0.264243 0.082735
0.592680 0.257480 0.075231
0.667227 0.250701 0.067662
0.741056 0.243906 0.060017
0.814248 0.237095 0.052287
0.886873 0.230267 0.044456
0.958983 0.223421 0.036502
1.000000 0.216557 0.028393
1.000000 0.209674 0.020075
1.000000 0.202771 0.011433
0.000000 0.383350 0.119739
0.012641 0.376804 0.112482
0.105185 0.370249 0.105185
0.189853 0.363684 0.097843
0.271239 0.357108 0.090453
0.350521 0.350521 0.083010
0.428260 0.343924 0.075508
0.504783 0.337316 0.067941
0.580306 0.330697 0.060300
0.654981 0.324066 0.052573
0.728922 0.317423 0.044746
0.802214 0.310768 0.036797
0.874928 0.304101 0.028695
0.947120 0.297421 0.020385
1.000000 0.290728 0.011759
1.000000 0.284021 0.002446
1.000000 0.277301 0.000000
0.000000 0.454342 0.105454
0.000000 0.447893 0.098114
0.090726 0.441436 0.090726
0.176159 0.434971 0.083285
0.257978 0.428498 0.075786
0.337559 0.422016 0.068221
0.415526 0.415526 0.060583
0.492232 0.409026 0.052859
0.567908 0.402518 0.045036
0.642715 0.396001 0.037092
0.716770 0.389474 0.028996
0.790164 0.382937 0.020696
0.862970 0.376391 0.012084
0.935244 0.369835 0.002817
1.000000 0.363269 0.000000
1.000000 0.356693 0.000000
1.000000 0.350106 0.000000
0.000000 0.524378 0.090999
0.000000 0.518010 0.083560
0.076063 0.511635 0.076063
0.162372 0.505253 0.068501
0.244657 0.498864 0.060865
0.324554 0.492468 0.053145
0.402758 0.486064 0.045326
0.479654 0.479654 0.037387
0.555487 0.473236 0.029297
0.630428 0.466810 0.021006
0.704601 0.460377 0.012409
0.778099 0.453935 0.003184
0.850997 0.447486 0.000000
0.923355 0.441029 0.000000
0.995224 0.434563 0.000000
1.000000 0.428090 0.000000
1.000000 0.421607 0.000000
0.000000 0.593607 0.076339
0.000000 0.587307 0.068780
0.061147 0.581002 0.061147
0.148483 0.574691 0.053431
0.231273 0.568373 0.045616
0.311503 0.562050 0.037682
0.389954 0.555720 0.029598
0.467046 0.549384 0.021315
0.543042 0.543042 0.012733
0.618121 0.536693 0.003547
0.692413 0.530338 0.000000
0.766016 0.523976 0.000000
0.839009 0.517608 0.000000
0.911453 0.511232 0.000000
0.983399 0.504850 0.000000
1.000000 0.498460 0.000000
1.000000 0.492064 0.000000
0.000000 0.662139 0.061430
0.000000 0.655900 0.053716
0.045905 0.649655 0.045905
0.134479 0.643405 0.037976
0.217821 0.637150 0.029899
0.298405 0.630889 0.021624
0.377114 0.624623 0.013056
0.454410 0.618352 0.003907
0.530572 0.612075 0.000000
0.605792 0.605792 0.000000
0.680206 0.599504 0.000000
0.753918 0.593210 0.000000
0.827007 0.586910 0.000000
0.899537 0.580604 0.000000
0.971562 0.574293 0.000000
1.000000 0.567975 0.000000
1.000000 0.561651 0.000000
0.000000 0.730059 0.046194
0.000000 0.723873 0.038270
0.030199 0.717682 0.030199
0.120347 0.711486 0.021933
0.204296 0.705285 0.013379
0.285256 0.699080 0.004264
0.364236 0.692870 0.000000
0.441742 0.686655 0.000000
0.518076 0.680435 0.000000
0.593441 0.674211 0.000000
0.667981 0.667981 0.000000
0.741802 0.661746 0.000000
0.814989 0.655506 0.000000
0.887608 0.649261 0.000000
0.959713 0.643011 0.000000
1.000000 0.636755 0.000000
1.000000 0.630494 0.000000
0.000000 0.797433 0.030499
0.000000 0.791294 0.022242
0.013700 0.785151 0.013700
0.106069 0.779004 0.004619
0.190693 0.772852 0.000000
0.272054 0.766696 0.000000
0.351318 0.760536 0.000000
0.429043 0.754371 0.000000
0.505555 0.748203 0.000000
0.581068 0.742029 0.000000
0.655736 0.735852 0.000000
0.729669 0.729669 0.000000
0.802956 0.723482 0.000000
0.875664 0.717291 0.000000
0.947851 0.711095 0.000000
1.000000 0.704894 0.000000
1.000000 0.698688 0.000000
0.000000 0.864315 0.014022
0.000000 0.858219 0.004971
0.000000 0.852119 0.000000
0.091622 0.846016 0.000000
0.177005 0.839908 0.000000
0.258796 0.833797 0.000000
0.338359 0.827682 0.000000
0.416311 0.821563 0.000000
0.493006 0.815440 0.000000
0.568672 0.809312 0.000000
0.643471 0.803181 0.000000
0.717519 0.797046 0.000000
0.790907 0.790907 0.000000
0.863707 0.784763 0.000000
0.935976 0.778616 0.000000
1.000000 0.772464 0.000000
1.000000 0.766308 0.000000
0.000000 0.930750 0.000000
0.000000 0.924693 0.000000
0.000000 0.918633 0.000000
0.076972 0.912569 0.000000
0.163224 0.906502 0.000000
0.245479 0.900431 0.000000
0.325356 0.894357 0.000000
0.403545 0.888279 0.000000
0.480429 0.882197 0.000000
0.556253 0.876112 0.000000
0.631185 0.870023 0.000000
0.705350 0.863931 0.000000
0.778842 0.857835 0.000000
0.851735 0.851735 0.000000
0.924088 0.845631 0.000000
0.995951 0.839523 0.000000
1.000000 0.833411 0.000000
0.000000 0.996774 0.000000
0.000000 0.990753 0.000000
0.000000 0.984729 0.000000
0.062074 0.978702 0.000000
0.149341 0.972672 0.000000
0.232099 0.966638 0.000000
0.312308 0.960602 0.000000
0.390744 0.954562 0.000000
0.467824 0.948518 0.000000
0.543809 0.942471 0.000000
0.618879 0.936421 0.000000
0.693164 0.930368 0.000000
0.766761 0.924311 0.000000
0.839748 0.918250 0.000000
0.912186 0.912186 0.000000
0.984128 0.906119 0.000000
1.000000 0.900048 0.000000
0.000000 1.000000 0.000000
0.000000 1.000000 0.000000
0.000000 1.000000 0.000000
0.046855 1.000000 0.000000
0.135345 1.000000 0.000000
0.218651 1.000000 0.000000
0.299212 1.000000 0.000000
0.377906 1.000000 0.000000
0.455188 1.000000 0.000000
0.531341 1.000000 0.000000
0.606552 1.000000 0.000000
0.680958 0.996394 0.000000
0.754663 0.990373 0.000000
0.827746 0.984349 0.000000
0.900271 0.978322 0.000000
0.972292 0.972292 0.000000
1.000000 0.966258 0.000000
0.000000 1.000000 0.000000
0.000000 1.000000 0.000000
0.000000 1.000000 0.000000
0.031184 1.000000 0.000000
0.121222 1.000000 0.000000
0.205131 1.000000 0.000000
0.286067 1.000000 0.000000
0.365030 1.000000 0.000000
0.442523 1.000000 0.000000
0.518847 1.000000 0.000000
0.594203 1.000000 0.000000
0.668734 1.000000 0.000000
0.742549 1.000000 0.000000
0.815729 1.000000 0.000000
0.888343 1.000000 0.000000
0.960443 1.000000 0.000000
1.000000 1.000000 0.000000
0.000000 0.000000 0.274841
0.086996 0.000000 0.268101
0.172642 0.000000 0.261346
0.254577 0.000000 0.254577
0.334237 0.000000 0.247791
0.412263 0.000000 0.240989
0.489018 0.000000 0.234171
0.564734 0.000000 0.227335
0.639574 0.000000 0.220481
0.713659 0.000000 0.213609
0.787080 0.000000 0.206718
0.859909 0.000000 0.199806
0.932205 0.000000 0.192874
1.000000 0.000000 0.185919
1.000000 0.000000 0.178943
1.000000 0.000000 0.171942
1.000000 0.000000 0.164916
