04-EFFECTS-AND-FILTERS/3d-luts-cube-files/youtube_vibrant_pop.cube
# Generated by Video Auto-Editor Pipeline
TITLE "YouTube Vibrant Pop"
LUT_3D_SIZE 9
DOMAIN_MIN 0.0 0.0 0.0
DOMAIN_MAX 1.0 1.0 1.0
0.000000 0.000000 0.000000
0.180645 0.000000 0.000000
0.341801 0.000000 0.000000
0.496337 0.000000 0.000000
0.646726 0.000000 0.000000
0.794105 0.000000 0.000000
0.939127 0.000000 0.000000
1.000000 0.000000 0.000000
1.000000 0.000000 0.000000
0.000000 0.167148 0.000000
0.153035 0.153035 0.000000
0.315774 0.138807 0.000000
0.471170 0.124451 0.000000
0.622146 0.109949 0.000000
0.769967 0.095278 0.000000
0.915345 0.080408 0.000000
1.000000 0.065292 0.000000
1.000000 0.049863 0.000000
0.000000 0.316263 0.000000
0.124981 0.302937 0.000000
0.289559 0.289559 0.000000
0.445886 0.276127 0.000000
0.597481 0.262638 0.000000
0.745764 0.249089 0.000000
0.891508 0.235475 0.000000
1.000000 0.221793 0.000000
1.000000 0.208036 0.000000
0.000000 0.459254 0.000000
0.096364 0.446361 0.000000
0.263136 0.433435 0.000000
0.420476 0.420476 0.000000
0.572727 0.407482 0.000000
0.721492 0.394452 0.000000
0.867616 0.381384 0.000000
1.000000 0.368277 0.000000
1.000000 0.355130 0.000000
0.000000 0.598407 0.000000
0.066975 0.585811 0.000000
0.236479 0.573191 0.000000
0.394932 0.560548 0.000000
0.547879 0.547879 0.000000
0.697149 0.535185 0.000000
0.843667 0.522465 0.000000
0.987993 0.509717 0.000000
1.000000 0.496942 0.000000
0.000000 0.734774 0.000000
0.036368 0.722403 0.000000
0.209558 0.710014 0.000000
0.369243 0.697606 0.000000
0.522933 0.685179 0.000000
0.672732 0.672732 0.000000
0.819659 0.660265 0.000000
0.964317 0.647777 0.000000
1.000000 0.635269 0.000000
0.000000 0.868961 0.000000
0.002649 0.856771 0.000000
0.182332 0.844566 0.000000
0.343397 0.832345 0.000000
0.497883 0.820109 0.000000
0.648237 0.807857 0.000000
0.795589 0.795589 0.000000
0.940590 0.783304 0.000000
1.000000 0.771002 0.000000
0.000000 1.000000 0.000000
0.000000 0.989323 0.000000
0.154746 0.977271 0.000000
0.317382 0.965205 0.000000
0.472723 0.953127 0.000000
0.623662 0.941035 0.000000
0.771455 0.928930 0.000000
0.916811 0.916811 0.000000
1.000000 0.904678 0.000000
0.000000 1.000000 0.000000
0.000000 1.000000 0.000000
0.126723 1.000000 0.000000
0.291179 1.000000 0.000000
0.447446 1.000000 0.000000
0.599002 1.000000 0.000000
0.747256 1.000000 0.000000
0.892978 1.000000 0.000000
1.000000 1.000000 0.000000
0.000000 0.000000 0.189268
0.175313 0.000000 0.175313
0.336760 0.000000 0.161261
0.491458 0.000000 0.147101
0.641959 0.000000 0.132822
0.789422 0.000000 0.118407
0.934513 0.000000 0.103838
1.000000 0.000000 0.089088
1.000000 0.000000 0.074122
0.000000 0.161780 0.161780
0.147624 0.147624 0.147624
0.310698 0.133349 0.133349
0.466269 0.118940 0.118940
0.617362 0.104377 0.104377
0.765272 0.089634 0.089634
0.910720 0.074677 0.074677
1.000000 0.059452 0.059452
1.000000 0.043875 0.043875
0.000000 0.311188 0.133877
0.119473 0.297842 0.119473
0.284444 0.284444 0.104916
0.440961 0.270991 0.090180
0.592680 0.257480 0.075231
0.741056 0.243906 0.060017
0.886873 0.230267 0.044456
1.000000 0.216557 0.028393
1.000000 0.202771 0.011433
0.000000 0.454342 0.105454
0.090726 0.441436 0.090726
0.257978 0.428498 0.075786
0.415526 0.415526 0.060583
0.567908 0.402518 0.045036
0.716770 0.389474 0.028996
0.862970 0.376391 0.012084
1.000000 0.363269 0.000000
1.000000 0.350106 0.000000
0.000000 0.593607 0.076339
0.061147 0.581002 0.061147
0.231273 0.568373 0.045616
0.389954 0.555720 0.029598
0.543042 0.543042 0.012733
0.692413 0.530338 0.000000
0.839009 0.517608 0.000000
0.983399 0.504850 0.000000
1.000000 0.492064 0.000000
0.000000 0.730059 0.046194
0.030199 0.717682 0.030199
0.204296 0.705285 0.013379
0.364236 0.692870 0.000000
0.518076 0.680435 0.000000
0.667981 0.667981 0.000000
0.814989 0.655506 0.000000
0.959713 0.643011 0.000000
1.000000 0.630494 0.000000
0.000000 0.864315 0.014022
0.000000 0.852119 0.000000
0.177005 0.839908 0.000000
0.338359 0.827682 0.000000
0.493006 0.815440 0.000000
0.643471 0.803181 0.000000
0.790907 0.790907 0.000000
0.935976 0.778616 0.000000
1.000000 0.766308 0.000000
0.000000 0.996774 0.000000
0.000000 0.984729 0.000000
0.149341 0.972672 0.000000
0.312308 0.960602 0.000000
0.467824 0.948518 0.000000
0.618879 0.936421 0.000000
0.766761 0.924311 0.000000
0.912186 0.912186 0.000000
1.000000 0.900048 0.000000
0.000000 1.000000 0.000000
0.000000 1.000000 0.000000
0.121222 1.000000 0.000000
0.286067 1.000000 0.000000
0.442523 1.000000 0.000000
0.594203 1.000000 0.000000
0.742549 1.000000 0.000000
0.888343 1.000000 0.000000
1.000000 1.000000 0.000000
0.000000 0.000000 0.358117
0.169967 0.000000 0.344937
0.331713 0.000000 0.331713
0.486575 0.000000 0.318443
0.637189 0.000000 0.305124
0.784737 0.000000 0.291755
0.929896 0.000000 0.278332
1.000000 0.000000 0.264853
1.000000 0.000000 0.251314
0.000000 0.156396 0.332200
0.142196 0.142196 0.318932
0.305615 0.127872 0.305615
0.461364 0.113407 0.292248
0.612576 0.098779 0.278827
0.760574 0.083959 0.265350
0.906093 0.068907 0.251813
1.000000 0.053561 0.238213
1.000000 0.037815 0.224544
0.000000 0.306106 0.306106
0.113942 0.292740 0.292740
0.279322 0.279322 0.279322
0.436031 0.265847 0.265847
0.587877 0.252312 0.252312
0.736345 0.238714 0.238714
0.882235 0.225048 0.225048
1.000000 0.211310 0.211310
1.000000 0.197493 0.197493
0.000000 0.449425 0.279816
0.085057 0.436507 0.266344
0.252811 0.423556 0.252811
0.410571 0.410571 0.239216
0.563087 0.397549 0.225552
0.712045 0.384490 0.211817
0.858321 0.371393 0.198003
1.000000 0.358255 0.184105
1.000000 0.345076 0.170115
0.000000 0.588804 0.253310
0.055271 0.576190 0.239717
0.226056 0.563552 0.226056
0.384971 0.550890 0.212323
0.538202 0.538202 0.198513
0.687674 0.525488 0.184618
0.834349 0.512747 0.170631
0.978803 0.499978 0.156544
1.000000 0.487182 0.142346
0.000000 0.725342 0.226560
0.023917 0.712957 0.212830
0.199022 0.700554 0.199022
0.359223 0.688131 0.185131
0.513216 0.675689 0.171148
0.663227 0.663227 0.157065
0.810317 0.650744 0.142871
0.955107 0.638241 0.128553
1.000000 0.625716 0.114095
0.000000 0.859667 0.199532
0.000000 0.847465 0.185643
0.171664 0.835249 0.171664
0.333314 0.823016 0.157585
0.488124 0.810768 0.143395
0.638701 0.798503 0.129082
0.786223 0.786223 0.114629
0.931360 0.773925 0.100016
1.000000 0.761611 0.085214
0.000000 0.992183 0.172180
0.000000 0.980134 0.158104
0.143919 0.968071 0.143919
0.307227 0.955996 0.129611
0.462919 0.943908 0.115164
0.614094 0.931805 0.100557
0.762064 0.919690 0.085762
0.907560 0.907560 0.070741
1.000000 0.895416 0.055434
0.000000 1.000000 0.144443
0.000000 1.000000 0.130140
0.115698 1.000000 0.115698
0.280947 1.000000 0.101097
0.437595 1.000000 0.086310
0.589400 1.000000 0.071298
0.737838 1.000000 0.056003
0.883706 1.000000 0.040331
1.000000 1.000000 0.024092
0.000000 0.000000 0.520031
0.164607 0.000000 0.507278
0.326659 0.000000 0.494498
0.481688 0.000000 0.481688
0.632415 0.000000 0.468849
0.780050 0.000000 0.455980
0.925278 0.000000 0.443078
1.000000 0.000000 0.430144
1.000000 0.000000 0.417176
0.000000 0.150996 0.494968
0.136750 0.136750 0.482160
0.300525 0.122375 0.469322
0.456454 0.107850 0.456454
0.607786 0.093153 0.443554
0.755874 0.078250 0.430621
0.901464 0.063095 0.417654
1.000000 0.047612 0.404652
1.000000 0.031669 0.391614
0.000000 0.301016 0.469795
0.108387 0.287631 0.456928
0.274191 0.274191 0.444029
0.431097 0.260694 0.431097
0.583069 0.247135 0.418132
0.731631 0.233512 0.405131
0.877595 0.219819 0.392094
1.000000 0.206051 0.379020
1.000000 0.192203 0.365906
0.000000 0.444504 0.444504
0.079355 0.431573 0.431573
0.247635 0.418609 0.418609
0.405610 0.405610 0.405610
0.558261 0.392575 0.392575
0.707318 0.379501 0.379501
0.853670 0.366389 0.366389
0.997861 0.353235 0.353235
1.000000 0.340039 0.340039
0.000000 0.583997 0.419087
0.049341 0.571374 0.406089
0.220829 0.558727 0.393055
0.379983 0.546055 0.379983
0.533357 0.533357 0.366872
0.682932 0.520633 0.353720
0.829687 0.507882 0.340525
0.974205 0.495103 0.327286
1.000000 0.482295 0.314000
0.000000 0.720622 0.393535
0.017487 0.708231 0.380465
0.193736 0.695820 0.367355
0.354205 0.683390 0.354205
0.508351 0.670940 0.341012
0.658470 0.658470 0.327774
0.805643 0.645980 0.314490
0.950499 0.633468 0.301156
1.000000 0.620935 0.287772
0.000000 0.855017 0.367838
0.000000 0.842809 0.354689
0.166308 0.830587 0.341498
0.328262 0.818348 0.328262
0.483238 0.806094 0.314979
0.633929 0.793823 0.301648
0.781536 0.781536 0.288265
0.926742 0.769232 0.274828
1.000000 0.756911 0.261333
0.000000 0.987591 0.341984
0.000000 0.975536 0.328750
0.138479 0.963469 0.315469
0.302139 0.951389 0.302139
0.458011 0.939295 0.288758
0.609305 0.927188 0.275323
0.757364 0.915067 0.261831
0.902932 0.902932 0.248278
1.000000 0.890782 0.234660
0.000000 1.000000 0.315958
0.000000 1.000000 0.302631
0.110151 1.000000 0.289252
0.275819 1.000000 0.275819
0.432662 1.000000 0.262328
0.584594 1.000000 0.248778
0.733126 1.000000 0.235162
0.879067 1.000000 0.221478
1.000000 1.000000 0.207720
0.000000 0.000000 0.677599
0.159231 0.000000 0.665140
0.321598 0.000000 0.652660
0.476797 0.000000 0.640160
0.627639 0.000000 0.627639
0.775360 0.000000 0.615095
0.920657 0.000000 0.602530
1.000000 0.000000 0.589942
1.000000 0.000000 0.577330
0.000000 0.145579 0.653120
0.131286 0.131286 0.640620
0.295427 0.116856 0.628100
0.451539 0.102269 0.615557
0.602993 0.087497 0.602993
0.751171 0.072505 0.590405
0.896833 0.057236 0.577794
1.000000 0.041599 0.565160
1.000000 0.025417 0.552500
0.000000 0.295919 0.628561
0.102808 0.282513 0.616019
0.269052 0.269052 0.603455
0.426158 0.255532 0.590869
0.578259 0.241949 0.578259
0.726915 0.228300 0.565625
0.872953 0.214579 0.552966
1.000000 0.200781 0.540283
1.000000 0.186901 0.527573
0.000000 0.439578 0.603918
0.073617 0.426635 0.591332
0.242450 0.413657 0.578723
0.400644 0.400644 0.566090
0.553433 0.387595 0.553433
0.702588 0.374507 0.540750
0.849017 0.361379 0.528041
0.993271 0.348209 0.515306
1.000000 0.334996 0.502543
0.000000 0.579187 0.579187
0.043347 0.566555 0.566555
0.215591 0.553899 0.553899
0.374989 0.541217 0.541217
0.528509 0.528509 0.528509
0.678187 0.515775 0.515775
0.825022 0.503013 0.503013
0.969605 0.490223 0.490223
1.000000 0.477404 0.477404
0.000000 0.715900 0.554365
0.010838 0.703501 0.541684
0.188437 0.691083 0.528977
0.349180 0.678645 0.516244
0.503483 0.666188 0.503483
0.653710 0.653710 0.490694
0.800966 0.641212 0.477876
0.945890 0.628692 0.465028
1.000000 0.616151 0.452149
0.000000 0.850364 0.529445
0.000000 0.838151 0.516713
0.160937 0.825922 0.503953
0.323203 0.813678 0.491165
0.478348 0.801417 0.478348
0.629153 0.789140 0.465501
0.776847 0.776847 0.452623
0.922122 0.764536 0.439714
1.000000 0.752209 0.426771
0.000000 0.982996 0.504423
0.000000 0.970937 0.491636
0.133020 0.958865 0.478820
0.297044 0.946779 0.465974
0.453098 0.934680 0.453098
0.604513 0.922568 0.440189
0.752662 0.910442 0.427248
0.898301 0.898301 0.414272
1.000000 0.886146 0.401261
0.000000 1.000000 0.479292
0.000000 1.000000 0.466447
0.104580 1.000000 0.453572
0.270682 1.000000 0.440665
0.427724 1.000000 0.427724
0.579784 1.000000 0.414750
0.728410 1.000000 0.401740
0.874425 1.000000 0.388693
1.000000 1.000000 0.375609
0.000000 0.000000 0.832012
0.153840 0.000000 0.819776
0.316530 0.000000 0.807523
0.471901 0.000000 0.795254
0.622859 0.000000 0.782969
0.770667 0.000000 0.770667
0.916034 0.000000 0.758348
1.000000 0.000000 0.746012
1.000000 0.000000 0.733657
0.000000 0.140144 0.807974
0.125801 0.125801 0.795706
0.290321 0.111314 0.783421
0.446620 0.096660 0.771120
0.598196 0.081810 0.758802
0.746466 0.066720 0.746466
0.892200 0.051324 0.734112
1.000000 0.035508 0.721740
1.000000 0.019026 0.709350
0.000000 0.290814 0.783874
0.097203 0.277387 0.771573
0.263904 0.263904 0.759255
0.421214 0.250361 0.746920
0.573445 0.236753 0.734567
0.722196 0.223077 0.722196
0.868309 0.209328 0.709806
1.000000 0.195499 0.697398
1.000000 0.181585 0.684971
0.000000 0.434647 0.759709
0.067840 0.421691 0.747374
0.237255 0.408700 0.735022
0.395673 0.395673 0.722651
0.548600 0.382609 0.710263
0.697855 0.369506 0.697855
0.844362 0.356363 0.685428
0.988678 0.343177 0.672982
1.000000 0.329946 0.660515
0.000000 0.574374 0.735477
0.037280 0.561733 0.723107
0.210342 0.549066 0.710719
0.369989 0.536375 0.698312
0.523657 0.523657 0.685886
0.673440 0.510912 0.673440
0.820355 0.498140 0.660974
0.965003 0.485339 0.648488
1.000000 0.472508 0.635981
0.000000 0.711175 0.711175
0.003777 0.698769 0.698769
0.183125 0.686343 0.686343
0.344148 0.673898 0.673898
0.498610 0.661433 0.661433
0.648948 0.648948 0.648948
0.796287 0.636441 0.636441
0.941278 0.623913 0.623913
1.000000 0.611364 0.611364
0.000000 0.845709 0.686801
0.000000 0.833490 0.674356
0.155551 0.821256 0.661892
0.318138 0.809005 0.649407
0.473453 0.796738 0.636902
0.624375 0.784455 0.624375
0.772155 0.772155 0.611826
0.917500 0.759838 0.599254
1.000000 0.747504 0.586660
0.000000 0.978400 0.662351
0.000000 0.966336 0.649867
0.127542 0.954258 0.637362
0.291941 0.942168 0.624836
0.448180 0.930064 0.612288
0.599717 0.917946 0.599717
0.747958 0.905814 0.587124
0.893669 0.893669 0.574507
1.000000 0.881508 0.561866
0.000000 1.000000 0.637823
0.000000 1.000000 0.625297
0.098983 1.000000 0.612750
0.265537 1.000000 0.600180
0.422782 1.000000 0.587587
0.574971 1.000000 0.574971
0.723692 1.000000 0.562331
0.869782 1.000000 0.549666
1.000000 1.000000 0.536976
0.000000 0.000000 0.983958
0.148432 0.000000 0.971900
0.311455 0.000000 0.959828
0.467000 0.000000 0.947744
0.618076 0.000000 0.935646
0.765972 0.000000 0.923535
0.911410 0.000000 0.911410
1.000000 0.000000 0.899270
1.000000 0.000000 0.887117
0.000000 0.134691 0.960273
0.120296 0.120296 0.948189
0.285208 0.105748 0.936092
0.441696 0.091023 0.923981
0.593396 0.076088 0.911856
0.741758 0.060891 0.899717
0.887564 0.045352 0.887564
1.000000 0.029325 0.875397
1.000000 0.012439 0.863214
0.000000 0.285701 0.936537
0.091569 0.272254 0.924427
0.258748 0.258748 0.912302
0.416264 0.245180 0.900164
0.568627 0.231547 0.888012
0.717474 0.217844 0.875845
0.863663 0.204065 0.863663
1.000000 0.190205 0.851466
1.000000 0.176256 0.839254
0.000000 0.429711 0.912749
0.062019 0.416742 0.900611
0.232050 0.403738 0.888459
0.390697 0.390697 0.876292
0.543764 0.377618 0.864111
0.693119 0.364500 0.851915
0.839704 0.351340 0.839704
0.984084 0.338138 0.827477
1.000000 0.324890 0.815235
0.000000 0.569557 0.888906
0.031125 0.556906 0.876740
0.205082 0.544231 0.864560
0.364983 0.531529 0.852364
0.518801 0.518801 0.840153
0.668689 0.506046 0.827927
0.815685 0.493263 0.815685
0.960400 0.480450 0.803428
1.000000 0.467609 0.791153
0.000000 0.706447 0.865008
0.000000 0.694033 0.852813
0.177800 0.681601 0.840603
0.339111 0.669148 0.828377
0.493733 0.656675 0.816136
0.644182 0.644182 0.803879
0.791605 0.631667 0.791605
0.936664 0.619131 0.779315
1.000000 0.606573 0.767008
0.000000 0.841052 0.841052
0.000000 0.828827 0.828827
0.150148 0.816587 0.816587
0.313065 0.804330 0.804330
0.468554 0.792057 0.792057
0.619593 0.779767 0.779767
0.767461 0.767461 0.767461
0.912876 0.755138 0.755138
1.000000 0.742796 0.742796
0.000000 0.973802 0.817037
0.000000 0.961733 0.804781
0.122043 0.949650 0.792509
0.286830 0.937555 0.780220
0.443257 0.925445 0.767914
0.594918 0.913322 0.755591
0.743251 0.901185 0.743251
0.889034 0.889034 0.730892
1.000000 0.876868 0.718516
0.000000 1.000000 0.792961
0.000000 1.000000 0.780672
0.093358 1.000000 0.768367
0.260383 1.000000 0.756045
0.417834 1.000000 0.743705
0.570155 1.000000 0.731347
0.718972 1.000000 0.718972
0.865136 1.000000 0.706577
1.000000 1.000000 0.694164
0.000000 0.000000 1.000000
0.143007 0.000000 1.000000
0.306373 0.000000 1.000000
0.462096 0.000000 1.000000
0.613290 0.000000 1.000000
0.761275 0.000000 1.000000
0.906783 0.000000 1.000000
1.000000 0.000000 1.000000
1.000000 0.000000 1.000000
0.000000 0.129219 1.000000
0.114768 0.114768 1.000000
0.280086 0.100156 1.000000
0.436767 0.085356 1.000000
0.588593 0.070328 1.000000
0.737047 0.055012 1.000000
0.882927 0.039311 1.000000
1.000000 0.023025 1.000000
1.000000 0.005511 1.000000
0.000000 0.280581 1.000000
0.085904 0.267111 1.000000
0.253582 0.253582 1.000000
0.411310 0.239990 1.000000
0.563806 0.226331 1.000000
0.712750 0.212600 1.000000
0.859014 0.198791 1.000000
1.000000 0.184898 1.000000
1.000000 0.170913 0.991096
0.000000 0.424770 1.000000
0.056151 0.411788 1.000000
0.226835 0.398770 1.000000
0.385715 0.385715 1.000000
0.538924 0.372621 1.000000
0.688381 0.359487 1.000000
0.835044 0.346312 0.991539
0.979489 0.333092 0.979489
1.000000 0.319827 0.967426
0.000000 0.564737 1.000000
0.024862 0.552076 1.000000
0.199809 0.539391 1.000000
0.359971 0.526679 1.000000
0.513941 0.513941 0.991982
0.663936 0.501175 0.979932
0.811014 0.488381 0.967870
0.955794 0.475558 0.955794
1.000000 0.462704 0.943705
0.000000 0.701716 1.000000
0.000000 0.689295 1.000000
0.172461 0.676855 0.992425
0.334066 0.664395 0.980376
0.488852 0.651914 0.968314
0.639413 0.639413 0.956239
0.786921 0.626890 0.944150
0.932048 0.614346 0.932048
1.000000 0.601779 0.919933
0.000000 0.836393 0.992868
0.000000 0.824162 0.980819
0.144729 0.811915 0.968758
0.307985 0.799653 0.956683
0.463651 0.787373 0.944595
0.614808 0.775077 0.932494
0.762765 0.762765 0.920379
0.908250 0.750434 0.908250
1.000000 0.738086 0.896107
0.000000 0.969202 0.969202
0.000000 0.957128 0.957128
0.116523 0.945040 0.945040
0.281711 0.932939 0.932939
0.438330 0.920825 0.920825
0.590116 0.908697 0.908697
0.738541 0.896554 0.896554
0.884397 0.884397 0.884397
1.000000 0.872226 0.872226
0.000000 1.000000 0.945485
0.000000 1.000000 0.933385
0.087704 1.000000 0.921271
0.255221 1.000000 0.909143
0.412881 1.000000 0.897001
0.565335 1.000000 0.884845
0.714248 1.000000 0.872674
0.860488 1.000000 0.860488
1.000000 1.000000 0.848288
0.000000 0.000000 1.000000
0.137564 0.000000 1.000000
0.301284 0.000000 1.000000
0.457186 0.000000 1.000000
0.608500 0.000000 1.000000
0.756575 0.000000 1.000000
0.902154 0.000000 1.000000
1.000000 0.000000 1.000000
1.000000 0.000000 1.000000
0.000000 0.123727 1.000000
0.109217 0.109217 1.000000
0.274957 0.094537 1.000000
0.431833 0.079656 1.000000
0.583786 0.064527 1.000000
0.732334 0.049079 1.000000
0.878287 0.033188 1.000000
1.000000 0.016569 1.000000
1.000000 0.000000 1.000000
0.000000 0.275452 1.000000
0.080207 0.261960 1.000000
0.248408 0.248408 1.000000
0.406350 0.234791 1.000000
0.558981 0.221104 1.000000
0.708023 0.207344 1.000000
0.854364 0.193504 1.000000
0.998545 0.179577 1.000000
1.000000 0.165555 1.000000
0.000000 0.419825 1.000000
0.050229 0.406829 1.000000
0.221609 0.393797 1.000000
0.380727 0.380727 1.000000
0.534080 0.367618 1.000000
0.683639 0.354469 1.000000
0.830382 0.341277 1.000000
0.974891 0.328040 1.000000
1.000000 0.314757 1.000000
0.000000 0.559913 1.000000
0.018457 0.547243 1.000000
0.194525 0.534547 1.000000
0.354953 0.521826 1.000000
0.509077 0.509077 1.000000
0.659180 0.496301 1.000000
0.806340 0.483495 1.000000
0.951187 0.470661 1.000000
1.000000 0.457795 1.000000
0.000000 0.696983 1.000000
0.000000 0.684555 1.000000
0.167108 0.672107 1.000000
0.329016 0.659639 1.000000
0.483967 0.647150 1.000000
0.634641 0.634641 1.000000
0.782235 0.622110 1.000000
0.927431 0.609557 1.000000
1.000000 0.596981 1.000000
0.000000 0.831732 1.000000
0.000000 0.819495 1.000000
0.139291 0.807242 1.000000
0.302898 0.794973 1.000000
0.458743 0.782687 1.000000
0.610019 0.770385 1.000000
0.758065 0.758065 1.000000
0.903622 0.745729 1.000000
1.000000 0.733374 1.000000
0.000000 0.964600 1.000000
0.000000 0.952521 1.000000
0.110980 0.940428 1.000000
0.276584 0.928322 1.000000
0.433398 0.916202 1.000000
0.585311 0.904069 1.000000
0.733829 0.891921 1.000000
0.879758 0.879758 1.000000
1.000000 0.867582 1.000000
0.000000 1.000000 1.000000
0.000000 1.000000 1.000000
0.082017 1.000000 1.000000
0.250049 1.000000 1.000000
0.407923 1.000000 1.000000
0.560511 1.000000 1.000000
0.709522 1.000000 1.000000
0.855839 1.000000 1.000000
1.000000 1.000000 1.000000
