04-EFFECTS-AND-FILTERS/3d-luts-cube-files/youtube_vibrant_pop.cube
# Generated by Video Auto-Editor Pipeline
TITLE "YouTube Vibrant Pop"
LUT_3D_SIZE 5
DOMAIN_MIN 0.0 0.0 0.0
DOMAIN_MAX 1.0 1.0 1.0
0.000000 0.000000 0.000000
0.341801 0.000000 0.000000
0.646726 0.000000 0.000000
0.939127 0.000000 0.000000
1.000000 0.000000 0.000000
0.000000 0.316263 0.000000
0.289559 0.289559 0.000000
0.597481 0.262638 0.000000
0.891508 0.235475 0.000000
1.000000 0.208036 0.000000
0.000000 0.598407 0.000000
0.236479 0.573191 0.000000
0.547879 0.547879 0.000000
0.843667 0.522465 0.000000
1.000000 0.496942 0.000000
0.000000 0.868961 0.000000
0.182332 0.844566 0.000000
0.497883 0.820109 0.000000
0.795589 0.795589 0.000000
1.000000 0.771002 0.000000
0.000000 1.000000 0.000000
0.126723 1.000000 0.000000
0.447446 1.000000 0.000000
0.747256 1.000000 0.000000
1.000000 1.000000 0.000000
0.000000 0.000000 0.358117
0.331713 0.000000 0.331713
0.637189 0.000000 0.305124
0.929896 0.000000 0.278332
1.000000 0.000000 0.251314
0.000000 0.306106 0.306106
0.279322 0.279322 0.279322
0.587877 0.252312 0.252312
0.882235 0.225048 0.225048
1.000000 0.197493 0.197493
0.000000 0.588804 0.253310
0.226056 0.563552 0.226056
0.538202 0.538202 0.198513
0.834349 0.512747 0.170631
1.000000 0.487182 0.142346
0.000000 0.859667 0.199532
0.171664 0.835249 0.171664
0.488124 0.810768 0.143395
0.786223 0.786223 0.114629
1.000000 0.761611 0.085214
0.000000 1.000000 0.144443
0.115698 1.000000 0.115698
0.437595 1.000000 0.086310
0.737838 1.000000 0.056003
1.000000 1.000000 0.024092
0.000000 0.000000 0.677599
0.321598 0.000000 0.652660
0.627639 0.000000 0.627639
0.920657 0.000000 0.602530
1.000000 0.000000 0.577330
0.000000 0.295919 0.628561
0.269052 0.269052 0.603455
0.578259 0.241949 0.578259
0.872953 0.214579 0.552966
1.000000 0.186901 0.527573
0.000000 0.579187 0.579187
0.215591 0.553899 0.553899
0.528509 0.528509 0.528509
0.825022 0.503013 0.503013
1.000000 0.477404 0.477404
0.000000 0.850364 0.529445
0.160937 0.825922 0.503953
0.478348 0.801417 0.478348
0.776847 0.776847 0.452623
1.000000 0.752209 0.426771
0.000000 1.000000 0.479292
0.104580 1.000000 0.453572
0.427724 1.000000 0.427724
0.728410 1.000000 0.401740
1.000000 1.000000 0.375609
0.000000 0.000000 0.983958
0.311455 0.000000 0.959828
0.618076 0.000000 0.935646
0.911410 0.000000 0.911410
1.000000 0.000000 0.887117
0.000000 0.285701 0.936537
0.258748 0.258748 0.912302
0.568627 0.231547 0.888012
0.863663 0.204065 0.863663
1.000000 0.176256 0.839254
0.000000 0.569557 0.888906
0.205082 0.544231 0.864560
0.518801 0.518801 0.840153
0.815685 0.493263 0.815685
1.000000 0.467609 0.791153
0.000000 0.841052 0.841052
0.150148 0.816587 0.816587
0.468554 0.792057 0.792057
0.767461 0.767461 0.767461
1.000000 0.742796 0.742796
0.000000 1.000000 0.792961
0.093358 1.000000 0.768367
0.417834 1.000000 0.743705
0.718972 1.000000 0.718972
1.000000 1.000000 0.694164
0.000000 0.000000 1.000000
0.301284 0.000000 1.000000
0.608500 0.000000 1.000000
0.902154 0.000000 1.000000
1.000000 0.000000 1.000000
0.000000 0.275452 1.000000
0.248408 0.248408 1.000000
0.558981 0.221104 1.000000
0.854364 0.193504 1.000000
1.000000 0.165555 1.000000
0.000000 0.559913 1.000000
0.194525 0.534547 1.000000
0.509077 0.509077 1.000000
0.806340 0.483495 1.000000
1.000000 0.457795 1.000000
0.000000 0.831732 1.000000
0.139291 0.807242 1.000000
0.458743 0.782687 1.000000
0.758065 0.758065 1.000000
1.000000 0.733374 1.000000
0.000000 1.000000 1.000000
0.082017 1.000000 1.000000
0.407923 1.000000 1.000000
0.709522 1.000000 1.000000
1.000000 1.000000 1.000000
